<?xml version="1.0" encoding="UTF-8"?>
<map version="1.10" tiledversion="1.11.2" orientation="isometric" renderorder="right-down" width="30" height="30" tilewidth="64" tileheight="32" infinite="0" nextlayerid="3" nextobjectid="72">
 <properties>
  <property name="Background" value="custom"/>
  <property name="Background Animation" value="/server/assets/custom/backgrounds/wcity/01-generic1.animation"/>
  <property name="Background Texture" value="/server/assets/custom/backgrounds/wcity/01-generic1.png"/>
  <property name="Background Vel X" type="float" value="0.45"/>
  <property name="Background Vel Y" type="float" value="0.25"/>
  <property name="Name" value="Casino"/>
  <property name="Song" value="/server/assets/Decor Shop.ogg"/>
 </properties>
 <tileset firstgid="1" source="../assets/tiles/central_platform.tsx"/>
 <tileset firstgid="241" source="../assets/tiles/vendor_desk.tsx"/>
 <tileset firstgid="245" source="../assets/objects/Ducky.tsx"/>
 <tileset firstgid="246" source="../assets/objects/tree.tsx"/>
 <tileset firstgid="254" source="../assets/objects/LanHpAnimatedTiles.tsx"/>
 <tileset firstgid="258" source="../assets/objects/Junkpiles.tsx"/>
 <tileset firstgid="260" source="../assets/objects/beyblade.tsx"/>
 <tileset firstgid="266" source="../assets/objects/coffee.tsx"/>
 <tileset firstgid="270" source="../assets/objects/EXE6_boss_markers.tsx"/>
 <tileset firstgid="278" source="../assets/objects/Teddy.tsx"/>
 <tileset firstgid="279" source="../assets/objects/BoktaiDolls28x33.tsx"/>
 <tileset firstgid="284" source="../assets/objects/toy.tsx"/>
 <tileset firstgid="285" source="../assets/tiles/Bus Stop.tsx"/>
 <tileset firstgid="286" source="../assets/tiles/home_warp.tsx"/>
 <tileset firstgid="291" source="../assets/objects/frag.tsx"/>
 <tileset firstgid="292" source="../assets/objects/bass_plush.tsx"/>
 <tileset firstgid="293" source="../assets/tiles/HoloPanelz.tsx"/>
 <tileset firstgid="303" source="../assets/objects/Zarydoll.tsx"/>
 <tileset firstgid="304" source="../assets/tiles/EXE6_Shortcuts.tsx"/>
 <tileset firstgid="352" source="../assets/tiles/Roadblock.tsx"/>
 <tileset firstgid="354" source="../assets/tiles/ShademanCompWarpAnimation.tsx"/>
 <tileset firstgid="360" source="../assets/objects/SlotMachine_OW.tsx"/>
 <layer id="1" name="Tile Layer 1" width="30" height="30">
  <data encoding="csv">
0,0,0,0,0,0,0,0,0,0,0,0,0,0,0,0,0,0,0,0,0,0,0,0,0,0,0,0,0,0,
0,0,0,0,0,0,0,0,0,0,0,0,0,0,0,0,0,0,0,0,0,0,0,0,0,0,0,0,0,0,
0,0,0,0,0,0,0,0,0,0,0,0,0,0,0,0,0,0,0,0,0,0,0,0,0,0,0,0,0,0,
0,0,0,0,0,0,0,0,0,0,0,0,0,0,0,0,0,0,0,0,0,0,0,0,0,0,0,0,0,0,
0,0,0,0,0,0,0,0,0,0,0,0,0,0,0,0,0,0,0,0,0,0,0,0,0,0,0,0,0,0,
0,0,0,0,0,0,0,0,0,0,0,0,0,0,0,0,0,0,0,0,0,0,0,0,0,0,0,0,0,0,
0,0,0,0,0,0,0,0,0,0,0,0,0,0,0,0,0,0,0,294,0,0,0,0,0,0,0,0,0,0,
0,0,0,0,0,0,0,0,0,62,63,63,63,63,63,63,63,63,63,63,63,73,0,0,0,0,0,0,0,0,
0,0,0,0,0,0,0,0,0,61,72,72,72,72,72,72,72,72,72,72,72,83,0,0,0,0,0,0,0,0,
0,0,0,0,0,0,0,0,0,61,72,72,72,72,72,72,72,72,72,72,72,83,0,0,0,0,0,0,0,0,
0,0,0,0,0,0,0,0,0,61,72,72,72,72,72,72,72,72,72,72,72,83,0,0,0,0,0,0,0,0,
0,0,0,0,0,0,0,0,0,61,72,72,72,72,72,72,72,72,72,72,72,83,0,0,0,0,0,0,0,0,
0,0,0,0,0,0,0,0,0,61,72,72,72,72,72,72,72,72,72,72,72,83,0,0,0,0,0,0,0,0,
0,0,0,0,0,0,0,0,0,61,72,72,72,72,72,72,72,72,72,72,72,83,0,0,0,0,0,0,0,0,
0,0,0,0,0,0,0,0,0,61,72,72,72,72,72,72,72,72,72,72,72,83,0,0,0,0,0,0,0,0,
0,0,0,0,0,0,0,0,0,61,72,72,72,72,72,72,72,72,72,72,72,83,0,0,0,0,0,0,0,0,
0,0,0,0,0,0,0,0,0,71,81,81,81,81,81,81,81,81,81,81,81,82,0,0,0,0,0,0,0,0,
0,0,0,0,0,0,0,0,0,0,0,0,0,0,0,112,0,0,0,0,0,0,0,0,0,0,0,0,0,0,
0,0,0,0,0,0,0,0,0,0,0,0,0,0,0,48,0,0,0,0,0,0,0,0,0,0,0,0,0,0,
0,0,0,0,0,0,0,0,0,0,0,0,0,0,0,52,0,0,0,0,0,0,0,0,0,0,0,0,0,0,
0,0,0,0,0,0,0,0,0,0,0,0,0,0,2,3,13,0,0,0,0,0,0,0,0,0,0,0,0,0,
0,0,0,0,0,0,0,0,0,0,0,0,0,0,1,12,23,0,0,0,0,0,0,0,0,0,0,0,0,0,
0,0,0,0,0,0,0,0,0,0,0,0,0,0,11,21,22,0,0,0,0,0,0,0,0,0,0,0,0,0,
0,0,0,0,0,0,0,0,0,0,0,0,0,0,0,0,0,0,294,0,0,0,0,0,0,0,0,0,0,0,
0,0,0,0,0,0,0,0,0,0,0,0,0,0,0,0,0,0,0,0,0,0,0,0,0,0,0,0,0,0,
0,0,0,0,0,0,0,0,0,0,0,0,0,0,0,0,0,0,0,0,0,0,0,0,0,0,0,0,0,0,
0,0,0,0,0,0,0,0,0,0,0,0,0,0,0,0,0,0,0,0,0,0,0,0,0,0,0,0,0,0,
0,0,0,0,0,0,0,0,0,0,0,0,0,0,0,0,0,0,0,0,0,0,0,0,0,0,0,0,0,0,
0,0,0,0,0,0,0,0,0,0,0,0,0,0,0,0,0,0,0,0,0,0,0,0,0,0,0,0,0,0,
0,0,0,0,0,0,0,0,0,0,0,0,0,0,0,0,0,0,0,0,0,0,0,0,0,0,0,0,0,0
</data>
 </layer>
 <objectgroup id="2" name="Object Layer 1">
  <object id="1" gid="241" x="336" y="288" width="35" height="45">
   <properties>
    <property name="Interact Relay" type="object" value="3"/>
   </properties>
  </object>
  <object id="2" gid="243" x="365.5" y="282.5" width="35" height="45">
   <properties>
    <property name="Interact Relay" type="object" value="3"/>
   </properties>
  </object>
  <object id="3" name="Merchant Zel" type="NPC" x="347.5" y="260.5">
   <properties>
    <property name="Asset Name" value="heel-navi-exe4_black"/>
    <property name="Dialogue Type" value="first"/>
    <property name="Direction" value="Down Left"/>
    <property name="Next 1" type="object" value="4"/>
    <property name="Text 1" value="Welcome, I sell tokens"/>
   </properties>
   <point/>
  </object>
  <object id="4" name="Token Shop" type="Dialogue" x="347" y="217">
   <properties>
    <property name="Dialogue Type" value="tokenshop"/>
   </properties>
   <point/>
  </object>
  <object id="43" name="default" type="Custom Warp" gid="286" x="480" y="672" width="60" height="32">
   <properties>
    <property name="Direction" value="Up Right"/>
    <property name="Target Area" value="default"/>
    <property name="Target Object" value="388"/>
   </properties>
  </object>
  <object id="52" name="SlotMachine" gid="360" x="672" y="272" width="29" height="51">
   <properties>
    <property name="SlotMachine" value="slot-purple"/>
   </properties>
  </object>
  <object id="53" name="SlotMachine" gid="361" x="672" y="320" width="29" height="51">
   <properties>
    <property name="SlotMachine" value="digital-purple"/>
   </properties>
  </object>
  <object id="54" name="SlotMachine" gid="362" x="672" y="416" width="29" height="51">
   <properties>
    <property name="SlotMachine" value="slot-green"/>
   </properties>
  </object>
  <object id="55" name="SlotMachine" gid="363" x="672" y="368" width="29" height="51">
   <properties>
    <property name="SlotMachine" value="digital-green"/>
   </properties>
  </object>
  <object id="56" name="SlotMachine" gid="360" x="640" y="272" width="29" height="51">
   <properties>
    <property name="SlotMachine" value="slot-purple"/>
   </properties>
  </object>
  <object id="57" name="SlotMachine" gid="360" x="608" y="272" width="29" height="51">
   <properties>
    <property name="SlotMachine" value="slot-purple"/>
   </properties>
  </object>
  <object id="58" name="SlotMachine" gid="360" x="576" y="272" width="29" height="51">
   <properties>
    <property name="SlotMachine" value="slot-purple"/>
   </properties>
  </object>
  <object id="59" name="SlotMachine" gid="360" x="544" y="272" width="29" height="51">
   <properties>
    <property name="SlotMachine" value="slot-purple"/>
   </properties>
  </object>
  <object id="60" name="SlotMachine" gid="361" x="640" y="320" width="29" height="51">
   <properties>
    <property name="SlotMachine" value="digital-purple"/>
   </properties>
  </object>
  <object id="61" name="SlotMachine" gid="361" x="608" y="320" width="29" height="51">
   <properties>
    <property name="SlotMachine" value="digital-purple"/>
   </properties>
  </object>
  <object id="62" name="SlotMachine" gid="361" x="576" y="320" width="29" height="51">
   <properties>
    <property name="SlotMachine" value="digital-purple"/>
   </properties>
  </object>
  <object id="63" name="SlotMachine" gid="361" x="544" y="320" width="29" height="51">
   <properties>
    <property name="SlotMachine" value="digital-purple"/>
   </properties>
  </object>
  <object id="64" name="SlotMachine" gid="363" x="640" y="368" width="29" height="51">
   <properties>
    <property name="SlotMachine" value="digital-green"/>
   </properties>
  </object>
  <object id="65" name="SlotMachine" gid="363" x="608" y="368" width="29" height="51">
   <properties>
    <property name="SlotMachine" value="digital-green"/>
   </properties>
  </object>
  <object id="66" name="SlotMachine" gid="363" x="576" y="368" width="29" height="51">
   <properties>
    <property name="SlotMachine" value="digital-green"/>
   </properties>
  </object>
  <object id="67" name="SlotMachine" gid="363" x="544" y="368" width="29" height="51">
   <properties>
    <property name="SlotMachine" value="digital-green"/>
   </properties>
  </object>
  <object id="68" name="SlotMachine" gid="362" x="640" y="416" width="29" height="51">
   <properties>
    <property name="SlotMachine" value="slot-green"/>
   </properties>
  </object>
  <object id="69" name="SlotMachine" gid="362" x="608" y="416" width="29" height="51">
   <properties>
    <property name="SlotMachine" value="slot-green"/>
   </properties>
  </object>
  <object id="70" name="SlotMachine" gid="362" x="576" y="416" width="29" height="51">
   <properties>
    <property name="SlotMachine" value="slot-green"/>
   </properties>
  </object>
  <object id="71" name="SlotMachine" gid="362" x="544" y="416" width="29" height="51">
   <properties>
    <property name="SlotMachine" value="slot-green"/>
   </properties>
  </object>
 </objectgroup>
</map>
