<?xml version="1.0" encoding="UTF-8"?>
<map version="1.10" tiledversion="1.11.2" orientation="isometric" renderorder="right-down" width="30" height="30" tilewidth="64" tileheight="32" infinite="0" nextlayerid="3" nextobjectid="52">
 <properties>
  <property name="Background" value="custom"/>
  <property name="Background Animation" value="/server/assets/custom/backgrounds/wcity/01-generic1.animation"/>
  <property name="Background Texture" value="/server/assets/custom/backgrounds/wcity/01-generic1.png"/>
  <property name="Background Vel X" type="float" value="0.45"/>
  <property name="Background Vel Y" type="float" value="0.25"/>
  <property name="Name" value="Decor_Shop"/>
  <property name="Song" value="/server/assets/Decor Shop.ogg"/>
  <property name="Stasis" value="11,18,0"/>
 </properties>
 <tileset firstgid="1" source="../assets/tiles/central_platform.tsx"/>
 <tileset firstgid="241" source="../assets/tiles/vendor_desk.tsx"/>
 <tileset firstgid="245" source="../assets/objects/Ducky.tsx"/>
 <tileset firstgid="246" source="../assets/objects/tree.tsx"/>
 <tileset firstgid="254" source="../assets/objects/LanHpAnimatedTiles.tsx"/>
 <tileset firstgid="258" source="../assets/objects/Junkpiles.tsx"/>
 <tileset firstgid="260" source="../assets/objects/beyblade.tsx"/>
 <tileset firstgid="266" source="../assets/objects/coffee.tsx"/>
 <tileset firstgid="270" source="../assets/objects/EXE6_boss_markers.tsx"/>
 <tileset firstgid="278" source="../assets/objects/Teddy.tsx"/>
 <tileset firstgid="279" source="../assets/objects/BoktaiDolls28x33.tsx"/>
 <tileset firstgid="284" source="../assets/objects/toy.tsx"/>
 <tileset firstgid="285" source="../assets/tiles/Bus Stop.tsx"/>
 <tileset firstgid="286" source="../assets/tiles/home_warp.tsx"/>
 <tileset firstgid="291" source="../assets/objects/frag.tsx"/>
 <tileset firstgid="292" source="../assets/objects/bass_plush.tsx"/>
 <tileset firstgid="293" source="../assets/tiles/HoloPanelz.tsx"/>
 <tileset firstgid="303" source="../assets/objects/Zarydoll.tsx"/>
 <tileset firstgid="304" source="../assets/tiles/EXE6_Shortcuts.tsx"/>
 <tileset firstgid="352" source="../assets/tiles/Roadblock.tsx"/>
 <tileset firstgid="354" source="../assets/tiles/ShademanCompWarpAnimation.tsx"/>
 <layer id="1" name="Tile Layer 1" width="30" height="30">
  <data encoding="csv">
0,0,0,0,0,0,0,0,0,0,0,0,0,0,0,0,0,0,0,0,0,0,0,0,0,0,0,0,0,0,
0,0,0,0,0,0,0,0,0,0,0,0,0,0,0,0,0,0,0,0,0,0,0,0,0,0,0,0,0,0,
0,0,0,0,0,0,0,0,0,0,0,0,0,0,0,0,0,0,0,0,0,0,0,0,0,0,0,0,0,0,
0,0,0,0,0,0,0,0,0,0,0,0,0,0,0,0,0,0,0,0,0,0,0,0,0,0,0,0,0,0,
0,0,0,0,0,0,0,0,0,0,0,0,0,0,0,0,0,0,0,0,0,0,0,0,0,0,0,0,0,0,
0,0,0,0,0,0,0,0,0,0,0,0,0,0,0,0,0,0,0,0,0,0,0,0,0,0,0,0,0,0,
0,0,0,0,0,0,0,0,0,0,0,0,0,0,0,0,0,0,0,294,0,0,0,0,0,0,0,0,0,0,
0,0,0,0,0,0,0,0,0,62,63,63,63,63,63,63,63,63,63,63,63,73,0,0,0,0,0,0,0,0,
0,0,0,0,0,0,0,0,0,61,72,72,72,72,72,72,72,72,72,72,72,83,0,0,0,0,0,0,0,0,
0,0,0,0,0,0,0,0,0,61,72,72,72,72,72,72,72,72,72,72,72,83,0,0,0,0,0,0,0,0,
0,0,0,0,0,0,0,0,0,61,72,72,72,72,72,72,72,72,72,72,72,83,0,0,0,0,0,0,0,0,
0,0,0,0,0,0,0,0,0,61,72,72,72,72,72,72,72,72,72,72,72,83,0,0,0,0,0,0,0,0,
0,0,0,0,0,0,0,0,0,61,72,72,72,72,72,72,72,72,72,72,72,83,0,0,0,0,0,0,0,0,
0,0,0,0,0,0,0,0,0,61,72,72,72,72,72,72,72,72,72,72,72,83,0,0,0,0,0,0,0,0,
0,0,0,0,0,0,0,0,0,61,72,72,72,72,72,72,72,72,72,72,72,83,0,0,0,0,0,0,0,0,
0,0,0,0,0,0,0,0,0,61,72,72,72,72,72,72,72,72,72,72,72,83,0,0,0,0,0,0,0,0,
0,0,0,0,0,0,0,0,0,71,81,81,81,81,81,81,81,81,81,81,81,82,0,0,0,0,0,0,0,0,
0,0,0,0,0,0,0,0,0,0,0,0,0,0,0,112,0,0,0,0,0,0,0,0,0,0,0,0,0,0,
0,0,0,0,0,0,0,0,0,0,0,0,0,0,0,48,0,0,0,0,0,0,0,0,0,0,0,0,0,0,
0,0,0,0,0,0,0,0,0,0,0,0,0,0,0,52,0,0,0,0,0,0,0,0,0,0,0,0,0,0,
0,0,0,0,0,0,0,0,0,0,0,0,0,0,2,3,13,0,0,0,0,0,0,0,0,0,0,0,0,0,
0,0,0,0,0,0,0,0,0,0,0,0,0,0,1,12,23,0,0,0,0,0,0,0,0,0,0,0,0,0,
0,0,0,0,0,0,0,0,0,0,0,0,0,0,11,21,22,0,0,0,0,0,0,0,0,0,0,0,0,0,
0,0,0,0,0,0,0,0,0,0,0,0,0,0,0,0,0,0,294,0,0,0,0,0,0,0,0,0,0,0,
0,0,0,0,0,0,0,0,0,0,0,0,0,0,0,0,0,0,0,0,0,0,0,0,0,0,0,0,0,0,
0,0,0,0,0,0,0,0,0,0,0,0,0,0,0,0,0,0,0,0,0,0,0,0,0,0,0,0,0,0,
0,0,0,0,0,0,0,0,0,0,0,0,0,0,0,0,0,0,0,0,0,0,0,0,0,0,0,0,0,0,
0,0,0,0,0,0,0,0,0,0,0,0,0,0,0,0,0,0,0,0,0,0,0,0,0,0,0,0,0,0,
0,0,0,0,0,0,0,0,0,0,0,0,0,0,0,0,0,0,0,0,0,0,0,0,0,0,0,0,0,0,
0,0,0,0,0,0,0,0,0,0,0,0,0,0,0,0,0,0,0,0,0,0,0,0,0,0,0,0,0,293
</data>
 </layer>
 <objectgroup id="2" name="Object Layer 1">
  <object id="1" gid="241" x="467.5" y="468" width="35" height="45">
   <properties>
    <property name="Interact Relay" type="object" value="3"/>
   </properties>
  </object>
  <object id="2" gid="243" x="497" y="462.5" width="35" height="45">
   <properties>
    <property name="Interact Relay" type="object" value="3"/>
   </properties>
  </object>
  <object id="3" name="Merchant Nel" type="NPC" x="481.5" y="440.5">
   <properties>
    <property name="Asset Name" value="heel-navi-exe4_black"/>
    <property name="Dialogue Type" value="first"/>
    <property name="Direction" value="Down Left"/>
    <property name="Next 1" type="object" value="4"/>
    <property name="Text 1" value="Welcome, I sell HP decorations"/>
   </properties>
   <point/>
  </object>
  <object id="4" name="Decorshop" type="Dialogue" x="451.5" y="404.5">
   <properties>
    <property name="Dialogue Type" value="decorshop"/>
    <property name="Price 1" type="int" value="30000"/>
    <property name="Price 10" type="int" value="40000"/>
    <property name="Price 11" type="int" value="50000"/>
    <property name="Price 12" type="int" value="50000"/>
    <property name="Price 13" type="int" value="50000"/>
    <property name="Price 14" type="int" value="50000"/>
    <property name="Price 15" type="int" value="400000"/>
    <property name="Price 16" type="int" value="400000"/>
    <property name="Price 17" type="int" value="400000"/>
    <property name="Price 18" type="int" value="400000"/>
    <property name="Price 19" type="int" value="400000"/>
    <property name="Price 2" type="int" value="40000"/>
    <property name="Price 20" type="int" value="700000"/>
    <property name="Price 21" type="int" value="40000"/>
    <property name="Price 22" type="int" value="100000"/>
    <property name="Price 23" type="int" value="900000"/>
    <property name="Price 24" type="int" value="500000"/>
    <property name="Price 25" type="int" value="500000"/>
    <property name="Price 26" type="int" value="500000"/>
    <property name="Price 27" type="int" value="500000"/>
    <property name="Price 28" type="int" value="1000000"/>
    <property name="Price 29" type="int" value="1000000"/>
    <property name="Price 3" type="int" value="50000"/>
    <property name="Price 30" type="int" value="1000000"/>
    <property name="Price 31" type="int" value="1000000"/>
    <property name="Price 32" type="int" value="1000000"/>
    <property name="Price 33" type="int" value="1000000"/>
    <property name="Price 4" type="int" value="50000"/>
    <property name="Price 5" type="int" value="60000"/>
    <property name="Price 6" type="int" value="50000"/>
    <property name="Price 7" type="int" value="10000"/>
    <property name="Price 8" type="int" value="60000"/>
    <property name="Price 9" type="int" value="50000"/>
    <property name="Sell 1" value="bus_stop"/>
    <property name="Sell 10" value="spinning_top"/>
    <property name="Sell 11" value="red_boss"/>
    <property name="Sell 12" value="blue_boss"/>
    <property name="Sell 13" value="yellow_boss"/>
    <property name="Sell 14" value="purple_boss"/>
    <property name="Sell 15" value="protoman_doll"/>
    <property name="Sell 16" value="megaman_doll"/>
    <property name="Sell 17" value="otenko_doll"/>
    <property name="Sell 18" value="doronbo_doll"/>
    <property name="Sell 19" value="okenko_doll"/>
    <property name="Sell 2" value="robot_toy"/>
    <property name="Sell 20" value="bass_doll"/>
    <property name="Sell 21" value="bug_frag"/>
    <property name="Sell 22" value="card_frame"/>
    <property name="Sell 23" value="zary_doll"/>
    <property name="Sell 24" value="home_shortcut"/>
    <property name="Sell 25" value="fish_shortcut"/>
    <property name="Sell 26" value="teams_shortcut"/>
    <property name="Sell 27" value="wcity3_shortcut"/>
    <property name="Sell 28" value="pet_mettaur"/>
    <property name="Sell 29" value="pet_ratty"/>
    <property name="Sell 3" value="green_tree"/>
    <property name="Sell 30" value="pet_spooky"/>
    <property name="Sell 31" value="pet_swordy"/>
    <property name="Sell 32" value="pet_moloko"/>
    <property name="Sell 33" value="pet_powie"/>
    <property name="Sell 4" value="blue_tree"/>
    <property name="Sell 5" value="stuffed_bear"/>
    <property name="Sell 6" value="lan_tile"/>
    <property name="Sell 7" value="junk_1"/>
    <property name="Sell 8" value="cyber_duck"/>
    <property name="Sell 9" value="welcome_coffee"/>
   </properties>
   <point/>
  </object>
  <object id="21" gid="284" x="640" y="352" width="32" height="24">
   <properties>
    <property name="Flavor" value="You see a Robot Toy"/>
   </properties>
  </object>
  <object id="22" gid="246" x="352" y="256" width="64" height="64">
   <properties>
    <property name="Flavor" value="You see a Green Cyber Tree"/>
   </properties>
  </object>
  <object id="23" gid="250" x="496" y="256" width="64" height="64">
   <properties>
    <property name="Flavor" value="You see a Blue Cyber Tree"/>
   </properties>
  </object>
  <object id="24" gid="278" x="576" y="288" width="36" height="49">
   <properties>
    <property name="Flavor" value="You see a Stuffed Bear"/>
   </properties>
  </object>
  <object id="25" gid="254" x="352" y="432" width="64" height="32"/>
  <object id="26" gid="258" x="432" y="256" width="64" height="64">
   <properties>
    <property name="Flavor" value="This is just junk"/>
   </properties>
  </object>
  <object id="27" gid="2147483918" x="348.5" y="465.5" width="73" height="34"/>
  <object id="28" gid="2147483920" x="351" y="393" width="73" height="34"/>
  <object id="29" gid="2147483922" x="311" y="431" width="73" height="34"/>
  <object id="30" gid="2147483924" x="388" y="430" width="73" height="34"/>
  <object id="31" gid="2147483893" x="624" y="288" width="38" height="36">
   <properties>
    <property name="Flavor" value="You see a Cyber Duck"/>
   </properties>
  </object>
  <object id="32" gid="266" x="688" y="528" width="33" height="54">
   <properties>
    <property name="Flavor" value="You see a Welcome Coffee Sign"/>
   </properties>
  </object>
  <object id="33" gid="260" x="624" y="464" width="18" height="25">
   <properties>
    <property name="Flavor" value="You see a Spinning Top"/>
   </properties>
  </object>
  <object id="34" gid="2147483931" x="608" y="432" width="28" height="30">
   <properties>
    <property name="Flavor" value="You see a ProtoMan doll"/>
   </properties>
  </object>
  <object id="35" gid="2147483930" x="640" y="432" width="28" height="30">
   <properties>
    <property name="Flavor" value="You see a MegaMan doll"/>
   </properties>
  </object>
  <object id="36" gid="2147483929" x="608" y="400" width="28" height="30">
   <properties>
    <property name="Flavor" value="You see a Doronbo doll"/>
   </properties>
  </object>
  <object id="37" gid="2147483928" x="640" y="400" width="28" height="30">
   <properties>
    <property name="Flavor" value="You see a Okenko doll"/>
   </properties>
  </object>
  <object id="38" gid="2147483927" x="608" y="368" width="28" height="30">
   <properties>
    <property name="Flavor" value="You see a Otenko doll"/>
   </properties>
  </object>
  <object id="39" gid="266" x="304" y="528" width="33" height="54">
   <properties>
    <property name="Flavor" value="You see a Welcome Coffee Sign"/>
   </properties>
  </object>
  <object id="40" gid="266" x="304" y="240" width="33" height="54">
   <properties>
    <property name="Flavor" value="You see a Welcome Coffee Sign"/>
   </properties>
  </object>
  <object id="41" gid="266" x="688" y="240" width="33" height="54">
   <properties>
    <property name="Flavor" value="You see a Welcome Coffee Sign"/>
   </properties>
  </object>
  <object id="42" gid="285" x="544" y="464" width="16" height="53">
   <properties>
    <property name="Flavor" value="You see a Bus Stop Sign"/>
   </properties>
  </object>
  <object id="43" name="default" type="Custom Warp" gid="286" x="480" y="672" width="60" height="32">
   <properties>
    <property name="Direction" value="Up Right"/>
    <property name="Target Area" value="default"/>
    <property name="Target Object" value="252"/>
   </properties>
  </object>
  <object id="44" gid="291" x="676.5" y="465.5" width="28" height="34">
   <properties>
    <property name="Flavor" value="You see a bug frag"/>
   </properties>
  </object>
  <object id="45" gid="292" x="674" y="430" width="32" height="32">
   <properties>
    <property name="Flavor" value="You see a Bass doll"/>
   </properties>
  </object>
  <object id="46" gid="303" x="672" y="384" width="30" height="28">
   <properties>
    <property name="CosmeticExtra" value="There seems to be something under the cloak..."/>
    <property name="CosmeticGotText" value="You got the 'BugFrag' cosmetic!"/>
    <property name="CosmeticID" value="BugFrag"/>
    <property name="Flavor" value="You see a Zary doll"/>
   </properties>
  </object>
  <object id="47" gid="292" x="493.5" y="250.5" width="32" height="32">
   <properties>
    <property name="CosmeticExtra" value="Wait a second, it's holding something"/>
    <property name="CosmeticGotText" value="You got the 'dmgaura' cosmetic!"/>
    <property name="CosmeticID" value="dmgaura"/>
    <property name="Flavor" value="You notice a Bass doll hidden back here..."/>
   </properties>
  </object>
  <object id="48" gid="308" x="313" y="395" width="64" height="40">
   <properties>
    <property name="Flavor" value="You see a shortcut tile"/>
   </properties>
  </object>
  <object id="49" gid="352" x="624" y="208" width="64" height="64" visible="0">
   <properties>
    <property name="Ask Question" type="bool" value="true"/>
    <property name="Auto Hide Minutes" type="int" value="30"/>
    <property name="Floor Sample X" type="int" value="29"/>
    <property name="Floor Sample Y" type="int" value="29"/>
    <property name="Message" value="You find a secret switch..."/>
    <property name="No Text" value="Not right now"/>
    <property name="Path Layer" type="int" value="0"/>
    <property name="Path X1" type="int" value="21"/>
    <property name="Path X2" type="int" value="21"/>
    <property name="Path Y1" type="int" value="6"/>
    <property name="Path Y2" type="int" value="1"/>
    <property name="Question" value="Do you want to press it?"/>
    <property name="Secret Path Switch" type="bool" value="true"/>
    <property name="Yes Text" value="Who wouldn't?"/>
   </properties>
  </object>
  <object id="50" name="To RagashiiHP" type="Custom Warp" gid="354" x="672" y="32" width="65" height="32">
   <properties>
    <property name="Direction" value="Up Right"/>
    <property name="Target Area" value="RagashiiHP"/>
    <property name="Target Object" value="6"/>
   </properties>
  </object>
  <object id="51" gid="324" x="388.5" y="393.5" width="64" height="40">
   <properties>
    <property name="Flavor" value="You see a shortcut tile"/>
   </properties>
  </object>
 </objectgroup>
</map>
