<?xml version="1.0" encoding="UTF-8"?>
<map version="1.8" tiledversion="1.11.2" orientation="isometric" renderorder="right-down" width="50" height="50" tilewidth="64" tileheight="32" infinite="0" nextlayerid="13" nextobjectid="216">
 <properties>
  <property name="Background" value="custom"/>
  <property name="Background Animation" value="/server/assets/custom/backgrounds/home/kottouhinyanodennou.animation"/>
  <property name="Background Texture" value="/server/assets/custom/backgrounds/home/kottouhinyanodennou.png"/>
  <property name="Background Vel X" type="float" value="0.35"/>
  <property name="Background Vel Y" type="float" value="0.2"/>
  <property name="Name" value="ShaDis_Home"/>
  <property name="OctoPVP" value="true"/>
 </properties>
 <tileset firstgid="1" source="../assets/tiles/home_warp.tsx"/>
 <tileset firstgid="6" source="../assets/tiles/Custom_Central_Tiles.tsx"/>
 <tileset firstgid="14" source="../assets/tiles/BBSOldFixed.tsx"/>
 <tileset firstgid="17" source="../assets/tiles/DenTownStairs.tsx"/>
 <tileset firstgid="26" source="../assets/tiles/SnowTileTopper.tsx"/>
 <tileset firstgid="41" source="../assets/tiles/IceTileTopper.tsx"/>
 <tileset firstgid="53" source="../assets/indy-trains/platforms.tsx"/>
 <tileset firstgid="57" source="../assets/indy-trains/Cyber_Rail.tsx"/>
 <tileset firstgid="58" source="../assets/tiles/Bus Stop.tsx"/>
 <tileset firstgid="59" source="../assets/tiles/coffee.tsx"/>
 <tileset firstgid="63" source="../assets/tiles/vendmach.tsx"/>
 <tileset firstgid="79" source="../assets/tiles/UndernetStatue.tsx"/>
 <tileset firstgid="80" source="../assets/ezlibs-assets/ezcheckpoints/bn5cubegreen_tile.tsx"/>
 <tileset firstgid="84" name="floor" tilewidth="62" tileheight="49" tilecount="0" columns="3" objectalignment="bottom">
  <tileoffset x="0" y="17"/>
  <grid orientation="isometric" width="62" height="49"/>
 </tileset>
 <tileset firstgid="84" source="../assets/tiles/hp_warp_blue.tsx"/>
 <tileset firstgid="89" source="../assets/tiles/SquareWarpsA.tsx"/>
 <tileset firstgid="129" source="../assets/tiles/vendor_desk.tsx"/>
 <tileset firstgid="133" source="../assets/tiles/Roadblock.tsx"/>
 <tileset firstgid="135" source="../assets/tiles/HoloPanelz.tsx"/>
 <tileset firstgid="145" source="../assets/tiles/Toy_Robo.tsx"/>
 <tileset firstgid="283" source="../assets/tiles/Warp_tohp_exe2.tsx"/>
 <layer id="1" name="Tile Layer 1" width="50" height="50">
  <data encoding="csv">
0,0,0,0,0,0,0,0,0,0,0,0,0,0,0,0,0,0,0,0,0,0,0,0,0,0,0,0,0,0,0,0,0,0,0,0,0,0,0,0,0,0,0,0,0,0,0,0,0,0,
0,0,0,0,0,0,0,0,0,0,0,0,0,0,0,0,0,0,0,0,0,0,0,0,0,0,0,0,0,0,0,0,0,0,0,0,0,0,0,0,0,0,0,0,0,0,0,0,0,0,
0,0,0,0,0,0,0,0,0,0,0,0,0,0,0,0,0,0,0,0,0,0,0,0,0,0,0,0,0,0,0,0,0,0,0,0,0,0,0,0,0,0,0,0,0,0,0,0,0,0,
0,0,0,0,0,0,0,0,0,0,0,0,0,0,0,0,0,0,0,0,0,0,0,0,0,0,0,0,0,0,0,0,0,0,0,0,0,0,0,0,0,0,0,0,0,0,0,0,0,0,
0,0,0,0,0,0,0,0,0,0,0,0,0,0,0,0,0,0,0,0,0,0,0,0,0,0,0,0,0,0,0,0,0,0,0,0,0,0,0,0,0,0,0,0,0,0,0,0,0,0,
0,0,0,0,0,0,0,0,0,0,0,0,0,0,0,0,0,0,0,0,0,0,0,0,0,0,0,0,0,0,0,0,0,0,0,0,0,0,0,0,0,0,0,0,0,0,0,0,0,0,
0,0,0,0,0,0,0,0,0,0,0,0,0,0,0,0,0,0,0,0,0,0,0,0,0,0,0,0,0,0,0,0,0,0,0,0,0,0,0,0,0,0,0,0,0,0,0,0,0,0,
0,0,0,0,0,0,0,0,0,0,0,0,0,0,0,0,0,0,0,0,0,0,0,0,0,0,0,0,0,0,0,0,0,0,0,0,0,0,0,0,0,0,0,0,0,0,0,0,0,0,
0,0,0,0,0,0,0,0,0,0,0,0,0,0,0,0,0,0,0,0,0,0,0,0,0,0,0,0,0,0,0,0,0,0,0,0,0,0,0,0,0,0,0,0,0,0,0,0,0,0,
0,0,0,0,0,0,0,0,0,0,0,0,0,0,0,0,0,0,0,0,0,0,0,0,0,0,0,0,0,0,0,0,0,0,0,0,0,0,0,0,0,0,0,0,0,0,0,0,0,0,
0,0,0,0,0,0,0,0,0,0,0,0,0,0,0,0,0,0,0,0,0,0,0,0,0,0,0,0,0,0,0,0,0,0,0,0,0,0,0,0,0,0,0,0,0,0,0,0,0,0,
0,0,0,0,0,0,0,0,0,0,0,0,0,0,0,0,0,0,0,0,0,0,0,0,0,0,0,0,0,0,0,0,0,0,0,0,0,0,0,0,0,0,0,0,0,0,0,0,0,0,
0,0,0,0,0,0,0,0,0,0,0,0,0,0,0,0,0,0,0,0,0,0,0,0,0,0,0,0,0,0,0,0,0,0,0,0,0,0,0,0,0,0,0,0,0,0,0,0,0,0,
0,0,0,0,0,0,0,0,0,57,57,57,57,57,57,57,57,57,57,57,57,57,57,57,57,57,57,57,57,57,57,57,57,57,57,57,0,0,0,0,0,0,0,0,0,0,0,0,0,0,
0,0,0,0,0,0,0,0,0,0,0,0,0,0,57,0,0,0,0,0,0,0,0,0,0,0,0,0,0,0,0,0,0,0,0,0,0,0,0,0,0,0,0,0,0,0,0,0,0,0,
0,0,0,0,0,0,0,0,0,0,0,0,0,0,0,0,0,0,0,0,0,0,0,0,0,0,0,0,0,0,0,0,0,0,0,0,0,0,0,0,0,0,0,0,0,0,0,0,0,0,
0,0,0,0,0,0,0,0,0,0,0,0,0,0,0,0,0,0,0,0,0,0,0,0,0,0,0,0,0,0,0,0,0,0,0,0,0,0,0,0,0,0,0,0,0,0,0,0,0,0,
0,0,0,0,0,0,0,0,0,0,0,0,0,0,0,0,0,0,0,0,0,0,0,0,0,0,0,0,0,0,0,0,0,0,0,0,0,0,0,0,0,0,0,0,0,0,0,0,0,0,
0,0,0,0,0,0,0,0,0,0,0,0,0,0,0,0,0,0,0,0,0,0,0,0,0,0,0,0,0,0,0,0,0,0,0,0,0,0,0,0,0,0,0,0,0,0,0,0,0,0,
0,0,0,0,0,0,0,0,0,0,0,0,0,0,136,136,136,136,136,0,0,0,0,0,0,0,0,0,0,0,0,0,0,0,0,0,0,0,0,0,0,0,0,0,0,0,0,0,0,0,
0,0,0,0,0,0,0,0,0,0,0,0,0,0,136,0,0,0,0,0,0,0,0,2147483671,2147483671,2147483671,0,0,0,0,0,0,0,0,0,0,0,0,0,0,0,0,0,0,0,0,0,0,0,0,
0,0,0,0,0,0,0,0,0,0,0,0,0,0,136,0,0,0,0,0,0,10,11,10,11,10,11,10,0,0,0,0,0,0,0,0,0,0,0,0,0,0,0,0,0,0,0,0,0,0,
0,0,0,0,0,0,0,0,0,0,0,0,0,0,136,0,0,0,0,0,0,11,8,9,8,9,8,11,0,0,0,0,0,0,0,0,0,0,0,0,0,0,0,0,0,0,0,0,0,0,
0,0,0,0,0,0,0,0,0,0,0,0,0,0,136,0,7,8,7,0,0,10,9,6,7,6,9,10,0,0,0,0,0,0,0,0,0,0,0,0,0,0,0,0,0,0,0,0,0,0,
0,0,0,0,0,0,0,0,0,0,0,0,0,0,136,0,8,7,8,13,13,11,8,7,5,7,8,11,0,0,0,0,0,0,0,0,0,0,0,0,0,0,0,0,0,0,0,0,0,0,
0,0,0,0,0,0,0,0,0,0,0,0,0,0,136,0,7,8,7,0,0,10,9,6,7,6,9,10,0,0,0,0,0,0,0,0,0,0,0,0,0,0,0,0,0,0,0,0,0,0,
0,0,0,0,0,0,0,0,0,0,0,0,0,0,136,0,0,0,0,0,0,11,8,9,6,9,8,11,0,0,0,0,0,0,0,0,0,0,0,0,0,0,0,0,0,0,0,0,0,0,
0,0,0,0,0,0,0,0,0,0,0,0,0,0,136,136,136,136,136,136,0,10,11,10,7,10,11,10,0,0,0,0,0,0,0,0,0,0,0,0,0,0,0,0,0,0,0,0,0,0,
0,0,0,0,0,0,0,0,0,0,0,0,0,0,0,0,0,0,0,136,0,0,0,0,6,0,0,0,0,0,0,0,0,0,0,0,0,0,0,0,0,0,0,0,0,0,0,0,0,0,
0,0,0,0,0,0,0,0,0,0,0,0,0,0,0,0,0,0,0,136,136,136,136,0,7,0,0,0,0,0,0,0,0,0,0,0,0,0,0,0,0,0,0,0,0,0,0,0,0,0,
0,0,0,0,0,0,0,0,0,0,0,0,0,0,0,0,0,0,0,0,0,0,136,11,6,11,0,0,0,0,0,0,0,0,0,0,0,0,0,0,0,0,0,0,0,0,0,0,0,0,
0,0,0,0,0,0,0,0,0,0,0,0,0,0,0,0,0,0,0,0,0,0,0,6,7,6,0,0,0,0,0,0,0,0,0,0,0,0,0,0,0,0,0,0,0,0,0,0,0,0,
0,0,0,0,0,0,0,0,0,0,0,0,0,0,0,0,0,0,0,0,0,0,0,11,6,11,0,0,0,0,0,0,0,0,0,0,0,0,0,0,0,0,0,0,0,0,0,0,0,0,
0,0,0,0,0,0,0,0,0,0,0,0,0,0,0,0,0,0,0,0,0,0,0,0,0,0,0,0,0,0,0,0,0,0,0,0,0,0,0,0,0,0,0,0,0,0,0,0,0,0,
0,0,0,0,0,0,0,0,0,0,0,0,0,0,0,0,0,0,0,0,0,0,0,0,0,0,0,0,0,0,0,0,0,0,0,0,0,0,0,0,0,0,0,0,0,0,0,0,0,0,
0,0,0,0,0,0,0,0,0,0,0,0,0,0,0,0,0,0,0,0,0,0,0,0,0,0,0,0,0,0,0,0,0,0,0,0,0,0,0,0,0,0,0,0,0,0,0,0,0,0,
0,0,0,0,0,0,0,0,0,0,0,0,0,0,0,0,0,0,0,0,0,0,0,0,0,0,0,0,0,0,0,0,0,0,0,0,0,0,0,0,0,0,0,0,0,0,0,0,0,0,
0,0,0,0,0,0,0,0,0,0,0,0,0,0,0,0,0,0,0,0,0,0,0,0,0,0,0,0,0,0,0,0,0,0,0,0,0,0,0,0,0,0,0,0,0,0,0,0,0,0,
0,0,0,0,0,0,0,0,0,0,0,0,0,0,0,0,0,0,0,0,0,0,0,0,0,0,0,0,0,0,0,0,0,0,0,0,0,0,0,0,0,0,0,0,0,0,0,0,0,0,
0,0,0,0,0,0,0,0,0,0,0,0,0,0,0,0,0,0,0,0,0,0,0,0,0,0,0,0,0,0,0,0,0,0,0,0,0,0,0,0,0,0,0,0,0,0,0,0,0,0,
0,0,0,0,0,0,0,0,0,0,0,0,0,0,0,0,0,0,0,0,0,0,0,0,0,0,0,0,0,0,0,0,0,0,0,0,0,0,0,0,0,0,0,0,0,0,0,0,0,0,
0,0,0,0,0,0,0,0,0,0,0,0,0,0,0,0,0,0,0,0,0,0,0,0,0,0,0,0,0,0,0,0,0,0,0,0,0,0,0,0,0,0,0,0,0,0,0,0,0,0,
0,0,0,0,0,0,0,0,0,0,0,0,0,0,0,0,0,0,0,0,0,0,0,0,0,0,0,0,0,0,0,0,0,0,0,0,0,0,0,0,0,0,0,0,0,0,0,0,0,0,
0,0,0,0,0,0,0,0,0,0,0,0,0,0,0,0,0,0,0,0,0,0,0,0,0,0,0,0,0,0,0,0,0,0,0,0,0,0,0,0,0,0,0,0,0,0,0,0,0,0,
0,0,0,0,0,0,0,0,0,0,0,0,0,0,0,0,0,0,0,0,0,0,0,0,0,0,0,0,0,0,0,0,0,0,0,0,0,0,0,0,0,0,0,0,0,0,0,0,0,0,
0,0,0,0,0,0,0,0,0,0,0,0,0,0,0,0,0,0,0,0,0,0,0,0,0,0,0,0,0,0,0,0,0,0,0,0,0,0,0,0,0,0,0,0,0,0,0,0,0,0,
0,0,0,0,0,0,0,0,0,0,0,0,0,0,0,0,0,0,0,0,0,0,0,0,0,0,0,0,0,0,0,0,0,0,0,0,0,0,0,0,0,0,0,0,0,0,0,0,0,0,
0,0,0,0,0,0,0,0,0,0,0,0,0,0,0,0,0,0,0,0,0,0,0,0,0,0,0,0,0,0,0,0,0,0,0,0,0,0,0,0,0,0,0,0,0,0,0,0,0,0,
0,0,0,0,0,0,0,0,0,0,0,0,0,0,0,0,0,0,0,0,0,0,0,0,0,0,0,0,0,0,0,0,0,0,0,0,0,0,0,0,0,0,0,0,0,0,0,0,0,0,
0,0,0,0,0,0,0,0,0,0,0,0,0,0,0,0,0,0,0,0,0,0,0,0,0,0,0,0,0,0,0,0,0,0,0,0,0,0,0,0,0,0,0,0,0,0,0,0,0,0
</data>
 </layer>
 <objectgroup id="3" name="Object" class="Custom Warp">
  <object id="16" name="Home" type="Home Warp" gid="1" x="768" y="768" width="60" height="32">
   <properties>
    <property name="Direction" value="Up Left"/>
   </properties>
  </object>
  <object id="22" name="ShaDis BBS" type="BBS" gid="15" x="656" y="720" width="48" height="69">
   <properties>
    <property name="BBS" type="bool" value="true"/>
    <property name="Color" type="color" value="#ff55ffff"/>
    <property name="Name" value="ShaDisBBS"/>
    <property name="Post Limit" type="int" value="300"/>
   </properties>
  </object>
  <object id="110" gid="59" x="720" y="688" width="33" height="54"/>
  <object id="111" gid="59" x="864" y="688" width="33" height="54"/>
  <object id="139" name="Cube1" type="Checkpoint" gid="80" x="640" y="784" width="53.25" height="56">
   <properties>
    <property name="Description" value="This cube is in the way"/>
    <property name="Once" type="bool" value="true"/>
    <property name="Password" value="Test1"/>
    <property name="Skip Prompt" type="bool" value="false"/>
    <property name="Unlock Failed Message" value="Thou shall not pass!"/>
    <property name="Unlocked Message" value="You can pass"/>
   </properties>
  </object>
  <object id="144" name="Rink" type="Custom Warp" gid="109" x="544" y="768" width="64" height="39">
   <properties>
    <property name="Direction" value="Down Right"/>
    <property name="Target Area" value="rink"/>
    <property name="Target Object" value="4"/>
   </properties>
  </object>
  <object id="145" name="Welcome Prog" type="NPC" x="735" y="735">
   <properties>
    <property name="Asset Name" value="prog"/>
    <property name="Dialogue Type" value="first"/>
    <property name="Direction" value="Down Left"/>
    <property name="Next 1" type="object" value="153"/>
    <property name="Next Waypoint 1" type="object" value="146"/>
    <property name="Text 1" value="Hey there, welcome to the ShaDisHP."/>
    <property name="Wait Time" type="int" value="5"/>
    <property name="Waypoint Type" value="first"/>
   </properties>
   <point/>
  </object>
  <object id="146" name="WayPoint1" type="Waypoint" x="736.5" y="831.5">
   <properties>
    <property name="Next Waypoint 1" type="object" value="147"/>
    <property name="Wait Time" type="int" value="5"/>
   </properties>
   <point/>
  </object>
  <object id="147" name="WayPoint2" type="Waypoint" x="831" y="831">
   <properties>
    <property name="Next Waypoint 1" type="object" value="148"/>
    <property name="Wait Time" type="int" value="5"/>
   </properties>
   <point/>
  </object>
  <object id="148" name="WayPoint3" type="Waypoint" x="832.5" y="737.5">
   <properties>
    <property name="Next Waypoint 1" type="object" value="150"/>
    <property name="Wait Time" type="int" value="5"/>
   </properties>
   <point/>
  </object>
  <object id="150" name="WayPoint4" type="Waypoint" x="735" y="735">
   <properties>
    <property name="Next Waypoint 1" type="object" value="146"/>
    <property name="Wait Time" type="int" value="5"/>
   </properties>
   <point/>
  </object>
  <object id="153" name="Random1" type="Dialogue" x="715.5" y="726.5">
   <properties>
    <property name="Dialogue Type" value="random"/>
    <property name="Text 1" value="We stay crunchy, even in milk!"/>
    <property name="Text 2" value="We update weekly, be sure to check us out often"/>
    <property name="Text 3" value="Beware of icy tiles."/>
    <property name="Text 4" value="Feel free to just relax in here."/>
    <property name="Text 5" value="Make sure to leave a message on the BBS, we do read all of them."/>
    <property name="Text 6" value="I wish there was more furniture, I need to sit down."/>
    <property name="Text 7" value="Virus free since 1999"/>
    <property name="Text 8" value="Para Espanol presione 2"/>
    <property name="Text 9" value="Fun fact about Luigi, he's been in more than 200 games... I guess you can include this one on there huh?"/>
   </properties>
   <point/>
  </object>
  <object id="176" name="WCity1" type="Custom Warp" gid="283" x="772" y="996" width="40" height="28">
   <properties>
    <property name="Direction" value="Up Right"/>
    <property name="Target Area" value="WCity1"/>
    <property name="Target Object" value="1"/>
   </properties>
  </object>
  <object id="179" name="Luigi.EXE" type="NPC" x="817" y="893">
   <properties>
    <property name="Asset Name" value="luigi"/>
    <property name="Dialogue Type" value="first"/>
    <property name="Direction" value="Up Right"/>
    <property name="Mugshot" value="Blank"/>
    <property name="Next 1" type="object" value="180"/>
    <property name="Text 1" value="Luigi's trying to tell you something"/>
   </properties>
   <point/>
  </object>
  <object id="180" name="Gibberish1" type="Dialogue" x="843.5" y="922.5">
   <properties>
    <property name="Dialogue Type" value="none"/>
    <property name="Event Name" value="Italian Gibberish"/>
    <property name="Next 1" type="object" value="182"/>
   </properties>
   <point/>
  </object>
  <object id="181" name="No Idea" type="Dialogue" x="899" y="969">
   <properties>
    <property name="Dialogue Type" value="first"/>
    <property name="Mugshot" value="player"/>
    <property name="Next 1" type="object" value="183"/>
    <property name="Text 1" value="I have no idea what he's saying... "/>
   </properties>
   <point/>
  </object>
  <object id="182" name="Text" type="Dialogue" x="868" y="944">
   <properties>
    <property name="Dialogue Type" value="first"/>
    <property name="Next 1" type="object" value="181"/>
    <property name="Text 1" value="*Italian Gibberish*"/>
   </properties>
   <point/>
  </object>
  <object id="183" name="Nod" type="Dialogue" x="921.5" y="974.5">
   <properties>
    <property name="Dialogue Type" value="first"/>
    <property name="Mugshot" value="player"/>
    <property name="Next 1" type="object" value="184"/>
    <property name="Text 1" value="I'll just nod..."/>
   </properties>
   <point/>
  </object>
  <object id="184" name="NodsBack" type="Dialogue" x="939" y="971">
   <properties>
    <property name="Dialogue Type" value="first"/>
    <property name="Mugshot" value="luigi-idle"/>
    <property name="Text 1" value="*nods back*"/>
   </properties>
   <point/>
  </object>
  <object id="185" name="Hitotsu-Me-Giant" type="Item" x="450" y="576">
   <properties>
    <property name="Description" value="Common: Hitotsu-Me Giant - A: 1200 / D: 1000"/>
    <property name="Name" value="[C]H.M.Gnt"/>
    <property name="Price" value="2000"/>
    <property name="Type" value="item"/>
   </properties>
   <point/>
  </object>
  <object id="189" name="Saggi" type="Item" x="448" y="578">
   <properties>
    <property name="Description" value="Common: Saggi The Dark Clown - A: 600 / D: 1500"/>
    <property name="Name" value="[C]Saggi"/>
    <property name="Price" value="2000"/>
    <property name="Type" value="item"/>
   </properties>
   <point/>
  </object>
  <object id="190" name="BattleOx" type="Item" x="452" y="574">
   <properties>
    <property name="Description" value="Common: Battle Ox - A: 1700 / D: 1000"/>
    <property name="Name" value="[C]B.Ox"/>
    <property name="Price" value="3000"/>
    <property name="Type" value="item"/>
   </properties>
   <point/>
  </object>
  <object id="191" name="CelticGuardian" type="Item" x="444" y="566">
   <properties>
    <property name="Description" value="Common: Celtic Guardian - A: 1400 / D: 1200"/>
    <property name="Name" value="[C]C.Guard"/>
    <property name="Price" value="2000"/>
    <property name="Type" value="item"/>
   </properties>
   <point/>
  </object>
  <object id="192" name="FeralImp" type="Item" x="442.5" y="568">
   <properties>
    <property name="Description" value="Common: Feral Imp - A: 1300 / D: 1400"/>
    <property name="Name" value="[C]F.Imp"/>
    <property name="Price" value="2000"/>
    <property name="Type" value="item"/>
   </properties>
   <point/>
  </object>
  <object id="193" name="Kuriboh" type="Item" x="440.5" y="570">
   <properties>
    <property name="Description" value="Common: Kuriboh - A: 300 / D: 200"/>
    <property name="Name" value="[C]Kbo"/>
    <property name="Price" value="500"/>
    <property name="Type" value="item"/>
   </properties>
   <point/>
  </object>
  <object id="194" name="Gaia" type="Item" x="466" y="586">
   <properties>
    <property name="Description" value="Rare: Gaia The Fierce Knight - A: 2300 / D: 2100"/>
    <property name="Name" value="[R]Gaia"/>
    <property name="Price" value="40000"/>
    <property name="Type" value="item"/>
   </properties>
   <point/>
  </object>
  <object id="196" name="Curse" type="Item" x="463" y="589">
   <properties>
    <property name="Description" value="Rare: Curse of Dragon - A: 2000 / D: 1500"/>
    <property name="Name" value="[R]C.Dragon"/>
    <property name="Price" value="35000"/>
    <property name="Type" value="item"/>
   </properties>
   <point/>
  </object>
  <object id="197" name="Buster" type="Item" x="483" y="605">
   <properties>
    <property name="Description" value="SRare: Buster Blader - A: 2600 / D: 2300"/>
    <property name="Name" value="[SR]BBlader"/>
    <property name="Price" value="500000"/>
    <property name="Type" value="item"/>
   </properties>
   <point/>
  </object>
  <object id="198" name="DGirl" type="Item" x="480" y="608">
   <properties>
    <property name="Description" value="SRare: Dark Magician Girl - A: 2000 / D: 1700"/>
    <property name="Name" value="[SR]DMGirl"/>
    <property name="Price" value="400000"/>
    <property name="Type" value="item"/>
   </properties>
   <point/>
  </object>
  <object id="199" name="DMagician" type="Item" x="493.5" y="622.5">
   <properties>
    <property name="Description" value="URare: Dark Magician - A: 2500 / D: 2100"/>
    <property name="Name" value="[UR]DMag"/>
    <property name="Price" value="700000"/>
    <property name="Type" value="item"/>
   </properties>
   <point/>
  </object>
  <object id="200" name="BChaos" type="Item" x="495.5" y="620.5">
   <properties>
    <property name="Description" value="URare: Magician of Black Chaos - A: 2800 / D: 2600"/>
    <property name="Name" value="[UR]BChaos"/>
    <property name="Price" value="800000"/>
    <property name="Type" value="item"/>
   </properties>
   <point/>
  </object>
  <object id="201" name="Luster Soldier" type="Item" x="497.5" y="618.5">
   <properties>
    <property name="Description" value="URare: Black Luster Soldier - A: 3000 / D: 2500"/>
    <property name="Name" value="[UR]B.L.S."/>
    <property name="Price" value="1000000"/>
    <property name="Type" value="item"/>
   </properties>
   <point/>
  </object>
  <object id="202" name="BlueEyes" type="Item" x="499.5" y="616.5">
   <properties>
    <property name="Description" value="URare: Blue Eyes White Dragon - A: 3000 / D: 2500"/>
    <property name="Name" value="[UR]B.E.W.D."/>
    <property name="Price" value="1000000"/>
    <property name="Type" value="item"/>
   </properties>
   <point/>
  </object>
  <object id="203" name="Vorse" type="Item" x="461.5" y="590.5">
   <properties>
    <property name="Description" value="Rare: Vorse Raider - A: 1900 / D: 1200"/>
    <property name="Name" value="[R]V.Raider"/>
    <property name="Price" value="30000"/>
    <property name="Type" value="item"/>
   </properties>
   <point/>
  </object>
  <object id="204" name="Judge" type="Item" x="481.5" y="606.5">
   <properties>
    <property name="Description" value="SRare: Judge Man - A: 2200 / D: 1500"/>
    <property name="Name" value="[SR]JudgeM"/>
    <property name="Price" value="450000"/>
    <property name="Type" value="item"/>
   </properties>
   <point/>
  </object>
  <object id="205" name="Swordstalker" type="Item" x="464.5" y="587.5">
   <properties>
    <property name="Description" value="Rare: Swordstalker - A: 2000 / D: 1600"/>
    <property name="Name" value="[R]Swdstlk"/>
    <property name="Price" value="35500"/>
    <property name="Type" value="item"/>
   </properties>
   <point/>
  </object>
  <object id="206" name="WCityProg" type="NPC" x="784" y="896">
   <properties>
    <property name="Asset Name" value="prog"/>
    <property name="Dialogue Type" value="itemcheck"/>
    <property name="Direction" value="Up Right"/>
    <property name="Item 1" type="object" value="209"/>
    <property name="Next 1" type="object" value="210"/>
    <property name="Next 2" type="object" value="211"/>
    <property name="Text 1" value=""/>
   </properties>
   <point/>
  </object>
  <object id="207" name="Cube1" type="Checkpoint" gid="80" x="784" y="928" width="53.25" height="56">
   <properties>
    <property name="Description" value="This path leads to WCity"/>
    <property name="Once" type="bool" value="true"/>
    <property name="Password" value="Welcome"/>
    <property name="Skip Prompt" type="bool" value="false"/>
    <property name="Unlock Failed Message" value="Talk to the prog!"/>
    <property name="Unlocked Message" value="You can pass"/>
   </properties>
  </object>
  <object id="209" name="hpdialogue" type="Item" x="798.5" y="897.5">
   <properties>
    <property name="Description" value="Read the whole dialogue"/>
    <property name="Name" value="hpdialogue"/>
    <property name="Price" value="0"/>
    <property name="Type" value="item"/>
   </properties>
   <point/>
  </object>
  <object id="210" name="YesItem" type="Dialogue" x="808.5" y="925.5">
   <properties>
    <property name="Dialogue Type" value="question"/>
    <property name="Next 1" type="object" value="211"/>
    <property name="Next 2" type="object" value="213"/>
    <property name="Text 1" value="Would you like me to repeat all that information?"/>
   </properties>
   <point/>
  </object>
  <object id="211" name="NoItem" type="Dialogue" x="813.5" y="922.5">
   <properties>
    <property name="Dialogue Type" value="first"/>
    <property name="Next 1" type="object" value="212"/>
    <property name="Text 1" value="Hey there, this path leads to WCity. It's an adventure map I've been working on that will receive constant updates. It currently has a whitelist in place so you'll only be able to use certain assets (Navi, chips, cust programs) so make sure to read the Discord server to know more. After you read and agree, you can go through the security block with the password &quot;Welcome&quot;. Enjoy!"/>
   </properties>
   <point/>
  </object>
  <object id="212" name="itemcheck" type="Dialogue" x="815" y="915">
   <properties>
    <property name="Dialogue Type" value="itemcheck"/>
    <property name="Item 1" type="object" value="209"/>
    <property name="Next 2" type="object" value="214"/>
   </properties>
   <point/>
  </object>
  <object id="213" name="Don't repeat" type="Dialogue" x="824" y="940">
   <properties>
    <property name="Dialogue Type" value="first"/>
    <property name="Text 1" value="Alright then, enjoy!"/>
   </properties>
   <point/>
  </object>
  <object id="214" name="dialoguecomplete" type="Dialogue" x="814.5" y="909.5">
   <properties>
    <property name="Dialogue Type" value="item"/>
    <property name="Dont Notify" type="bool" value="true"/>
    <property name="Item 1" type="object" value="209"/>
    <property name="Next 1" type="object" value="133"/>
    <property name="Text 1" value=""/>
   </properties>
   <point/>
  </object>
 </objectgroup>
 <layer id="6" name="Tile Layer 2" width="50" height="50" offsetx="0" offsety="-16">
  <data encoding="csv">
0,0,0,0,0,0,0,0,0,0,0,0,0,0,0,0,0,0,0,0,0,0,0,0,0,0,0,0,0,0,0,0,0,0,0,0,0,0,0,0,0,0,0,0,0,0,0,0,0,0,
0,0,0,0,0,0,0,0,0,0,0,0,0,0,0,0,0,0,0,0,0,0,0,0,0,0,0,0,0,0,0,0,0,0,0,0,0,0,0,0,0,0,0,0,0,0,0,0,0,0,
0,0,0,0,0,0,0,0,0,0,0,0,0,0,0,0,0,0,0,0,0,0,0,0,0,0,0,0,0,0,0,0,0,0,0,0,0,0,0,0,0,0,0,0,0,0,0,0,0,0,
0,0,0,0,0,0,0,0,0,0,0,0,0,0,0,0,0,0,0,0,0,0,0,0,0,0,0,0,0,0,0,0,0,0,0,0,0,0,0,0,0,0,0,0,0,0,0,0,0,0,
0,0,0,0,0,0,0,0,0,0,0,0,0,0,0,0,0,0,0,0,0,0,0,0,0,0,0,0,0,0,0,0,0,0,0,0,0,0,0,0,0,0,0,0,0,0,0,0,0,0,
0,0,0,0,0,0,0,0,0,0,0,0,0,0,0,0,0,0,0,0,0,0,0,0,0,0,0,0,0,0,0,0,0,0,0,0,0,0,0,0,0,0,0,0,0,0,0,0,0,0,
0,0,0,0,0,0,0,0,0,0,0,0,0,0,0,0,0,0,0,0,0,0,0,0,0,0,0,0,0,0,0,0,0,0,0,0,0,0,0,0,0,0,0,0,0,0,0,0,0,0,
0,0,0,0,0,0,0,0,0,0,0,0,0,0,0,0,0,0,0,0,0,0,0,0,0,0,0,0,0,0,0,0,0,0,0,0,0,0,0,0,0,0,0,0,0,0,0,0,0,0,
0,0,0,0,0,0,0,0,0,0,0,0,0,0,0,0,0,0,0,0,0,0,0,0,0,0,0,0,0,0,0,0,0,0,0,0,0,0,0,0,0,0,0,0,0,0,0,0,0,0,
0,0,0,0,0,0,0,0,0,0,0,0,0,0,0,0,0,0,0,0,0,0,0,0,0,0,0,0,0,0,0,0,0,0,0,0,0,0,0,0,0,0,0,0,0,0,0,0,0,0,
0,0,0,0,0,0,0,0,0,0,0,0,0,0,0,0,0,0,0,0,0,0,0,0,0,0,0,0,0,0,0,0,0,0,0,0,0,0,0,0,0,0,0,0,0,0,0,0,0,0,
0,0,0,0,0,0,0,0,0,0,0,0,0,0,0,0,0,0,0,0,0,0,0,0,0,0,0,0,0,0,0,0,0,0,0,0,0,0,0,0,0,0,0,0,0,0,0,0,0,0,
0,0,0,0,0,0,0,0,0,0,0,0,0,0,0,0,0,0,0,0,0,0,0,0,0,0,0,0,0,0,0,0,0,0,0,0,0,0,0,0,0,0,0,0,0,0,0,0,0,0,
0,0,0,0,0,0,0,0,0,0,0,0,0,0,0,0,0,0,0,0,0,0,0,0,0,0,0,0,0,0,0,0,0,0,0,0,0,0,0,0,0,0,0,0,0,0,0,0,0,0,
0,0,0,0,0,0,0,0,0,0,0,0,0,0,0,0,0,0,0,0,0,0,0,0,0,0,0,0,0,0,0,0,0,0,0,0,0,0,0,0,0,0,0,0,0,0,0,0,0,0,
0,0,0,0,0,0,0,0,0,0,0,0,0,0,0,0,0,0,0,0,0,0,0,0,0,0,0,0,0,0,0,0,0,0,0,0,0,0,0,0,0,0,0,0,0,0,0,0,0,0,
0,0,0,0,0,0,0,0,0,0,0,0,0,0,0,0,0,0,0,0,0,0,0,0,0,0,0,0,0,0,0,0,0,0,0,0,0,0,0,0,0,0,0,0,0,0,0,0,0,0,
0,0,0,0,0,0,0,0,0,0,0,0,0,0,0,0,0,0,0,0,0,0,0,0,0,0,0,0,0,0,0,0,0,0,0,0,0,0,0,0,0,0,0,0,0,0,0,0,0,0,
0,0,0,0,0,0,0,0,0,0,0,0,0,0,0,0,0,0,0,0,0,0,0,0,0,0,0,0,0,0,0,0,0,0,0,0,0,0,0,0,0,0,0,0,0,0,0,0,0,0,
0,0,0,0,0,0,0,0,0,0,0,0,0,0,0,0,0,0,0,0,0,0,0,2147483672,2147483672,2147483672,0,0,0,0,0,0,0,0,0,0,0,0,0,0,0,0,0,0,0,0,0,0,0,0,
0,0,0,0,0,0,0,0,0,0,0,0,0,0,0,0,0,0,0,0,0,0,0,0,0,0,0,0,0,0,0,0,0,0,0,0,0,0,0,0,0,0,0,0,0,0,0,0,0,0,
0,0,0,0,0,0,0,0,0,0,0,0,0,0,0,0,0,0,0,0,0,0,0,0,0,0,0,0,0,0,0,0,0,0,0,0,0,0,0,0,0,0,0,0,0,0,0,0,0,0,
0,0,0,0,0,0,0,0,0,0,0,0,0,0,0,0,0,0,0,0,0,0,0,0,0,0,0,0,0,0,0,0,0,0,0,0,0,0,0,0,0,0,0,0,0,0,0,0,0,0,
0,0,0,0,0,0,0,0,0,0,0,0,0,0,0,0,0,0,0,0,0,0,0,0,0,0,0,0,0,0,0,0,0,0,0,0,0,0,0,0,0,0,0,0,0,0,0,0,0,0,
0,0,0,0,0,0,0,0,0,0,0,0,0,0,0,0,0,0,0,0,0,0,0,0,0,0,0,0,0,0,0,0,0,0,0,0,0,0,0,0,0,0,0,0,0,0,0,0,0,0,
0,0,0,0,0,0,0,0,0,0,0,0,0,0,0,0,0,0,0,0,0,0,0,0,0,0,0,0,0,0,0,0,0,0,0,0,0,0,0,0,0,0,0,0,0,0,0,0,0,0,
0,0,0,0,0,0,0,0,0,0,0,0,0,0,0,0,0,0,0,0,0,0,0,0,0,0,0,0,0,0,0,0,0,0,0,0,0,0,0,0,0,0,0,0,0,0,0,0,0,0,
0,0,0,0,0,0,0,0,0,0,0,0,0,0,0,0,0,0,0,0,0,0,0,0,0,0,0,0,0,0,0,0,0,0,0,0,0,0,0,0,0,0,0,0,0,0,0,0,0,0,
0,0,0,0,0,0,0,0,0,0,0,0,0,0,0,0,0,0,0,0,0,0,0,0,0,0,0,0,0,0,0,0,0,0,0,0,0,0,0,0,0,0,0,0,0,0,0,0,0,0,
0,0,0,0,0,0,0,0,0,0,0,0,0,0,0,0,0,0,0,0,0,0,0,0,0,0,0,0,0,0,0,0,0,0,0,0,0,0,0,0,0,0,0,0,0,0,0,0,0,0,
0,0,0,0,0,0,0,0,0,0,0,0,0,0,0,0,0,0,0,0,0,0,0,0,0,0,0,0,0,0,0,0,0,0,0,0,0,0,0,0,0,0,0,0,0,0,0,0,0,0,
0,0,0,0,0,0,0,0,0,0,0,0,0,0,0,0,0,0,0,0,0,0,0,0,0,0,0,0,0,0,0,0,0,0,0,0,0,0,0,0,0,0,0,0,0,0,0,0,0,0,
0,0,0,0,0,0,0,0,0,0,0,0,0,0,0,0,0,0,0,0,0,0,0,0,0,0,0,0,0,0,0,0,0,0,0,0,0,0,0,0,0,0,0,0,0,0,0,0,0,0,
0,0,0,0,0,0,0,0,0,0,0,0,0,0,0,0,0,0,0,0,0,0,0,0,0,0,0,0,0,0,0,0,0,0,0,0,0,0,0,0,0,0,0,0,0,0,0,0,0,0,
0,0,0,0,0,0,0,0,0,0,0,0,0,0,0,0,0,0,0,0,0,0,0,0,0,0,0,0,0,0,0,0,0,0,0,0,0,0,0,0,0,0,0,0,0,0,0,0,0,0,
0,0,0,0,0,0,0,0,0,0,0,0,0,0,0,0,0,0,0,0,0,0,0,0,0,0,0,0,0,0,0,0,0,0,0,0,0,0,0,0,0,0,0,0,0,0,0,0,0,0,
0,0,0,0,0,0,0,0,0,0,0,0,0,0,0,0,0,0,0,0,0,0,0,0,0,0,0,0,0,0,0,0,0,0,0,0,0,0,0,0,0,0,0,0,0,0,0,0,0,0,
0,0,0,0,0,0,0,0,0,0,0,0,0,0,0,0,0,0,0,0,0,0,0,0,0,0,0,0,0,0,0,0,0,0,0,0,0,0,0,0,0,0,0,0,0,0,0,0,0,0,
0,0,0,0,0,0,0,0,0,0,0,0,0,0,0,0,0,0,0,0,0,0,0,0,0,0,0,0,0,0,0,0,0,0,0,0,0,0,0,0,0,0,0,0,0,0,0,0,0,0,
0,0,0,0,0,0,0,0,0,0,0,0,0,0,0,0,0,0,0,0,0,0,0,0,0,0,0,0,0,0,0,0,0,0,0,0,0,0,0,0,0,0,0,0,0,0,0,0,0,0,
0,0,0,0,0,0,0,0,0,0,0,0,0,0,0,0,0,0,0,0,0,0,0,0,0,0,0,0,0,0,0,0,0,0,0,0,0,0,0,0,0,0,0,0,0,0,0,0,0,0,
0,0,0,0,0,0,0,0,0,0,0,0,0,0,0,0,0,0,0,0,0,0,0,0,0,0,0,0,0,0,0,0,0,0,0,0,0,0,0,0,0,0,0,0,0,0,0,0,0,0,
0,0,0,0,0,0,0,0,0,0,0,0,0,0,0,0,0,0,0,0,0,0,0,0,0,0,0,0,0,0,0,0,0,0,0,0,0,0,0,0,0,0,0,0,0,0,0,0,0,0,
0,0,0,0,0,0,0,0,0,0,0,0,0,0,0,0,0,0,0,0,0,0,0,0,0,0,0,0,0,0,0,0,0,0,0,0,0,0,0,0,0,0,0,0,0,0,0,0,0,0,
0,0,0,0,0,0,0,0,0,0,0,0,0,0,0,0,0,0,0,0,0,0,0,0,0,0,0,0,0,0,0,0,0,0,0,0,0,0,0,0,0,0,0,0,0,0,0,0,0,0,
0,0,0,0,0,0,0,0,0,0,0,0,0,0,0,0,0,0,0,0,0,0,0,0,0,0,0,0,0,0,0,0,0,0,0,0,0,0,0,0,0,0,0,0,0,0,0,0,0,0,
0,0,0,0,0,0,0,0,0,0,0,0,0,0,0,0,0,0,0,0,0,0,0,0,0,0,0,0,0,0,0,0,0,0,0,0,0,0,0,0,0,0,0,0,0,0,0,0,0,0,
0,0,0,0,0,0,0,0,0,0,0,0,0,0,0,0,0,0,0,0,0,0,0,0,0,0,0,0,0,0,0,0,0,0,0,0,0,0,0,0,0,0,0,0,0,0,0,0,0,0,
0,0,0,0,0,0,0,0,0,0,0,0,0,0,0,0,0,0,0,0,0,0,0,0,0,0,0,0,0,0,0,0,0,0,0,0,0,0,0,0,0,0,0,0,0,0,0,0,0,0,
0,0,0,0,0,0,0,0,0,0,0,0,0,0,0,0,0,0,0,0,0,0,0,0,0,0,0,0,0,0,0,0,0,0,0,0,0,0,0,0,0,0,0,0,0,0,0,0,0,0
</data>
 </layer>
 <objectgroup id="7" name="Object Layer 2" offsetx="0" offsety="-16"/>
 <layer id="8" name="Tile Layer 3" width="50" height="50" offsetx="0" offsety="-32">
  <data encoding="csv">
0,0,0,0,0,0,0,0,0,0,0,0,0,0,0,0,0,0,0,0,0,0,0,0,0,0,0,0,0,0,0,0,0,0,0,0,0,0,0,0,0,0,0,0,0,0,0,0,0,0,
0,0,0,0,0,0,0,0,0,0,0,0,0,0,0,0,0,0,0,0,0,0,0,0,0,0,0,0,0,0,0,0,0,0,0,0,0,0,0,0,0,0,0,0,0,0,0,0,0,0,
0,0,0,0,0,0,0,0,0,0,0,0,0,0,0,0,0,0,0,0,0,0,0,0,0,0,0,0,0,0,0,0,0,0,0,0,0,0,0,0,0,0,0,0,0,0,0,0,0,0,
0,0,0,0,0,0,0,0,0,0,0,0,0,0,0,0,0,0,0,0,0,0,0,0,0,0,0,0,0,0,0,0,0,0,0,0,0,0,0,0,0,0,0,0,0,0,0,0,0,0,
0,0,0,0,0,0,0,0,0,0,0,0,0,0,0,0,0,0,0,0,0,0,0,0,0,0,0,0,0,0,0,0,0,0,0,0,0,0,0,0,0,0,0,0,0,0,0,0,0,0,
0,0,0,0,0,0,0,0,0,0,0,0,0,0,0,0,0,0,0,0,0,0,0,0,0,0,0,0,0,0,0,0,0,0,0,0,0,0,0,0,0,0,0,0,0,0,0,0,0,0,
0,0,0,0,0,0,0,0,0,0,0,0,0,0,0,0,0,0,0,0,0,0,0,0,0,0,0,0,0,0,0,0,0,0,0,0,0,0,0,0,0,0,0,0,0,0,0,0,0,0,
0,0,0,0,0,0,0,0,0,0,0,0,0,0,0,0,0,0,0,0,0,0,0,0,0,0,0,0,0,0,0,0,0,0,0,0,0,0,0,0,0,0,0,0,0,0,0,0,0,0,
0,0,0,0,0,0,0,0,0,0,0,0,0,0,0,0,0,0,0,0,0,0,0,0,0,0,0,0,0,0,0,0,0,0,0,0,0,0,0,0,0,0,0,0,0,0,0,0,0,0,
0,0,0,0,0,0,0,0,0,0,0,0,0,0,0,0,0,0,0,0,0,0,0,0,0,0,0,0,0,0,0,0,0,0,0,0,0,0,0,0,0,0,0,0,0,0,0,0,0,0,
0,0,0,0,0,0,0,0,0,0,0,0,0,0,0,0,0,0,0,0,0,0,0,0,0,0,0,0,0,0,0,0,0,0,0,0,0,0,0,0,0,0,0,0,0,0,0,0,0,0,
0,0,0,0,0,0,0,0,0,0,0,0,0,0,0,0,0,0,0,0,0,0,0,0,0,0,0,0,0,0,0,0,0,0,0,0,0,0,0,0,0,0,0,0,0,0,0,0,0,0,
0,0,0,0,0,0,0,0,0,0,0,0,0,0,0,0,0,0,0,0,0,0,0,0,0,0,0,0,0,0,0,0,0,0,0,0,0,0,0,0,0,0,0,0,0,0,0,0,0,0,
0,0,0,0,0,0,0,0,0,0,0,0,0,0,0,0,0,0,0,0,0,0,0,0,0,0,0,0,0,0,0,0,0,0,0,0,0,0,0,0,0,0,0,0,0,0,0,0,0,0,
0,0,0,0,0,0,0,0,0,0,0,0,0,0,0,0,0,0,0,0,0,0,0,0,0,0,0,0,0,0,0,0,0,0,0,0,0,0,0,0,0,0,0,0,0,0,0,0,0,0,
0,0,0,0,0,0,0,0,0,0,0,0,0,0,0,0,0,0,0,0,0,0,0,0,0,0,0,0,0,0,0,0,0,0,0,0,0,0,0,0,0,0,0,0,0,0,0,0,0,0,
0,0,0,0,0,0,0,0,0,0,0,0,0,0,0,0,0,0,0,0,0,0,0,0,0,0,0,0,0,0,0,0,0,0,0,0,0,0,0,0,0,0,0,0,0,0,0,0,0,0,
0,0,0,0,0,0,0,0,0,0,0,0,0,0,0,0,0,0,0,0,0,0,0,0,0,0,0,0,0,0,0,0,0,0,0,0,0,0,0,0,0,0,0,0,0,0,0,0,0,0,
0,0,0,0,0,0,0,0,0,0,0,0,0,0,0,0,0,0,0,0,0,0,0,2147483672,2147483672,2147483672,0,0,0,0,0,0,0,0,0,0,0,0,0,0,0,0,0,0,0,0,0,0,0,0,
0,0,0,0,0,0,0,0,0,0,0,0,0,0,0,0,0,0,0,0,0,0,0,0,0,0,0,0,0,0,0,0,0,0,0,0,0,0,0,0,0,0,0,0,0,0,0,0,0,0,
0,0,0,0,0,0,0,0,0,0,0,0,0,0,0,0,0,0,0,0,0,0,0,0,0,0,0,0,0,0,0,0,0,0,0,0,0,0,0,0,0,0,0,0,0,0,0,0,0,0,
0,0,0,0,0,0,0,0,0,0,0,0,0,0,0,0,0,0,0,0,0,0,0,0,0,0,0,0,0,0,0,0,0,0,0,0,0,0,0,0,0,0,0,0,0,0,0,0,0,0,
0,0,0,0,0,0,0,0,0,0,0,0,0,0,0,0,0,0,0,0,0,0,0,0,0,0,0,0,0,0,0,0,0,0,0,0,0,0,0,0,0,0,0,0,0,0,0,0,0,0,
0,0,0,0,0,0,0,0,0,0,0,0,0,0,0,0,0,0,0,0,0,0,0,0,0,0,0,0,0,0,0,0,0,0,0,0,0,0,0,0,0,0,0,0,0,0,0,0,0,0,
0,0,0,0,0,0,0,0,0,0,0,0,0,0,0,0,0,0,0,0,0,0,0,0,0,0,0,0,0,0,0,0,0,0,0,0,0,0,0,0,0,0,0,0,0,0,0,0,0,0,
0,0,0,0,0,0,0,0,0,0,0,0,0,0,0,0,0,0,0,0,0,0,0,0,0,0,0,0,0,0,0,0,0,0,0,0,0,0,0,0,0,0,0,0,0,0,0,0,0,0,
0,0,0,0,0,0,0,0,0,0,0,0,0,0,0,0,0,0,0,0,0,0,0,0,0,0,0,0,0,0,0,0,0,0,0,0,0,0,0,0,0,0,0,0,0,0,0,0,0,0,
0,0,0,0,0,0,0,0,0,0,0,0,0,0,0,0,0,0,0,0,0,0,0,0,0,0,0,0,0,0,0,0,0,0,0,0,0,0,0,0,0,0,0,0,0,0,0,0,0,0,
0,0,0,0,0,0,0,0,0,0,0,0,0,0,0,0,0,0,0,0,0,0,0,0,0,0,0,0,0,0,0,0,0,0,0,0,0,0,0,0,0,0,0,0,0,0,0,0,0,0,
0,0,0,0,0,0,0,0,0,0,0,0,0,0,0,0,0,0,0,0,0,0,0,0,0,0,0,0,0,0,0,0,0,0,0,0,0,0,0,0,0,0,0,0,0,0,0,0,0,0,
0,0,0,0,0,0,0,0,0,0,0,0,0,0,0,0,0,0,0,0,0,0,0,0,0,0,0,0,0,0,0,0,0,0,0,0,0,0,0,0,0,0,0,0,0,0,0,0,0,0,
0,0,0,0,0,0,0,0,0,0,0,0,0,0,0,0,0,0,0,0,0,0,0,0,0,0,0,0,0,0,0,0,0,0,0,0,0,0,0,0,0,0,0,0,0,0,0,0,0,0,
0,0,0,0,0,0,0,0,0,0,0,0,0,0,0,0,0,0,0,0,0,0,0,0,0,0,0,0,0,0,0,0,0,0,0,0,0,0,0,0,0,0,0,0,0,0,0,0,0,0,
0,0,0,0,0,0,0,0,0,0,0,0,0,0,0,0,0,0,0,0,0,0,0,0,0,0,0,0,0,0,0,0,0,0,0,0,0,0,0,0,0,0,0,0,0,0,0,0,0,0,
0,0,0,0,0,0,0,0,0,0,0,0,0,0,0,0,0,0,0,0,0,0,0,0,0,0,0,0,0,0,0,0,0,0,0,0,0,0,0,0,0,0,0,0,0,0,0,0,0,0,
0,0,0,0,0,0,0,0,0,0,0,0,0,0,0,0,0,0,0,0,0,0,0,0,0,0,0,0,0,0,0,0,0,0,0,0,0,0,0,0,0,0,0,0,0,0,0,0,0,0,
0,0,0,0,0,0,0,0,0,0,0,0,0,0,0,0,0,0,0,0,0,0,0,0,0,0,0,0,0,0,0,0,0,0,0,0,0,0,0,0,0,0,0,0,0,0,0,0,0,0,
0,0,0,0,0,0,0,0,0,0,0,0,0,0,0,0,0,0,0,0,0,0,0,0,0,0,0,0,0,0,0,0,0,0,0,0,0,0,0,0,0,0,0,0,0,0,0,0,0,0,
0,0,0,0,0,0,0,0,0,0,0,0,0,0,0,0,0,0,0,0,0,0,0,0,0,0,0,0,0,0,0,0,0,0,0,0,0,0,0,0,0,0,0,0,0,0,0,0,0,0,
0,0,0,0,0,0,0,0,0,0,0,0,0,0,0,0,0,0,0,0,0,0,0,0,0,0,0,0,0,0,0,0,0,0,0,0,0,0,0,0,0,0,0,0,0,0,0,0,0,0,
0,0,0,0,0,0,0,0,0,0,0,0,0,0,0,0,0,0,0,0,0,0,0,0,0,0,0,0,0,0,0,0,0,0,0,0,0,0,0,0,0,0,0,0,0,0,0,0,0,0,
0,0,0,0,0,0,0,0,0,0,0,0,0,0,0,0,0,0,0,0,0,0,0,0,0,0,0,0,0,0,0,0,0,0,0,0,0,0,0,0,0,0,0,0,0,0,0,0,0,0,
0,0,0,0,0,0,0,0,0,0,0,0,0,0,0,0,0,0,0,0,0,0,0,0,0,0,0,0,0,0,0,0,0,0,0,0,0,0,0,0,0,0,0,0,0,0,0,0,0,0,
0,0,0,0,0,0,0,0,0,0,0,0,0,0,0,0,0,0,0,0,0,0,0,0,0,0,0,0,0,0,0,0,0,0,0,0,0,0,0,0,0,0,0,0,0,0,0,0,0,0,
0,0,0,0,0,0,0,0,0,0,0,0,0,0,0,0,0,0,0,0,0,0,0,0,0,0,0,0,0,0,0,0,0,0,0,0,0,0,0,0,0,0,0,0,0,0,0,0,0,0,
0,0,0,0,0,0,0,0,0,0,0,0,0,0,0,0,0,0,0,0,0,0,0,0,0,0,0,0,0,0,0,0,0,0,0,0,0,0,0,0,0,0,0,0,0,0,0,0,0,0,
0,0,0,0,0,0,0,0,0,0,0,0,0,0,0,0,0,0,0,0,0,0,0,0,0,0,0,0,0,0,0,0,0,0,0,0,0,0,0,0,0,0,0,0,0,0,0,0,0,0,
0,0,0,0,0,0,0,0,0,0,0,0,0,0,0,0,0,0,0,0,0,0,0,0,0,0,0,0,0,0,0,0,0,0,0,0,0,0,0,0,0,0,0,0,0,0,0,0,0,0,
0,0,0,0,0,0,0,0,0,0,0,0,0,0,0,0,0,0,0,0,0,0,0,0,0,0,0,0,0,0,0,0,0,0,0,0,0,0,0,0,0,0,0,0,0,0,0,0,0,0,
0,0,0,0,0,0,0,0,0,0,0,0,0,0,0,0,0,0,0,0,0,0,0,0,0,0,0,0,0,0,0,0,0,0,0,0,0,0,0,0,0,0,0,0,0,0,0,0,0,0
</data>
 </layer>
 <objectgroup id="9" name="Object Layer 3" offsetx="0" offsety="-32"/>
 <layer id="10" name="Tile Layer 4" width="50" height="50" offsetx="0" offsety="-48">
  <data encoding="csv">
0,0,0,0,0,0,0,0,0,0,0,0,0,0,0,0,0,0,0,0,0,0,0,0,0,0,0,0,0,0,0,0,0,0,0,0,0,0,0,0,0,0,0,0,0,0,0,0,0,0,
0,0,0,0,0,0,0,0,0,0,0,0,0,0,0,0,0,0,0,0,0,0,0,0,0,0,0,0,0,0,0,0,0,0,0,0,0,0,0,0,0,0,0,0,0,0,0,0,0,0,
0,0,0,0,0,0,0,0,0,0,0,0,0,0,0,0,0,0,0,0,0,0,0,0,0,0,0,0,0,0,0,0,0,0,0,0,0,0,0,0,0,0,0,0,0,0,0,0,0,0,
0,0,0,0,0,0,0,0,0,0,0,0,0,0,0,0,0,0,0,0,0,0,0,0,0,0,0,0,0,0,0,0,0,0,0,0,0,0,0,0,0,0,0,0,0,0,0,0,0,0,
0,0,0,0,0,0,0,0,0,0,0,0,0,0,0,0,0,0,0,0,0,0,0,0,0,0,0,0,0,0,0,0,0,0,0,0,0,0,0,0,0,0,0,0,0,0,0,0,0,0,
0,0,0,0,0,0,0,0,0,0,0,0,0,0,0,0,0,0,0,0,0,0,0,0,0,0,0,0,0,0,0,0,0,0,0,0,0,0,0,0,0,0,0,0,0,0,0,0,0,0,
0,0,0,0,0,0,0,0,0,0,0,0,0,0,0,0,0,0,0,0,0,0,0,0,0,0,0,0,0,0,0,0,0,0,0,0,0,0,0,0,0,0,0,0,0,0,0,0,0,0,
0,0,0,0,0,0,0,0,0,0,0,0,0,0,0,0,0,0,0,0,0,0,0,0,0,0,0,0,0,0,0,0,0,0,0,0,0,0,0,0,0,0,0,0,0,0,0,0,0,0,
0,0,0,0,0,0,0,0,0,0,0,0,0,0,0,0,0,0,0,0,0,0,0,0,0,0,0,0,0,0,0,0,0,0,0,0,0,0,0,0,0,0,0,0,0,0,0,0,0,0,
0,0,0,0,0,0,0,0,0,0,0,0,0,0,0,0,0,0,0,0,0,0,0,0,0,0,0,0,0,0,0,0,0,0,0,0,0,0,0,0,0,0,0,0,0,0,0,0,0,0,
0,0,0,0,0,0,0,0,0,0,0,0,0,0,0,0,0,0,0,0,0,0,0,0,0,0,0,0,0,0,0,0,0,0,0,0,0,0,0,0,0,0,0,0,0,0,0,0,0,0,
0,0,0,0,0,0,0,0,0,0,0,0,0,0,0,0,0,0,0,0,0,0,0,0,0,0,0,0,0,0,0,0,0,0,0,0,0,0,0,0,0,0,0,0,0,0,0,0,0,0,
0,0,0,0,0,0,0,0,0,0,0,0,0,0,0,0,0,0,0,0,0,0,0,0,0,0,0,0,0,0,0,0,0,0,0,0,0,0,0,0,0,0,0,0,0,0,0,0,0,0,
0,0,0,0,0,0,0,0,0,0,0,0,0,0,0,0,0,0,0,0,0,0,0,0,0,0,0,0,0,0,0,0,0,0,0,0,0,0,0,0,0,0,0,0,0,0,0,0,0,0,
0,0,0,0,0,0,0,0,0,0,0,0,0,0,0,0,0,0,0,0,0,0,0,0,0,0,0,0,0,0,0,0,0,0,0,0,0,0,0,0,0,0,0,0,0,0,0,0,0,0,
0,0,0,0,0,0,0,0,0,0,0,0,0,0,0,0,0,0,0,0,0,0,53,54,0,0,0,0,0,0,0,0,0,0,0,0,0,0,0,0,0,0,0,0,0,0,0,0,0,0,
0,0,0,0,0,0,0,0,0,0,0,0,0,0,0,0,7,7,7,7,7,7,7,7,7,7,7,7,7,7,7,7,7,0,0,0,0,0,0,0,0,0,0,0,0,0,0,0,0,0,
0,0,0,0,0,0,0,0,0,0,0,0,0,0,0,0,7,7,7,7,7,7,7,7,7,7,7,7,7,7,7,7,7,0,0,0,0,0,0,0,0,0,0,0,0,0,0,0,0,0,
0,0,0,0,0,0,0,0,0,0,0,0,0,0,0,0,0,0,0,0,0,0,0,2147483673,2147483673,2147483673,0,0,0,0,0,0,0,0,0,0,0,0,0,0,0,0,0,0,0,0,0,0,0,0,
0,0,0,0,0,0,0,0,0,0,0,0,0,0,0,0,0,0,0,0,0,0,0,0,0,0,0,0,0,0,0,0,0,0,0,0,0,0,0,0,0,0,0,0,0,0,0,0,0,0,
0,0,0,0,0,0,0,0,0,0,0,0,0,0,0,0,0,0,0,0,0,0,0,0,0,0,0,0,0,0,0,0,0,0,0,0,0,0,0,0,0,0,0,0,0,0,0,0,0,0,
0,0,0,0,0,0,0,0,0,0,0,0,0,0,0,0,0,0,0,0,0,0,0,0,0,0,0,0,0,0,0,0,0,0,0,0,0,0,0,0,0,0,0,0,0,0,0,0,0,0,
0,0,0,0,0,0,0,0,0,0,0,0,0,0,0,0,0,0,0,0,0,0,0,0,0,0,0,0,0,0,0,0,0,0,0,0,0,0,0,0,0,0,0,0,0,0,0,0,0,0,
0,0,0,0,0,0,0,0,0,0,0,0,0,0,0,0,0,0,0,0,0,0,0,0,0,0,0,0,0,0,0,0,0,0,0,0,0,0,0,0,0,0,0,0,0,0,0,0,0,0,
0,0,0,0,0,0,0,0,0,0,0,0,0,0,0,0,0,0,0,0,0,0,0,0,0,0,0,0,0,0,0,0,0,0,0,0,0,0,0,0,0,0,0,0,0,0,0,0,0,0,
0,0,0,0,0,0,0,0,0,0,0,0,0,0,0,0,0,0,0,0,0,0,0,0,0,0,0,0,0,0,0,0,0,0,0,0,0,0,0,0,0,0,0,0,0,0,0,0,0,0,
0,0,0,0,0,0,0,0,0,0,0,0,0,0,0,0,0,0,0,0,0,0,0,0,0,0,0,0,0,0,0,0,0,0,0,0,0,0,0,0,0,0,0,0,0,0,0,0,0,0,
0,0,0,0,0,0,0,0,0,0,0,0,0,0,0,0,0,0,0,0,0,0,0,0,0,0,0,0,0,0,0,0,0,0,0,0,0,0,0,0,0,0,0,0,0,0,0,0,0,0,
0,0,0,0,0,0,0,0,0,0,0,0,0,0,0,0,0,0,0,0,0,0,0,0,0,0,0,0,0,0,0,0,0,0,0,0,0,0,0,0,0,0,0,0,0,0,0,0,0,0,
0,0,0,0,0,0,0,0,0,0,0,0,0,0,0,0,0,0,0,0,0,0,0,0,0,0,0,0,0,0,0,0,0,0,0,0,0,0,0,0,0,0,0,0,0,0,0,0,0,0,
0,0,0,0,0,0,0,0,0,0,0,0,0,0,0,0,0,0,0,0,0,0,0,0,0,0,0,0,0,0,0,0,0,0,0,0,0,0,0,0,0,0,0,0,0,0,0,0,0,0,
0,0,0,0,0,0,0,0,0,0,0,0,0,0,0,0,0,0,0,0,0,0,0,0,0,0,0,0,0,0,0,0,0,0,0,0,0,0,0,0,0,0,0,0,0,0,0,0,0,0,
0,0,0,0,0,0,0,0,0,0,0,0,0,0,0,0,0,0,0,0,0,0,0,0,0,0,0,0,0,0,0,0,0,0,0,0,0,0,0,0,0,0,0,0,0,0,0,0,0,0,
0,0,0,0,0,0,0,0,0,0,0,0,0,0,0,0,0,0,0,0,0,0,0,0,0,0,0,0,0,0,0,0,0,0,0,0,0,0,0,0,0,0,0,0,0,0,0,0,0,0,
0,0,0,0,0,0,0,0,0,0,0,0,0,0,0,0,0,0,0,0,0,0,0,0,0,0,0,0,0,0,0,0,0,0,0,0,0,0,0,0,0,0,0,0,0,0,0,0,0,0,
0,0,0,0,0,0,0,0,0,0,0,0,0,0,0,0,0,0,0,0,0,0,0,0,0,0,0,0,0,0,0,0,0,0,0,0,0,0,0,0,0,0,0,0,0,0,0,0,0,0,
0,0,0,0,0,0,0,0,0,0,0,0,0,0,0,0,0,0,0,0,0,0,0,0,0,0,0,0,0,0,0,0,0,0,0,0,0,0,0,0,0,0,0,0,0,0,0,0,0,0,
0,0,0,0,0,0,0,0,0,0,0,0,0,0,0,0,0,0,0,0,0,0,0,0,0,0,0,0,0,0,0,0,0,0,0,0,0,0,0,0,0,0,0,0,0,0,0,0,0,0,
0,0,0,0,0,0,0,0,0,0,0,0,0,0,0,0,0,0,0,0,0,0,0,0,0,0,0,0,0,0,0,0,0,0,0,0,0,0,0,0,0,0,0,0,0,0,0,0,0,0,
0,0,0,0,0,0,0,0,0,0,0,0,0,0,0,0,0,0,0,0,0,0,0,0,0,0,0,0,0,0,0,0,0,0,0,0,0,0,0,0,0,0,0,0,0,0,0,0,0,0,
0,0,0,0,0,0,0,0,0,0,0,0,0,0,0,0,0,0,0,0,0,0,0,0,0,0,0,0,0,0,0,0,0,0,0,0,0,0,0,0,0,0,0,0,0,0,0,0,0,0,
0,0,0,0,0,0,0,0,0,0,0,0,0,0,0,0,0,0,0,0,0,0,0,0,0,0,0,0,0,0,0,0,0,0,0,0,0,0,0,0,0,0,0,0,0,0,0,0,0,0,
0,0,0,0,0,0,0,0,0,0,0,0,0,0,0,0,0,0,0,0,0,0,0,0,0,0,0,0,0,0,0,0,0,0,0,0,0,0,0,0,0,0,0,0,0,0,0,0,0,0,
0,0,0,0,0,0,0,0,0,0,0,0,0,0,0,0,0,0,0,0,0,0,0,0,0,0,0,0,0,0,0,0,0,0,0,0,0,0,0,0,0,0,0,0,0,0,0,0,0,0,
0,0,0,0,0,0,0,0,0,0,0,0,0,0,0,0,0,0,0,0,0,0,0,0,0,0,0,0,0,0,0,0,0,0,0,0,0,0,0,0,0,0,0,0,0,0,0,0,0,0,
0,0,0,0,0,0,0,0,0,0,0,0,0,0,0,0,0,0,0,0,0,0,0,0,0,0,0,0,0,0,0,0,0,0,0,0,0,0,0,0,0,0,0,0,0,0,0,0,0,0,
0,0,0,0,0,0,0,0,0,0,0,0,0,0,0,0,0,0,0,0,0,0,0,0,0,0,0,0,0,0,0,0,0,0,0,0,0,0,0,0,0,0,0,0,0,0,0,0,0,0,
0,0,0,0,0,0,0,0,0,0,0,0,0,0,0,0,0,0,0,0,0,0,0,0,0,0,0,0,0,0,0,0,0,0,0,0,0,0,0,0,0,0,0,0,0,0,0,0,0,0,
0,0,0,0,0,0,0,0,0,0,0,0,0,0,0,0,0,0,0,0,0,0,0,0,0,0,0,0,0,0,0,0,0,0,0,0,0,0,0,0,0,0,0,0,0,0,0,0,0,0,
0,0,0,0,0,0,0,0,0,0,0,0,0,0,0,0,0,0,0,0,0,0,0,0,0,0,0,0,0,0,0,0,0,0,0,0,0,0,0,0,0,0,0,0,0,0,0,0,0,0
</data>
 </layer>
 <objectgroup id="12" name="Object Layer 4" offsetx="0" offsety="-48">
  <object id="88" name="ShaDisHP" type="Passenger Train" x="1184" y="480">
   <properties>
    <property name="Color" value="Green"/>
    <property name="Direction" value="Up Left"/>
    <property name="End" value="8,13"/>
    <property name="Platform Z" value="3"/>
    <property name="Speed" value="1"/>
    <property name="Start" value="36,13"/>
    <property name="Stop" value="21,13"/>
    <property name="Train Z" value="0"/>
   </properties>
   <point/>
  </object>
  <object id="89" name="ShaDisCond" type="Conductor" x="732" y="502">
   <properties>
    <property name="1 Area" value="keristero.xyz:8769,default,MainTrain"/>
    <property name="1 Name" value="Gravy Yum Server"/>
    <property name="1 Type" value="Server"/>
    <property name="2 Area" value="165.227.139.229:1928,default,train"/>
    <property name="2 Name" value="The Block Server"/>
    <property name="2 Type" value="Server"/>
    <property name="3 Area" value="96.60.137.203:8767,UnderSquare,Undersquare Train"/>
    <property name="3 Name" value="Undernet Server"/>
    <property name="3 Type" value="Server"/>
    <property name="4 Area" value="159.223.165.219:3000,default,MainTrain"/>
    <property name="4 Name" value="BN3 ACDC Station"/>
    <property name="4 Type" value="Server"/>
    <property name="5 Area" value="96.60.137.203:8768,default,orange line"/>
    <property name="5 Name" value="Central Station"/>
    <property name="5 Type" value="Server"/>
    <property name="Train" value="ShaDisHP"/>
   </properties>
   <point/>
  </object>
  <object id="108" name="Bus Stop" gid="58" x="710" y="516" width="16" height="53">
   <properties>
    <property name="Flavor" value="Cyber Metro"/>
   </properties>
  </object>
  <object id="112" gid="63" x="512" y="544" width="128" height="128">
   <properties>
    <property name="Flavor" value="You see a trading card vending machine. It seems like all the rare cards are gone..."/>
   </properties>
  </object>
  <object id="113" gid="73" x="896" y="496" width="128" height="128"/>
  <object id="121" gid="77" x="944" y="496" width="128" height="128">
   <properties>
    <property name="Flavor" value="You see a trading card vending machine. It seems like all the rare cards are gone..."/>
   </properties>
  </object>
  <object id="155" gid="2147483777" x="562" y="526" width="35" height="45">
   <properties>
    <property name="Interact Relay" type="object" value="158"/>
   </properties>
  </object>
  <object id="157" gid="2147483779" x="556.5" y="555.5" width="35" height="45">
   <properties>
    <property name="Interact Relay" type="object" value="158"/>
   </properties>
  </object>
  <object id="158" name="Merchant Eli" type="NPC" x="555.5" y="522.5">
   <properties>
    <property name="Asset Name" value="heel-navi-exe4_black"/>
    <property name="Dialogue Type" value="question"/>
    <property name="Direction" value="Down Right"/>
    <property name="Next 1" type="object" value="188"/>
    <property name="Next 2" type="object" value="187"/>
    <property name="Text 1" value="Welcome to my card shop, would you like to buy something?"/>
   </properties>
   <point/>
  </object>
  <object id="187" name="No" type="Dialogue" x="589.5" y="620.5">
   <properties>
    <property name="Dialogue Type" value="first"/>
    <property name="Text 1" value="Come back again any time"/>
   </properties>
   <point/>
  </object>
  <object id="188" name="Yes" type="Dialogue" x="551.5" y="610.5">
   <properties>
    <property name="Dialogue Type" value="shop"/>
    <property name="Item 1" type="object" value="193"/>
    <property name="Item 10" type="object" value="194"/>
    <property name="Item 11" type="object" value="198"/>
    <property name="Item 12" type="object" value="204"/>
    <property name="Item 13" type="object" value="197"/>
    <property name="Item 14" type="object" value="199"/>
    <property name="Item 15" type="object" value="200"/>
    <property name="Item 16" type="object" value="201"/>
    <property name="Item 17" type="object" value="202"/>
    <property name="Item 2" type="object" value="192"/>
    <property name="Item 3" type="object" value="191"/>
    <property name="Item 4" type="object" value="189"/>
    <property name="Item 5" type="object" value="185"/>
    <property name="Item 6" type="object" value="190"/>
    <property name="Item 7" type="object" value="203"/>
    <property name="Item 8" type="object" value="196"/>
    <property name="Item 9" type="object" value="205"/>
   </properties>
   <point/>
  </object>
 </objectgroup>
</map>
