<?xml version="1.0" encoding="UTF-8"?>
<map version="1.8" tiledversion="1.11.2" orientation="isometric" renderorder="right-down" width="50" height="50" tilewidth="64" tileheight="32" infinite="0" nextlayerid="4" nextobjectid="37">
 <properties>
  <property name="Background" value="custom"/>
  <property name="Background Animation" value="/server/assets/custom/backgrounds/fisharea/aquarium.animation"/>
  <property name="Background Texture" value="/server/assets/custom/backgrounds/fisharea/aquarium.png"/>
  <property name="Background Vel X" type="float" value="0.115"/>
  <property name="Background Vel Y" type="float" value="0"/>
  <property name="Name" value="Fish Area"/>
 </properties>
 <tileset firstgid="1" source="../assets/tiles/central_platform.tsx"/>
 <tileset firstgid="241" source="../assets/tiles/EXE6_Shortcuts.tsx"/>
 <tileset firstgid="273" source="../assets/tiles/Roadblock.tsx"/>
 <tileset firstgid="275" source="../assets/fishing/blue/0.tsx"/>
 <tileset firstgid="276" source="../assets/fishing/blue/1.tsx"/>
 <tileset firstgid="277" source="../assets/fishing/blue/2.tsx"/>
 <tileset firstgid="278" source="../assets/fishing/blue/3.tsx"/>
 <tileset firstgid="279" source="../assets/fishing/blue/4.tsx"/>
 <tileset firstgid="280" source="../assets/fishing/blue/5.tsx"/>
 <tileset firstgid="281" source="../assets/fishing/blue/6.tsx"/>
 <tileset firstgid="282" source="../assets/fishing/blue/7.tsx"/>
 <tileset firstgid="283" source="../assets/fishing/blue/8.tsx"/>
 <tileset firstgid="284" source="../assets/fishing/blue/9.tsx"/>
 <tileset firstgid="285" source="../assets/fishing/blue/10.tsx"/>
 <tileset firstgid="286" source="../assets/fishing/yellow/1.tsx"/>
 <tileset firstgid="287" source="../assets/fishing/yellow/10.tsx"/>
 <tileset firstgid="288" source="../assets/fishing/yellow/2.tsx"/>
 <tileset firstgid="289" source="../assets/fishing/yellow/3.tsx"/>
 <tileset firstgid="290" source="../assets/fishing/yellow/4.tsx"/>
 <tileset firstgid="291" source="../assets/fishing/yellow/5.tsx"/>
 <tileset firstgid="292" source="../assets/fishing/yellow/6.tsx"/>
 <tileset firstgid="293" source="../assets/fishing/yellow/7.tsx"/>
 <tileset firstgid="294" source="../assets/fishing/yellow/8.tsx"/>
 <tileset firstgid="295" source="../assets/fishing/yellow/9.tsx"/>
 <tileset firstgid="296" source="../assets/tiles/BBSOldFixed.tsx"/>
 <layer id="1" name="Tile Layer 0" width="50" height="50">
  <data encoding="csv">
0,0,0,0,0,0,0,0,0,0,0,0,0,0,0,0,0,0,0,0,0,0,0,0,0,0,0,0,0,0,0,0,0,0,0,0,0,0,0,0,0,0,0,0,0,0,0,0,0,0,
0,0,0,0,0,0,0,0,0,0,0,0,0,0,0,0,0,0,0,0,0,0,0,0,0,0,0,0,0,0,0,0,0,0,0,0,0,0,0,0,0,0,0,0,0,0,0,0,0,0,
0,0,0,0,0,0,0,0,0,0,0,0,0,0,0,0,0,0,0,0,0,0,0,0,0,0,0,0,0,0,0,0,0,0,0,0,0,0,0,0,0,0,0,0,0,0,0,0,0,0,
0,0,0,0,0,0,0,0,0,0,0,0,0,0,0,0,0,0,0,0,0,0,0,0,0,0,0,0,0,0,0,0,0,0,0,0,0,0,0,0,0,0,0,0,0,0,0,0,0,0,
0,0,0,0,0,0,0,0,0,0,0,0,0,0,0,0,0,0,0,0,0,0,0,0,0,0,0,0,0,0,0,0,0,0,0,0,0,0,0,0,0,0,0,0,0,0,0,0,0,0,
0,0,0,0,0,0,0,0,0,0,0,0,0,0,0,0,0,0,0,0,0,0,0,0,0,0,0,0,0,0,0,0,0,0,0,0,0,0,0,0,0,0,0,0,0,0,0,0,0,0,
0,0,0,0,0,0,0,0,0,0,0,0,0,0,0,0,0,0,0,0,0,0,0,0,0,0,0,0,0,0,0,0,0,0,0,0,0,0,0,0,0,0,0,0,0,0,0,0,0,0,
0,0,0,0,0,0,0,0,0,0,0,0,0,0,0,0,0,0,0,0,0,0,0,0,0,0,0,0,0,0,0,0,0,0,0,0,0,0,0,0,0,0,0,0,0,0,0,0,0,0,
0,0,0,0,0,0,0,0,0,0,0,0,0,0,0,0,0,0,0,0,0,0,0,0,0,0,0,0,0,0,0,0,0,0,0,0,0,0,0,0,0,0,0,0,0,0,0,0,0,0,
0,0,0,0,0,0,0,0,0,0,0,0,0,0,0,0,0,0,0,0,0,0,0,0,0,0,0,0,0,0,0,0,0,0,0,0,0,0,0,0,0,0,0,0,0,0,0,0,0,0,
0,0,0,0,0,0,0,0,0,0,0,0,0,0,0,0,0,0,0,0,0,0,0,0,0,0,0,0,0,0,0,0,0,0,0,0,0,0,0,0,0,0,0,0,0,0,0,0,0,0,
0,0,0,0,0,0,0,0,0,0,0,0,0,0,0,0,0,0,0,0,0,0,0,0,0,0,0,0,0,0,0,0,0,0,0,0,0,0,0,0,0,0,0,0,0,0,0,0,0,0,
0,0,0,0,0,0,0,0,0,0,0,0,0,0,0,0,0,0,0,0,0,0,0,0,0,0,0,0,0,0,0,0,0,0,0,0,0,0,0,0,0,0,0,0,0,0,0,0,0,0,
0,0,0,0,0,0,0,0,0,0,0,0,0,0,0,0,0,0,0,0,0,0,0,0,0,0,0,0,0,0,0,0,0,0,0,0,0,0,0,0,0,0,0,0,0,0,0,0,0,0,
0,0,0,0,0,0,0,0,0,0,0,0,0,0,0,0,0,0,0,0,0,0,0,0,0,0,0,0,0,0,0,0,0,0,0,0,0,0,0,0,0,0,0,0,0,0,0,0,0,0,
0,0,0,0,0,0,0,0,0,0,0,0,0,0,0,0,0,0,0,0,0,0,0,0,0,0,0,0,0,0,0,0,0,0,0,0,0,0,0,0,0,0,0,0,0,0,0,0,0,0,
0,0,0,0,0,0,0,0,0,0,0,0,0,0,0,0,0,0,0,0,0,0,0,0,0,0,0,0,0,0,0,0,0,0,0,0,0,0,0,0,0,0,0,0,0,0,0,0,0,0,
0,0,0,0,0,0,0,0,0,0,0,0,0,0,0,0,0,0,0,0,0,0,0,0,0,0,0,0,0,0,0,0,0,0,0,0,0,0,0,0,0,0,0,0,0,0,0,0,0,0,
0,0,0,0,0,0,0,0,0,0,0,0,0,0,0,0,0,0,0,0,0,0,0,0,0,0,0,0,0,0,0,0,0,0,0,0,0,0,0,0,0,0,0,0,0,0,0,0,0,0,
0,0,0,0,0,0,0,0,0,0,0,0,0,0,0,0,0,0,0,0,0,0,0,0,0,0,0,0,0,0,0,0,0,0,0,0,0,0,0,0,0,0,0,0,0,0,0,0,0,0,
0,0,0,0,0,0,0,0,0,0,0,0,0,0,0,0,0,0,0,0,0,0,0,0,0,0,0,0,0,0,0,0,0,0,0,0,63,73,0,0,0,0,0,0,0,0,0,0,0,0,
0,0,0,0,0,0,0,0,0,0,0,0,0,0,0,0,0,0,0,0,0,0,0,0,0,0,0,0,0,0,0,0,0,0,0,0,72,83,0,0,0,0,0,0,0,0,0,0,0,0,
0,0,0,0,0,0,0,0,0,0,0,0,0,0,0,0,0,0,0,0,0,0,0,0,0,0,0,0,0,0,0,0,0,0,0,0,72,83,0,0,0,62,63,73,0,0,0,0,0,0,
0,0,0,0,0,0,0,0,0,0,0,0,0,0,0,0,0,0,0,0,0,0,0,0,0,0,0,0,0,0,0,0,0,0,0,0,72,83,93,109,91,61,72,83,0,0,0,0,0,0,
0,0,0,0,0,0,0,0,0,0,0,0,0,0,0,0,0,0,0,0,0,0,0,0,0,0,0,0,0,0,0,0,0,0,0,0,72,83,0,0,0,71,81,82,0,0,0,0,0,0,
0,0,0,0,0,0,0,0,0,0,0,0,0,0,0,0,0,0,0,0,0,0,0,0,0,0,0,0,0,0,0,0,0,0,0,0,72,83,0,0,0,0,0,0,0,0,0,0,0,0,
0,0,0,0,0,0,0,0,0,0,0,0,0,0,0,0,0,0,0,0,0,0,0,0,0,0,0,0,0,0,0,0,0,0,0,0,81,82,0,0,0,0,0,0,0,0,0,0,0,0,
0,0,0,0,0,0,0,0,0,0,0,0,0,0,0,0,0,0,0,0,0,0,0,0,0,0,0,0,0,0,0,0,0,0,0,0,0,0,0,0,0,0,0,0,0,0,0,0,0,0,
0,0,0,0,0,0,0,0,0,0,0,0,0,0,0,0,0,0,0,0,0,0,0,0,0,0,0,0,0,0,0,0,0,0,0,0,0,0,0,0,0,0,0,0,0,0,0,0,0,0,
0,0,0,0,0,0,0,0,0,0,0,0,0,0,0,0,0,0,0,0,0,0,0,0,0,0,0,0,0,0,0,0,0,0,0,0,0,0,0,0,0,0,0,0,0,0,0,0,0,0,
0,0,0,0,0,0,0,0,0,0,0,0,0,0,0,0,0,0,0,0,0,0,0,0,0,0,0,0,0,0,0,0,0,0,0,0,0,0,0,0,0,0,0,0,0,0,0,0,0,0,
0,0,0,0,0,0,0,0,0,0,0,0,0,0,0,0,0,0,0,0,0,0,0,0,0,0,0,0,0,0,0,0,0,0,0,0,0,0,0,0,0,0,0,0,0,0,0,0,0,0,
0,0,0,0,0,0,0,0,0,0,0,0,0,0,0,0,0,0,0,0,0,0,0,0,0,0,0,0,0,0,0,0,0,0,0,0,0,0,0,0,0,0,0,0,0,0,0,0,0,0,
0,0,0,0,0,0,0,0,0,0,0,0,0,0,0,0,0,0,0,0,0,0,0,0,0,0,0,0,0,0,0,0,0,0,0,0,0,0,0,0,0,0,0,0,0,0,0,0,0,0,
0,0,0,0,0,0,0,0,0,0,0,0,0,0,0,0,0,0,0,0,0,0,0,0,0,0,0,0,0,0,0,0,0,0,0,0,0,0,0,0,0,0,0,0,0,0,0,0,0,0,
0,0,0,0,0,0,0,0,0,0,0,0,0,0,0,0,0,0,0,0,0,0,0,0,0,0,0,0,0,0,0,0,0,0,0,0,0,0,0,0,0,0,0,0,0,0,0,0,0,0,
0,0,0,0,0,0,0,0,0,0,0,0,0,0,0,0,0,0,0,0,0,0,0,0,0,0,0,0,0,0,0,0,0,0,0,0,0,0,0,0,0,0,0,0,0,0,0,0,0,0,
0,0,0,0,0,0,0,0,0,0,0,0,0,0,0,0,0,0,0,0,0,0,0,0,0,0,0,0,0,0,0,0,0,0,0,0,0,0,0,0,0,0,0,0,0,0,0,0,0,0,
0,0,0,0,0,0,0,0,0,0,0,0,0,0,0,0,0,0,0,0,0,0,0,0,0,0,0,0,0,0,0,0,0,0,0,0,0,0,0,0,0,0,0,0,0,0,0,0,0,0,
0,0,0,0,0,0,0,0,0,0,0,0,0,0,0,0,0,0,0,0,0,0,0,0,0,0,0,0,0,0,0,0,0,0,0,0,0,0,0,0,0,0,0,0,0,0,0,0,0,0,
0,0,0,0,0,0,0,0,0,0,0,0,0,0,0,0,0,0,0,0,0,0,0,0,0,0,0,0,0,0,0,0,0,0,0,0,0,0,0,0,0,0,0,0,0,0,0,0,0,0,
0,0,0,0,0,0,0,0,0,0,0,0,0,0,0,0,0,0,0,0,0,0,0,0,0,0,0,0,0,0,0,0,0,0,0,0,0,0,0,0,0,0,0,0,0,0,0,0,0,0,
0,0,0,0,0,0,0,0,0,0,0,0,0,0,0,0,0,0,0,0,0,0,0,0,0,0,0,0,0,0,0,0,0,0,0,0,0,0,0,0,0,0,0,0,0,0,0,0,0,0,
0,0,0,0,0,0,0,0,0,0,0,0,0,0,0,0,0,0,0,0,0,0,0,0,0,0,0,0,0,0,0,0,0,0,0,0,0,0,0,0,0,0,0,0,0,0,0,0,0,0,
0,0,0,0,0,0,0,0,0,0,0,0,0,0,0,0,0,0,0,0,0,0,0,0,0,0,0,0,0,0,0,0,0,0,0,0,0,0,0,0,0,0,0,0,0,0,0,0,0,0,
0,0,0,0,0,0,0,0,0,0,0,0,0,0,0,0,0,0,0,0,0,0,0,0,0,0,0,0,0,0,0,0,0,0,0,0,0,0,0,0,0,0,0,0,0,0,0,0,0,0,
0,0,0,0,0,0,0,0,0,0,0,0,0,0,0,0,0,0,0,0,0,0,0,0,0,0,0,0,0,0,0,0,0,0,0,0,0,0,0,0,0,0,0,0,0,0,0,0,0,0,
0,0,0,0,0,0,0,0,0,0,0,0,0,0,0,0,0,0,0,0,0,0,0,0,0,0,0,0,0,0,0,0,0,0,0,0,0,0,0,0,0,0,0,0,0,0,0,0,0,0,
0,0,0,0,0,0,0,0,0,0,0,0,0,0,0,0,0,0,0,0,0,0,0,0,0,0,0,0,0,0,0,0,0,0,0,0,0,0,0,0,0,0,0,0,0,0,0,0,0,0,
0,0,0,0,0,0,0,0,0,0,0,0,0,0,0,0,0,0,0,0,0,0,0,0,0,0,0,0,0,0,0,0,0,0,0,0,0,0,0,0,0,0,0,0,0,0,0,0,0,0
</data>
 </layer>
 <objectgroup id="2" name="Object Layer 0">
  <object id="1" name="HP02" type="Custom Warp" gid="2147483889" x="1344" y="736" width="64" height="40">
   <properties>
    <property name="Direction" value="Up Left"/>
    <property name="Target Area" value="HP02"/>
    <property name="Target Object" value="46"/>
   </properties>
  </object>
  <object id="9" name="Fishing Test" type="Water" gid="2147483921" x="1136" y="784" width="64" height="64">
   <properties>
    <property name="Water" type="bool" value="true"/>
   </properties>
  </object>
  <object id="10" name="Fishing Test" type="Water" gid="2147483921" x="1136" y="752" width="64" height="64">
   <properties>
    <property name="Water" type="bool" value="true"/>
   </properties>
  </object>
  <object id="11" name="Fishing Test" type="Water" gid="2147483921" x="1136" y="720" width="64" height="64">
   <properties>
    <property name="Water" type="bool" value="true"/>
   </properties>
  </object>
  <object id="12" name="Fishing Test" type="Water" gid="2147483921" x="1136" y="688" width="64" height="64">
   <properties>
    <property name="Water" type="bool" value="true"/>
   </properties>
  </object>
  <object id="13" name="Fishing Test" type="Water" gid="2147483921" x="1136" y="656" width="64" height="64">
   <properties>
    <property name="Water" type="bool" value="true"/>
   </properties>
  </object>
  <object id="36" name="FishBBS" type="FishBBS" gid="297" x="1136" y="832" width="48" height="69">
   <properties>
    <property name="Color" type="color" value="#ffff0000"/>
    <property name="Name" value="FishBBS"/>
   </properties>
  </object>
 </objectgroup>
 <objectgroup id="3" name="Fishing" visible="0">
  <object id="282" name="0" gid="275" x="1344" y="1040" width="17" height="91"/>
  <object id="283" name="blue-1" gid="286" x="1344" y="1024" width="17" height="91"/>
  <object id="284" name="blue-2" gid="288" x="1360" y="1024" width="17" height="91"/>
  <object id="285" name="blue-3" gid="289" x="1360" y="1008" width="17" height="91"/>
  <object id="286" name="blue-4" gid="290" x="1376" y="1008" width="17" height="91"/>
  <object id="287" name="blue-5" gid="291" x="1376" y="992" width="17" height="91"/>
  <object id="288" name="blue-6" gid="292" x="1392" y="992" width="17" height="91"/>
  <object id="289" name="blue-7" gid="293" x="1392" y="976" width="17" height="91"/>
  <object id="290" name="blue-8" gid="294" x="1408" y="976" width="17" height="91"/>
  <object id="291" name="blue-9" gid="295" x="1408" y="960" width="17" height="91"/>
  <object id="292" name="blue-10" gid="287" x="1424" y="960" width="17" height="91"/>
  <object id="294" name="yellow-2" gid="277" x="1456" y="1120" width="17" height="91"/>
  <object id="295" name="yellow-3" gid="278" x="1456" y="1104" width="17" height="91"/>
  <object id="296" name="yellow-4" gid="279" x="1472" y="1104" width="17" height="91"/>
  <object id="297" name="yellow-5" gid="280" x="1472" y="1088" width="17" height="91"/>
  <object id="298" name="yellow-6" gid="281" x="1488" y="1088" width="17" height="91"/>
  <object id="299" name="yellow-7" gid="282" x="1488" y="1072" width="17" height="91"/>
  <object id="300" name="yellow-8" gid="283" x="1504" y="1072" width="17" height="91"/>
  <object id="302" name="yellow-9" gid="284" x="1504" y="1056" width="17" height="91"/>
  <object id="303" name="yellow-10" gid="285" x="1520" y="1056" width="17" height="91"/>
  <object id="304" name="yellow-1" gid="276" x="1440" y="1120" width="17" height="91"/>
 </objectgroup>
</map>
