<?xml version="1.0" encoding="UTF-8"?>
<map version="1.10" tiledversion="1.11.2" orientation="isometric" renderorder="right-down" width="11" height="18" tilewidth="64" tileheight="32" infinite="0" nextlayerid="4" nextobjectid="71">
 <properties>
  <property name="Background" value="custom"/>
  <property name="Background Animation" value="/server/assets/custom/backgrounds/wcity/01-generic1.animation"/>
  <property name="Background Texture" value="/server/assets/custom/backgrounds/wcity/01-generic1.png"/>
  <property name="Background Vel X" type="float" value="0.45"/>
  <property name="Background Vel Y" type="float" value="0.25"/>
  <property name="Memory Area" value="WCity1"/>
  <property name="Name" value="HP03"/>
  <property name="Stasis" value="10,17,0"/>
 </properties>
 <tileset firstgid="1" source="../assets/tiles/central_platform.tsx"/>
 <tileset firstgid="241" source="../assets/ezlibs-assets/ezcheckpoints/bn5cubegreen_tile.tsx"/>
 <tileset firstgid="245" source="../assets/tiles/home_warp.tsx"/>
 <tileset firstgid="250" source="../assets/tiles/bn3-bbs.tsx"/>
 <tileset firstgid="256" source="../assets/tiles/BBSOldFixed.tsx"/>
 <tileset firstgid="259" source="../assets/tiles/Bus Stop.tsx"/>
 <tileset firstgid="260" source="../assets/objects/toy.tsx"/>
 <tileset firstgid="261" source="../assets/objects/tree.tsx"/>
 <tileset firstgid="269" source="../assets/objects/Teddy.tsx"/>
 <tileset firstgid="270" source="../assets/objects/LanHpAnimatedTiles.tsx"/>
 <tileset firstgid="274" source="../assets/objects/Junkpiles.tsx"/>
 <tileset firstgid="276" source="../assets/objects/EXE6_boss_markers.tsx"/>
 <tileset firstgid="284" source="../assets/objects/Ducky.tsx"/>
 <tileset firstgid="285" source="../assets/objects/coffee.tsx"/>
 <tileset firstgid="289" source="../assets/objects/beyblade.tsx"/>
 <tileset firstgid="295" source="../assets/objects/BoktaiDolls28x33.tsx"/>
 <tileset firstgid="300" source="../assets/objects/edit_mode_tile_removal_cursor.tsx"/>
 <tileset firstgid="301" source="../assets/objects/frag.tsx"/>
 <tileset firstgid="302" source="../assets/objects/bass_plush.tsx"/>
 <tileset firstgid="303" source="../assets/objects/skull_1.tsx"/>
 <tileset firstgid="304" source="../assets/objects/skull_2.tsx"/>
 <tileset firstgid="305" source="../assets/objects/fountain.tsx"/>
 <tileset firstgid="311" source="../assets/tiles/HoloPanelz.tsx"/>
 <tileset firstgid="321" source="../assets/objects/Zarydoll.tsx"/>
 <tileset firstgid="322" source="../assets/tiles/EXE6_Shortcuts.tsx"/>
 <tileset firstgid="370" source="../assets/objects/pokemon_huge_128x96_128x96.tsx"/>
 <tileset firstgid="371" source="../assets/objects/midrug_72x96_72x96.tsx"/>
 <tileset firstgid="372" source="../assets/objects/pokemon_mid_72x96_72x96.tsx"/>
 <tileset firstgid="396" source="../assets/objects/pokemon_small_32x32_32x32.tsx"/>
 <tileset firstgid="428" source="../assets/objects/pokemon_pairs_128x96_128x96.tsx"/>
 <tileset firstgid="434" source="../assets/objects/BoktaiDolls2.tsx"/>
 <layer id="1" name="Tile Layer 0" width="11" height="18">
  <data encoding="csv">
52,19,29,39,49,9,19,29,39,49,5,
8,0,0,0,0,0,0,0,0,0,38,
18,0,2,3,3,3,3,3,13,0,48,
28,0,1,12,12,12,12,12,23,0,8,
38,0,1,12,12,12,12,12,23,0,18,
48,0,1,12,12,12,12,12,23,0,28,
8,0,1,12,12,12,12,12,23,0,38,
18,0,1,12,12,12,12,12,23,0,48,
28,0,1,12,12,12,12,12,23,0,8,
38,0,1,12,12,12,12,12,23,0,18,
48,0,11,21,21,21,21,21,22,0,28,
8,0,0,0,0,52,0,0,0,0,38,
18,0,0,0,0,38,0,0,0,0,48,
26,9,19,29,39,48,49,39,29,19,15,
0,0,0,0,0,52,0,0,0,0,0,
0,0,0,0,2,3,13,0,0,0,0,
0,0,0,0,1,12,23,0,0,0,0,
0,0,0,0,11,21,22,0,0,0,312
</data>
 </layer>
 <objectgroup id="2" name="Object Layer 0">
  <object id="1" name="HP Prog" type="NPC" x="240" y="336">
   <properties>
    <property name="Asset Name" value="prog"/>
    <property name="Dialogue Type" value="first"/>
    <property name="Direction" value="Up Left"/>
    <property name="Next 1" type="object" value="4"/>
    <property name="Text 1" value="Hey there"/>
   </properties>
   <point/>
  </object>
  <object id="2" name="HP" type="Checkpoint" gid="241" x="176" y="384" width="53.25" height="56">
   <properties>
    <property name="Consume" type="bool" value="false"/>
    <property name="Key Name" value="__onceitem_only__"/>
    <property name="Memory Area" value="WCity1"/>
    <property name="Once Key" value="KeyHP03"/>
    <property name="Password" value=""/>
    <property name="Required Keys" type="int" value="999999"/>
    <property name="Skip Prompt" type="bool" value="true"/>
   </properties>
  </object>
  <object id="4" name="Butler" type="Dialogue" x="256" y="320">
   <properties>
    <property name="Dialogue Type" value="oncehub"/>
    <property name="Memory Area" value="WCity1"/>
    <property name="Once Key" value="KeyHP03"/>
   </properties>
   <point/>
  </object>
  <object id="6" name="WCity1" type="Custom Warp" gid="245" x="160" y="512" width="60" height="32">
   <properties>
    <property name="Direction" value="Up Right"/>
    <property name="Incoming Data" value="HP03"/>
    <property name="Target Area" value="WCity1"/>
    <property name="Target Object" value="27"/>
    <property name="Warp In" type="bool" value="true"/>
   </properties>
  </object>
  <object id="8" name="HP03 BBS" type="BBS" gid="257" x="48" y="288" width="48" height="69">
   <properties>
    <property name="BBS" type="bool" value="true"/>
    <property name="Color" type="color" value="#ffffffff"/>
    <property name="Name" value="HP03"/>
    <property name="Post Limit" type="int" value="300"/>
   </properties>
  </object>
 </objectgroup>
 <objectgroup id="3" name="Object Layer 2" visible="0" offsetx="0" offsety="-16">
  <object id="13" gid="259" x="192" y="-16" width="16" height="53"/>
  <object id="26" gid="260" x="-240" y="320" width="32" height="24"/>
  <object id="27" gid="261" x="-192" y="320" width="64" height="64"/>
  <object id="28" gid="265" x="-160" y="288" width="64" height="64"/>
  <object id="29" gid="269" x="-144" y="256" width="36" height="49"/>
  <object id="30" gid="270" x="-128" y="192" width="64" height="32"/>
  <object id="31" gid="274" x="-144" y="400" width="64" height="64"/>
  <object id="33" gid="2147483924" x="-131.5" y="407.5" width="73" height="34"/>
  <object id="34" gid="2147483926" x="-96" y="384" width="73" height="34"/>
  <object id="35" gid="2147483928" x="-96" y="448" width="73" height="34"/>
  <object id="36" gid="2147483930" x="-58" y="418" width="73" height="34"/>
  <object id="37" gid="2147483932" x="-112" y="368" width="38" height="36"/>
  <object id="38" gid="285" x="-80" y="352" width="33" height="54"/>
  <object id="39" gid="289" x="-96" y="304" width="18" height="25"/>
  <object id="40" gid="2147483947" x="-43" y="331" width="28" height="30"/>
  <object id="41" gid="2147483946" x="-43" y="299" width="28" height="30"/>
  <object id="42" gid="2147483945" x="-43" y="267" width="28" height="30"/>
  <object id="43" gid="2147483944" x="-43" y="235" width="28" height="30"/>
  <object id="44" gid="2147483943" x="-48" y="208" width="28" height="30"/>
  <object id="45" gid="300" x="-17" y="519" width="64" height="32"/>
  <object id="46" gid="301" x="-32" y="368" width="28" height="34"/>
  <object id="47" gid="302" x="-41" y="181" width="32" height="32"/>
  <object id="48" gid="303" x="-9" y="421" width="30" height="35"/>
  <object id="49" gid="304" x="3.5" y="400.5" width="30" height="34"/>
  <object id="50" gid="305" x="89.5" y="614.5" width="100" height="100"/>
  <object id="51" gid="321" x="-32" y="160" width="30" height="28"/>
  <object id="52" type="Custom Warp" gid="326" x="-16" y="528" width="64" height="40">
   <properties>
    <property name="Direction" value="Up Right"/>
    <property name="Target Area" value="default"/>
    <property name="Target Object" value="16"/>
   </properties>
  </object>
  <object id="53" type="Custom Warp" gid="322" x="-13" y="493" width="64" height="40">
   <properties>
    <property name="Direction" value="Down Right"/>
    <property name="Target Area" value="fisharea"/>
    <property name="Target Object" value="1"/>
   </properties>
  </object>
  <object id="54" type="Custom Warp" gid="330" x="-15.5" y="457.5" width="64" height="40">
   <properties>
    <property name="Direction" value="Up Right"/>
    <property name="Target Area" value="teamshq"/>
    <property name="Target Object" value="4"/>
   </properties>
  </object>
  <object id="55" type="Custom Warp" gid="342" x="23" y="459" width="64" height="40">
   <properties>
    <property name="Direction" value="Up Right"/>
    <property name="Target Area" value="WCity3"/>
    <property name="Target Object" value="79"/>
   </properties>
  </object>
  <object id="56" gid="370" x="123.5" y="628" width="128" height="96"/>
  <object id="57" gid="371" x="221.5" y="632" width="64" height="49"/>
  <object id="58" gid="381" x="305.5" y="650" width="72" height="96"/>
  <object id="59" gid="383" x="323.5" y="628" width="72" height="96"/>
  <object id="60" gid="386" x="345.5" y="610" width="72" height="96"/>
  <object id="61" gid="388" x="377.5" y="580" width="72" height="96"/>
  <object id="62" gid="389" x="410.5" y="545" width="72" height="96"/>
  <object id="63" gid="2147484051" x="424.5" y="521" width="32" height="32"/>
  <object id="64" gid="2147484052" x="431" y="512.5" width="32" height="32"/>
  <object id="65" gid="2147484056" x="440.5" y="505" width="32" height="32"/>
  <object id="66" gid="428" x="414" y="435.5" width="128" height="96"/>
  <object id="67" gid="430" x="451" y="398.5" width="128" height="96"/>
  <object id="68" gid="2147484082" x="-20" y="332" width="21" height="28"/>
  <object id="69" gid="2147484083" x="-15" y="309" width="21" height="28"/>
  <object id="70" name="Casino" type="Custom Warp" gid="366" x="24.5" y="495.5" width="64" height="40">
   <properties>
    <property name="Direction" value="Up Right"/>
    <property name="Target Area" value="casino"/>
    <property name="Target Object" value="43"/>
   </properties>
  </object>
 </objectgroup>
</map>
