<?xml version="1.0" encoding="UTF-8"?>
<map version="1.8" tiledversion="1.11.2" orientation="isometric" renderorder="right-down" width="11" height="18" tilewidth="64" tileheight="32" infinite="0" nextlayerid="3" nextobjectid="9">
 <properties>
  <property name="Background" value="custom"/>
  <property name="Background Animation" value="/server/assets/custom/backgrounds/wcity/01-generic1.animation"/>
  <property name="Background Texture" value="/server/assets/custom/backgrounds/wcity/01-generic1.png"/>
  <property name="Background Vel X" type="float" value="0.45"/>
  <property name="Background Vel Y" type="float" value="0.25"/>
  <property name="Memory Area" value="WCity1"/>
  <property name="Name" value="HP05"/>
 </properties>
 <tileset firstgid="1" source="../assets/tiles/central_platform.tsx"/>
 <tileset firstgid="241" source="../assets/ezlibs-assets/ezcheckpoints/bn5cubegreen_tile.tsx"/>
 <tileset firstgid="245" source="../assets/tiles/home_warp.tsx"/>
 <tileset firstgid="250" source="../assets/tiles/BBSOldFixed.tsx"/>
 <layer id="1" name="Tile Layer 0" width="11" height="18">
  <data encoding="csv">
52,19,29,39,49,9,19,29,39,49,5,
8,0,0,0,0,0,0,0,0,0,38,
18,0,2,3,3,3,3,3,13,0,48,
28,0,1,12,12,12,12,12,23,0,8,
38,0,1,12,12,12,12,12,23,0,18,
48,0,1,12,12,12,12,12,23,0,28,
8,0,1,12,12,12,12,12,23,0,38,
18,0,1,12,12,12,12,12,23,0,48,
28,0,1,12,12,12,12,12,23,0,8,
38,0,1,12,12,12,12,12,23,0,18,
48,0,11,21,21,21,21,21,22,0,28,
8,0,0,0,0,52,0,0,0,0,38,
18,0,0,0,0,38,0,0,0,0,48,
26,9,19,29,39,48,49,39,29,19,15,
0,0,0,0,0,52,0,0,0,0,0,
0,0,0,0,2,3,13,0,0,0,0,
0,0,0,0,1,12,23,0,0,0,0,
0,0,0,0,11,21,22,0,0,0,0
</data>
 </layer>
 <objectgroup id="2" name="Object Layer 0">
  <object id="1" name="HP Prog" type="NPC" x="240" y="336">
   <properties>
    <property name="Asset Name" value="prog"/>
    <property name="Dialogue Type" value="first"/>
    <property name="Direction" value="Up Left"/>
    <property name="Next 1" type="object" value="4"/>
    <property name="Text 1" value="Hey there, I can change your password for visitors"/>
   </properties>
   <point/>
  </object>
  <object id="2" name="HP" type="Checkpoint" gid="241" x="176" y="384" width="53.25" height="56">
   <properties>
    <property name="Consume" type="bool" value="false"/>
    <property name="Key Name" value="__onceitem_only__"/>
    <property name="Memory Area" value="WCity1"/>
    <property name="Once Key" value="KeyHP05"/>
    <property name="Password" value=""/>
    <property name="Required Keys" type="int" value="999999"/>
    <property name="Skip Prompt" type="bool" value="true"/>
   </properties>
  </object>
  <object id="4" name="Pass" type="Dialogue" x="256" y="320">
   <properties>
    <property name="Dialogue Type" value="oncepass"/>
    <property name="Memory Area" value="WCity1"/>
    <property name="Once Key" value="KeyHP05"/>
   </properties>
   <point/>
  </object>
  <object id="6" name="WCity1" type="Custom Warp" gid="245" x="160" y="512" width="60" height="32">
   <properties>
    <property name="Direction" value="Up Right"/>
    <property name="Target Area" value="WCity1"/>
    <property name="Target Object" value="2"/>
   </properties>
  </object>
  <object id="8" name="HP05 BBS" type="BBS" gid="251" x="48" y="288" width="48" height="69">
   <properties>
    <property name="BBS" type="bool" value="true"/>
    <property name="Color" type="color" value="#ffffffff"/>
    <property name="Name" value="HP05"/>
    <property name="Post Limit" type="int" value="300"/>
   </properties>
  </object>
 </objectgroup>
</map>
