<?xml version="1.0" encoding="UTF-8"?>
<map version="1.10" tiledversion="1.11.2" orientation="isometric" renderorder="right-down" width="30" height="30" tilewidth="64" tileheight="32" infinite="0" nextlayerid="3" nextobjectid="58">
 <properties>
  <property name="Background" value="custom"/>
  <property name="Background Animation" value="/server/assets/custom/backgrounds/wcity/01-generic1.animation"/>
  <property name="Background Texture" value="/server/assets/custom/backgrounds/wcity/01-generic1.png"/>
  <property name="Background Vel X" type="float" value="0.45"/>
  <property name="Background Vel Y" type="float" value="0.25"/>
  <property name="Name" value="Music_Shop"/>
  <property name="Song" value="/server/assets/Decor Shop.ogg"/>
 </properties>
 <tileset firstgid="1" source="../assets/tiles/central_platform.tsx"/>
 <tileset firstgid="241" source="../assets/tiles/vendor_desk.tsx"/>
 <tileset firstgid="245" source="../assets/objects/Ducky.tsx"/>
 <tileset firstgid="246" source="../assets/objects/tree.tsx"/>
 <tileset firstgid="254" source="../assets/objects/LanHpAnimatedTiles.tsx"/>
 <tileset firstgid="258" source="../assets/objects/Junkpiles.tsx"/>
 <tileset firstgid="260" source="../assets/objects/beyblade.tsx"/>
 <tileset firstgid="266" source="../assets/objects/coffee.tsx"/>
 <tileset firstgid="270" source="../assets/objects/EXE6_boss_markers.tsx"/>
 <tileset firstgid="278" source="../assets/objects/Teddy.tsx"/>
 <tileset firstgid="279" source="../assets/objects/BoktaiDolls28x33.tsx"/>
 <tileset firstgid="284" source="../assets/objects/toy.tsx"/>
 <tileset firstgid="285" source="../assets/tiles/Bus Stop.tsx"/>
 <tileset firstgid="286" source="../assets/tiles/home_warp.tsx"/>
 <tileset firstgid="291" source="../assets/objects/frag.tsx"/>
 <tileset firstgid="292" source="../assets/objects/bass_plush.tsx"/>
 <tileset firstgid="293" source="../assets/tiles/HoloPanelz.tsx"/>
 <tileset firstgid="303" source="../assets/objects/Zarydoll.tsx"/>
 <tileset firstgid="304" source="../assets/tiles/EXE6_Shortcuts.tsx"/>
 <tileset firstgid="352" source="../assets/tiles/Roadblock.tsx"/>
 <tileset firstgid="354" source="../assets/tiles/ShademanCompWarpAnimation.tsx"/>
 <tileset firstgid="360" source="../assets/objects/BoktaiDolls2.tsx"/>
 <tileset firstgid="362" source="../assets/objects/jukebox.tsx"/>
 <layer id="1" name="Tile Layer 1" width="30" height="30">
  <data encoding="csv">
0,0,0,0,0,0,0,0,0,0,0,0,0,0,0,0,0,0,0,0,0,0,0,0,0,0,0,0,0,0,
0,0,0,0,0,0,0,0,0,0,0,0,0,0,0,0,0,0,0,0,0,0,0,0,0,0,0,0,0,0,
0,0,0,0,0,0,0,0,0,0,0,0,0,0,0,0,0,0,0,0,0,0,0,0,0,0,0,0,0,0,
0,0,0,0,0,0,0,0,0,0,0,0,0,0,0,0,0,0,0,0,0,0,0,0,0,0,0,0,0,0,
0,0,0,0,0,0,0,0,0,0,0,0,0,0,0,0,0,0,0,0,0,0,0,0,0,0,0,0,0,0,
0,0,0,0,0,0,0,0,0,0,0,0,0,0,0,0,0,0,0,0,0,0,0,0,0,0,0,0,0,0,
0,0,0,0,0,0,0,0,0,0,0,0,0,0,0,0,0,0,0,294,0,0,0,0,0,0,0,0,0,0,
0,0,0,0,0,0,0,0,0,62,63,63,63,63,63,63,63,63,63,63,63,73,0,0,0,0,0,0,0,0,
0,0,0,0,0,0,0,0,0,61,72,72,72,72,72,72,72,72,72,72,72,83,0,0,0,0,0,0,0,0,
0,0,0,0,0,0,0,0,0,61,72,72,72,72,72,72,72,72,72,72,72,83,0,0,0,0,0,0,0,0,
0,0,0,0,0,0,0,0,0,61,72,72,72,72,72,72,72,72,72,72,72,83,0,0,0,0,0,0,0,0,
0,0,0,0,0,0,0,0,0,61,72,72,72,72,72,72,72,72,72,72,72,83,0,0,0,0,0,0,0,0,
0,0,0,0,0,0,0,0,0,61,72,72,72,72,72,72,72,72,72,72,72,83,0,0,0,0,0,0,0,0,
0,0,0,0,0,0,0,0,0,61,72,72,72,72,72,72,72,72,72,72,72,83,0,0,0,0,0,0,0,0,
0,0,0,0,0,0,0,0,0,61,72,72,72,72,72,72,72,72,72,72,72,83,0,0,0,0,0,0,0,0,
0,0,0,0,0,0,0,0,0,61,72,72,72,72,72,72,72,72,72,72,72,83,0,0,0,0,0,0,0,0,
0,0,0,0,0,0,0,0,0,71,81,81,81,81,81,81,81,81,81,81,81,82,0,0,0,0,0,0,0,0,
0,0,0,0,0,0,0,0,0,0,0,0,0,0,0,112,0,0,0,0,0,0,0,0,0,0,0,0,0,0,
0,0,0,0,0,0,0,0,0,0,0,0,0,0,0,48,0,0,0,0,0,0,0,0,0,0,0,0,0,0,
0,0,0,0,0,0,0,0,0,0,0,0,0,0,0,52,0,0,0,0,0,0,0,0,0,0,0,0,0,0,
0,0,0,0,0,0,0,0,0,0,0,0,0,0,2,3,13,0,0,0,0,0,0,0,0,0,0,0,0,0,
0,0,0,0,0,0,0,0,0,0,0,0,0,0,1,12,23,0,0,0,0,0,0,0,0,0,0,0,0,0,
0,0,0,0,0,0,0,0,0,0,0,0,0,0,11,21,22,0,0,0,0,0,0,0,0,0,0,0,0,0,
0,0,0,0,0,0,0,0,0,0,0,0,0,0,0,0,0,0,294,0,0,0,0,0,0,0,0,0,0,0,
0,0,0,0,0,0,0,0,0,0,0,0,0,0,0,0,0,0,0,0,0,0,0,0,0,0,0,0,0,0,
0,0,0,0,0,0,0,0,0,0,0,0,0,0,0,0,0,0,0,0,0,0,0,0,0,0,0,0,0,0,
0,0,0,0,0,0,0,0,0,0,0,0,0,0,0,0,0,0,0,0,0,0,0,0,0,0,0,0,0,0,
0,0,0,0,0,0,0,0,0,0,0,0,0,0,0,0,0,0,0,0,0,0,0,0,0,0,0,0,0,0,
0,0,0,0,0,0,0,0,0,0,0,0,0,0,0,0,0,0,0,0,0,0,0,0,0,0,0,0,0,0,
0,0,0,0,0,0,0,0,0,0,0,0,0,0,0,0,0,0,0,0,0,0,0,0,0,0,0,0,0,0
</data>
 </layer>
 <objectgroup id="2" name="Object Layer 1">
  <object id="1" gid="241" x="467.5" y="468" width="35" height="45">
   <properties>
    <property name="Interact Relay" type="object" value="3"/>
   </properties>
  </object>
  <object id="2" gid="243" x="497" y="462.5" width="35" height="45">
   <properties>
    <property name="Interact Relay" type="object" value="3"/>
   </properties>
  </object>
  <object id="3" name="Merchant GengarGuy" type="NPC" x="486" y="442">
   <properties>
    <property name="Asset Name" value="GengarGuy"/>
    <property name="Dialogue Type" value="first"/>
    <property name="Direction" value="Down Left"/>
    <property name="Next 1" type="object" value="4"/>
    <property name="Text 1" value="That pathetic server owner hired me to stand here. Purchase something so his feeble economy doesn't collapse."/>
   </properties>
   <point/>
  </object>
  <object id="4" name="Songshop" type="Dialogue" x="451.5" y="404.5">
   <properties>
    <property name="Dialogue Type" value="songshop"/>
    <property name="Next 1" type="object" value="57"/>
    <property name="Shop Title" value="Song Shop - 200k Each"/>
    <property name="Song Price" type="int" value="200000"/>
   </properties>
   <point/>
  </object>
  <object id="32" gid="266" x="688" y="528" width="33" height="54">
   <properties>
    <property name="Flavor" value="You see a Welcome Coffee Sign"/>
   </properties>
  </object>
  <object id="39" gid="266" x="304" y="528" width="33" height="54">
   <properties>
    <property name="Flavor" value="You see a Welcome Coffee Sign"/>
   </properties>
  </object>
  <object id="40" gid="266" x="304" y="240" width="33" height="54">
   <properties>
    <property name="Flavor" value="You see a Welcome Coffee Sign"/>
   </properties>
  </object>
  <object id="41" gid="266" x="688" y="240" width="33" height="54">
   <properties>
    <property name="Flavor" value="You see a Welcome Coffee Sign"/>
   </properties>
  </object>
  <object id="43" name="default" type="Custom Warp" gid="2147483934" x="480" y="672" width="60" height="32">
   <properties>
    <property name="Direction" value="Up Right"/>
    <property name="Target Area" value="default"/>
    <property name="Target Object" value="400"/>
   </properties>
  </object>
  <object id="55" gid="2147484010" x="392" y="368" width="64" height="72">
   <properties>
    <property name="Color" value="125,110,220"/>
    <property name="Flavor" value="You see a Jukebox that doesn't function. You can change the current song by previewing the tracks from the seller"/>
   </properties>
  </object>
  <object id="56" gid="2147484010" x="584" y="368" width="64" height="72">
   <properties>
    <property name="Color" value="125,110,220"/>
    <property name="Flavor" value="You see a Jukebox that doesn't function. You can change the current song by previewing the tracks from the seller"/>
   </properties>
  </object>
  <object id="57" name="Goodbye" type="Dialogue" x="458" y="384">
   <properties>
    <property name="Dialogue Type" value="first"/>
    <property name="Text 1" value="Whatever. You'll be back"/>
   </properties>
   <point/>
  </object>
 </objectgroup>
</map>
