<?xml version="1.0" encoding="UTF-8"?>
<map version="1.10" tiledversion="1.11.2" orientation="isometric" renderorder="right-down" width="50" height="50" tilewidth="64" tileheight="32" infinite="0" nextlayerid="11" nextobjectid="118">
 <properties>
  <property name="Background" value="custom"/>
  <property name="Background Animation" value="/server/assets/custom/backgrounds/home/suidoukyokunodennou3.animation"/>
  <property name="Background Texture" value="/server/assets/custom/backgrounds/home/suidoukyokunodennou3.png"/>
  <property name="Background Vel X" type="float" value="0"/>
  <property name="Background Vel Y" type="float" value="0.5"/>
  <property name="Name" value="Ice_Rink3"/>
  <property name="Song" value="/server/assets/icerink.ogg"/>
  <property name="Stasis" value="28,47,0"/>
 </properties>
 <tileset firstgid="1" source="../assets/tiles/Custom_Central_Tiles.tsx"/>
 <tileset firstgid="9" source="../assets/tiles/ice-tile.tsx"/>
 <tileset firstgid="17" source="../assets/tiles/SquareWarpsA.tsx"/>
 <tileset firstgid="57" source="../assets/tiles/ShademanCompWarpAnimation.tsx"/>
 <tileset firstgid="63" source="../assets/tiles/SnowTileTopper.tsx"/>
 <tileset firstgid="78" source="../assets/tiles/BBSOldFixed.tsx"/>
 <tileset firstgid="81" source="../assets/ezlibs-assets/ezmystery/BlueMysteryData.tsx"/>
 <tileset firstgid="89" source="../assets/ezlibs-assets/ezmystery/GreenMysteryData.tsx"/>
 <tileset firstgid="97" source="../assets/tiles/home_warp.tsx"/>
 <tileset firstgid="102" source="../assets/tiles/ice-clean-darker.tsx"/>
 <tileset firstgid="198" source="../assets/tiles/enclosed-water-tiles.tsx"/>
 <tileset firstgid="246" source="../assets/fishing/ex.tsx"/>
 <tileset firstgid="247" source="../assets/tiles/Roadblock.tsx"/>
 <tileset firstgid="249" source="../assets/tiles/HoloPanelz.tsx"/>
 <layer id="1" name="Tile Layer 0" width="50" height="50">
  <data encoding="csv">
0,0,0,0,0,0,0,0,0,0,0,0,0,0,0,0,0,0,0,0,0,0,0,0,0,0,0,0,0,0,0,0,0,0,0,0,0,0,0,0,0,0,0,0,0,0,0,0,0,0,
0,0,0,0,0,0,0,0,0,0,0,0,0,0,0,0,0,0,0,0,0,0,0,0,0,0,0,0,0,0,0,0,0,0,0,0,0,0,0,0,0,0,0,0,0,0,0,0,0,0,
0,0,0,0,0,0,0,0,0,0,0,0,0,0,0,0,0,0,0,0,0,0,0,0,0,0,0,0,0,0,0,0,0,0,0,0,0,0,0,0,0,0,0,0,0,0,0,0,0,0,
0,0,0,0,0,0,0,0,0,0,0,0,0,0,0,0,0,0,0,0,0,0,0,0,0,0,0,0,0,0,0,0,0,0,0,0,0,0,0,0,0,0,0,0,0,0,0,0,0,0,
0,0,0,0,0,0,0,0,0,0,0,0,0,0,0,0,0,0,0,0,0,0,0,0,0,0,0,0,0,0,0,0,0,0,0,0,0,0,0,0,0,0,0,0,0,0,0,0,0,0,
0,0,0,0,0,0,0,0,0,0,0,0,0,0,0,0,0,0,0,0,0,0,0,0,0,0,0,0,0,0,0,0,0,0,0,0,0,0,0,0,0,0,0,0,0,0,0,0,0,0,
0,0,0,0,0,0,0,0,0,0,0,0,0,0,0,2,2,2,2,2,2,2,2,2,2,2,2,2,2,2,2,2,2,0,0,0,0,0,0,0,0,0,0,0,0,0,0,0,0,0,
0,0,0,0,0,0,0,0,0,0,0,0,0,0,0,4,4,4,4,4,4,4,4,4,4,4,4,4,4,4,4,4,4,0,0,0,0,0,0,0,0,0,0,0,0,0,0,0,0,0,
0,0,0,0,0,0,0,0,0,0,0,0,0,0,0,2,2,2,2,2,2,2,2,2,2,2,2,2,2,2,2,2,2,0,0,0,0,0,0,0,0,0,0,0,0,0,0,0,0,0,
0,0,0,0,0,0,0,0,0,0,0,0,0,0,0,7,7,16,16,7,7,7,7,7,1,7,7,7,7,7,7,7,7,0,0,0,0,0,0,0,0,0,0,0,0,0,0,0,0,0,
0,0,0,0,0,0,0,0,0,0,0,0,0,0,0,187,187,187,187,187,187,187,187,7,187,187,187,1,7,1,187,187,187,0,0,0,0,0,0,0,0,0,0,0,0,0,0,0,0,0,
0,0,0,0,0,0,0,0,0,0,0,0,0,0,0,187,187,187,187,187,187,187,1,187,187,187,187,187,187,187,187,187,187,0,0,0,0,0,0,0,0,0,0,0,0,0,0,0,0,0,
0,0,0,0,0,0,0,0,0,0,0,0,0,0,0,187,187,187,187,187,187,187,187,187,187,187,187,187,187,187,187,187,187,0,0,0,0,0,0,0,0,0,0,0,0,0,0,0,0,0,
0,0,0,0,0,0,0,0,0,0,0,0,0,0,0,187,7,187,187,187,187,187,187,187,187,187,187,187,187,187,187,187,187,0,0,0,0,0,0,0,0,0,0,0,0,0,0,0,0,0,
0,0,0,0,0,0,0,0,0,0,0,0,0,0,0,187,187,187,187,187,187,187,187,187,187,187,187,187,187,187,7,1,187,0,0,0,0,0,0,0,0,0,0,0,0,0,0,0,0,0,
0,0,0,0,0,0,0,0,0,0,0,0,0,0,0,187,187,187,187,187,187,187,187,187,187,187,187,187,187,187,7,187,187,0,0,0,0,0,0,0,0,0,0,0,0,0,0,0,0,0,
0,0,0,0,0,0,0,0,0,0,0,0,0,0,0,187,187,187,187,187,7,1,187,187,187,187,187,187,187,187,187,187,187,0,0,0,0,0,0,0,0,0,0,0,0,0,0,0,0,0,
0,0,0,0,0,0,0,0,0,0,0,0,0,0,0,187,187,187,187,187,7,187,187,187,187,187,187,187,187,187,187,187,187,0,0,0,0,0,0,0,0,0,0,0,0,0,0,0,0,0,
0,0,0,0,0,0,0,0,0,0,0,0,0,0,0,187,187,187,5,187,187,187,187,187,187,187,187,187,1,1,187,187,187,0,0,0,0,0,0,0,0,0,0,0,0,0,0,0,0,0,
0,0,0,0,0,0,0,0,0,0,0,0,0,0,0,187,187,187,187,187,187,187,187,7,187,187,187,187,187,187,187,187,187,0,0,0,0,0,0,0,0,0,0,0,0,0,0,0,0,0,
0,0,0,0,0,0,0,0,0,0,0,0,0,0,0,187,187,7,187,187,187,187,187,7,1,187,187,187,187,187,187,187,187,0,0,0,0,0,0,0,0,0,0,0,0,0,0,0,0,0,
0,0,0,0,0,0,0,0,0,0,0,0,0,0,0,187,187,7,187,187,187,187,187,7,7,7,187,187,187,187,187,187,187,0,0,0,0,0,0,0,0,0,0,0,0,0,0,0,0,0,
0,0,0,0,0,0,0,0,0,0,0,0,0,0,0,187,5,7,187,187,187,187,187,187,187,187,187,187,187,187,187,187,187,0,0,0,0,0,0,0,0,0,0,0,0,0,0,0,0,0,
0,0,0,0,0,0,0,0,0,0,0,0,0,0,0,187,187,7,187,187,187,1,187,187,187,187,187,187,187,187,187,187,187,0,0,0,0,0,0,0,0,0,0,0,0,0,0,0,0,0,
0,0,0,0,0,0,0,0,0,0,0,0,0,0,0,187,187,187,5,187,187,187,187,187,187,187,187,187,187,187,187,187,187,0,0,0,0,0,0,0,0,0,0,0,0,0,0,0,0,0,
0,0,0,0,0,0,0,0,0,0,0,0,0,0,0,187,187,187,187,187,187,187,187,187,187,3,187,187,187,187,187,187,187,0,0,0,0,0,0,0,0,0,0,0,0,0,0,0,0,0,
0,0,0,0,0,0,0,0,0,0,0,0,0,0,0,187,187,187,187,187,187,187,7,187,187,187,187,187,187,187,187,187,187,0,0,0,0,0,0,0,0,0,0,0,0,0,0,0,0,0,
0,0,0,0,0,0,0,0,0,0,0,0,0,0,0,187,187,187,7,187,187,187,5,187,187,187,187,187,187,187,187,187,187,0,0,0,0,0,0,0,0,0,0,0,0,0,0,0,0,0,
0,0,0,0,0,0,0,0,0,0,0,0,0,0,0,187,187,187,7,187,187,187,7,187,187,187,187,187,187,187,187,187,187,0,0,0,0,0,0,0,0,0,0,0,0,0,0,0,0,0,
0,0,0,0,0,0,0,0,0,0,0,0,0,0,0,187,187,187,187,187,187,187,187,187,187,187,187,187,187,187,187,187,187,0,0,0,0,0,0,0,0,0,0,0,0,0,0,0,0,0,
0,0,0,0,0,0,0,0,0,0,0,0,0,0,0,187,187,187,187,187,187,187,187,187,187,187,187,187,187,187,187,187,187,0,0,0,0,0,0,0,0,0,0,0,0,0,0,0,0,0,
0,0,0,0,0,0,0,0,0,0,0,0,0,0,0,187,187,187,5,187,187,187,187,3,187,187,187,187,187,1,187,187,187,0,0,0,0,0,0,0,0,0,0,0,0,0,0,0,0,0,
0,0,0,0,0,0,0,0,0,0,0,0,0,0,0,7,187,7,187,187,7,187,7,187,7,187,7,187,7,187,7,187,7,0,0,0,0,0,0,0,0,0,0,0,0,0,0,0,0,0,
0,0,0,0,0,0,0,0,0,0,0,0,0,0,0,187,5,187,187,187,187,3,187,187,187,3,187,1,187,187,187,1,187,0,0,0,0,0,0,0,0,0,0,0,0,0,0,0,0,0,
0,0,0,0,0,0,0,0,0,0,0,0,0,0,0,7,187,187,7,187,7,187,187,3,187,187,187,187,187,7,187,187,187,0,0,0,0,0,0,0,0,0,0,0,0,0,0,0,0,0,
0,0,0,0,0,0,0,0,0,0,0,0,0,0,0,187,187,187,5,187,7,187,187,3,187,187,7,187,187,1,187,187,7,0,0,0,0,0,0,0,0,0,0,0,0,0,0,0,0,0,
0,0,0,0,0,0,0,0,0,0,0,0,0,0,0,7,7,7,187,7,7,7,7,187,7,7,7,7,7,187,7,7,187,0,0,0,0,0,0,0,0,0,0,0,0,0,0,0,0,0,
0,0,0,0,0,0,0,0,0,0,0,0,0,0,0,1,3,5,7,1,3,5,7,1,3,5,7,1,3,5,7,1,3,0,0,0,0,0,0,0,0,0,0,0,0,0,0,0,0,0,
0,0,0,0,0,0,0,0,0,0,0,0,0,0,0,5,5,5,5,5,5,5,5,5,5,5,5,5,5,5,5,5,5,0,0,0,0,0,0,0,0,0,0,0,0,0,0,0,0,0,
0,0,0,0,0,0,0,0,0,0,0,0,0,0,0,0,0,0,0,0,0,0,0,8,6,7,0,0,0,0,0,0,0,0,0,0,0,0,0,0,0,0,0,0,0,0,0,0,0,0,
0,0,0,0,0,0,0,0,0,0,0,0,0,0,0,0,0,0,0,0,0,0,0,7,5,8,0,0,0,0,0,0,0,0,0,0,0,0,0,0,0,0,0,0,0,0,0,0,0,0,
0,0,0,0,0,0,0,0,0,0,0,0,0,0,0,0,0,0,0,0,0,0,0,8,6,7,0,0,0,0,0,0,0,0,0,0,0,0,0,0,0,0,0,0,0,0,0,0,0,0,
0,0,0,0,0,0,0,0,0,0,0,0,0,0,0,0,0,0,0,0,0,0,7,8,5,8,7,0,0,0,0,0,0,0,0,0,0,0,0,0,0,0,0,0,0,0,0,0,0,0,
0,0,0,0,0,0,0,0,0,0,0,0,0,0,0,0,0,0,0,0,0,0,8,5,6,5,8,0,0,0,0,0,0,0,0,0,0,0,0,0,0,0,0,0,0,0,0,0,0,0,
0,0,0,0,0,0,0,0,0,0,0,0,0,0,0,0,0,0,0,0,0,0,7,6,8,6,7,0,0,0,0,0,0,0,0,0,0,0,0,0,0,0,0,0,0,0,0,0,0,0,
0,0,0,0,0,0,0,0,0,0,0,0,0,0,0,0,0,0,0,0,0,0,8,5,6,5,8,0,0,0,0,0,0,0,0,0,0,0,0,0,0,0,0,0,0,0,0,0,0,0,
0,0,0,0,0,0,0,0,0,0,0,0,0,0,0,0,0,0,0,0,0,0,7,8,7,8,7,0,0,0,0,0,0,0,0,0,0,0,0,0,0,0,0,0,0,0,0,0,0,0,
0,0,0,0,0,0,0,0,0,0,0,0,0,0,0,0,0,0,0,0,0,0,0,0,0,0,0,0,250,0,0,0,0,0,0,0,0,0,0,0,0,0,0,0,0,0,0,0,0,0,
0,0,0,0,0,0,0,0,0,0,0,0,0,0,0,0,0,0,0,0,0,0,0,0,0,0,0,0,0,0,0,0,0,0,0,0,0,0,0,0,0,0,0,0,0,0,0,0,0,0,
0,0,0,0,0,0,0,0,0,0,0,0,0,0,0,0,0,0,0,0,0,0,0,0,0,0,0,0,0,0,0,0,0,0,0,0,0,0,0,0,0,0,0,0,0,0,0,0,0,0
</data>
 </layer>
 <objectgroup id="2" name="Object Layer 0">
  <object id="1" name="rink2" type="Custom Warp" gid="49" x="768" y="1408" width="64" height="39">
   <properties>
    <property name="Direction" value="Up Right"/>
    <property name="Target Area" value="rink2"/>
    <property name="Target Object" value="100"/>
   </properties>
  </object>
  <object id="2" name="TryAgain2" type="Custom Warp" gid="57" x="481.375" y="1152.63" width="66.5" height="32">
   <properties>
    <property name="Direction" value="Up Right"/>
    <property name="Target Area" value="rink3"/>
    <property name="Target Object" value="3"/>
   </properties>
  </object>
  <object id="3" gid="67" x="768" y="1280" width="64" height="37"/>
  <object id="4" gid="67" x="800" y="1248" width="64" height="37"/>
  <object id="5" gid="67" x="768" y="1248" width="64" height="37"/>
  <object id="6" gid="67" x="736" y="1248" width="64" height="37"/>
  <object id="7" gid="66" x="768" y="1216" width="64" height="37"/>
  <object id="9" gid="76" x="768" y="1312" width="64" height="37"/>
  <object id="10" gid="76" x="800" y="1280" width="64" height="37"/>
  <object id="12" gid="64" x="800" y="1312" width="64" height="37"/>
  <object id="13" name="TryAgain2" type="Custom Warp" gid="57" x="513" y="1153" width="66.5" height="32">
   <properties>
    <property name="Direction" value="Up Right"/>
    <property name="Target Area" value="rink3"/>
    <property name="Target Object" value="3"/>
   </properties>
  </object>
  <object id="14" name="TryAgain2" type="Custom Warp" gid="57" x="545.5" y="1152.5" width="66.5" height="32">
   <properties>
    <property name="Direction" value="Up Right"/>
    <property name="Target Area" value="rink3"/>
    <property name="Target Object" value="3"/>
   </properties>
  </object>
  <object id="15" name="TryAgain2" type="Custom Warp" gid="57" x="609" y="1153" width="66.5" height="32">
   <properties>
    <property name="Direction" value="Up Right"/>
    <property name="Target Area" value="rink3"/>
    <property name="Target Object" value="3"/>
   </properties>
  </object>
  <object id="16" name="TryAgain2" type="Custom Warp" gid="57" x="641" y="1153" width="66.5" height="32">
   <properties>
    <property name="Direction" value="Up Right"/>
    <property name="Target Area" value="rink3"/>
    <property name="Target Object" value="3"/>
   </properties>
  </object>
  <object id="17" name="TryAgain2" type="Custom Warp" gid="57" x="673" y="1153" width="66.5" height="32">
   <properties>
    <property name="Direction" value="Up Right"/>
    <property name="Target Area" value="rink3"/>
    <property name="Target Object" value="3"/>
   </properties>
  </object>
  <object id="18" name="TryAgain2" type="Custom Warp" gid="57" x="705" y="1153" width="66.5" height="32">
   <properties>
    <property name="Direction" value="Up Right"/>
    <property name="Target Area" value="rink3"/>
    <property name="Target Object" value="3"/>
   </properties>
  </object>
  <object id="19" name="TryAgain2" type="Custom Warp" gid="57" x="769" y="1153" width="66.5" height="32">
   <properties>
    <property name="Direction" value="Up Right"/>
    <property name="Target Area" value="rink3"/>
    <property name="Target Object" value="3"/>
   </properties>
  </object>
  <object id="20" name="TryAgain2" type="Custom Warp" gid="57" x="801" y="1153" width="66.5" height="32">
   <properties>
    <property name="Direction" value="Up Right"/>
    <property name="Target Area" value="rink3"/>
    <property name="Target Object" value="3"/>
   </properties>
  </object>
  <object id="21" name="TryAgain2" type="Custom Warp" gid="57" x="833" y="1153" width="66.5" height="32">
   <properties>
    <property name="Direction" value="Up Right"/>
    <property name="Target Area" value="rink3"/>
    <property name="Target Object" value="3"/>
   </properties>
  </object>
  <object id="22" name="TryAgain2" type="Custom Warp" gid="57" x="865" y="1153" width="66.5" height="32">
   <properties>
    <property name="Direction" value="Up Right"/>
    <property name="Target Area" value="rink3"/>
    <property name="Target Object" value="3"/>
   </properties>
  </object>
  <object id="23" name="TryAgain2" type="Custom Warp" gid="57" x="897" y="1153" width="66.5" height="32">
   <properties>
    <property name="Direction" value="Up Right"/>
    <property name="Target Area" value="rink3"/>
    <property name="Target Object" value="3"/>
   </properties>
  </object>
  <object id="24" name="TryAgain2" type="Custom Warp" gid="57" x="961" y="1153" width="66.5" height="32">
   <properties>
    <property name="Direction" value="Up Right"/>
    <property name="Target Area" value="rink3"/>
    <property name="Target Object" value="3"/>
   </properties>
  </object>
  <object id="25" name="TryAgain2" type="Custom Warp" gid="57" x="993" y="1153" width="66.5" height="32">
   <properties>
    <property name="Direction" value="Up Right"/>
    <property name="Target Area" value="rink3"/>
    <property name="Target Object" value="3"/>
   </properties>
  </object>
  <object id="26" name="TryAgain2" type="Custom Warp" gid="57" x="1025" y="1121" width="66.5" height="32">
   <properties>
    <property name="Direction" value="Up Right"/>
    <property name="Target Area" value="rink3"/>
    <property name="Target Object" value="3"/>
   </properties>
  </object>
  <object id="27" name="TryAgain2" type="Custom Warp" gid="57" x="929" y="1089" width="66.5" height="32">
   <properties>
    <property name="Direction" value="Up Right"/>
    <property name="Target Area" value="rink3"/>
    <property name="Target Object" value="3"/>
   </properties>
  </object>
  <object id="28" name="TryAgain2" type="Custom Warp" gid="57" x="833" y="1121" width="66.5" height="32">
   <properties>
    <property name="Direction" value="Up Right"/>
    <property name="Target Area" value="rink3"/>
    <property name="Target Object" value="3"/>
   </properties>
  </object>
  <object id="29" name="TryAgain2" type="Custom Warp" gid="57" x="735.938" y="1090.06" width="62.25" height="31">
   <properties>
    <property name="Direction" value="Up Right"/>
    <property name="Target Area" value="rink3"/>
    <property name="Target Object" value="3"/>
   </properties>
  </object>
  <object id="30" name="TryAgain2" type="Custom Warp" gid="57" x="641" y="1121" width="66.5" height="32">
   <properties>
    <property name="Direction" value="Up Right"/>
    <property name="Target Area" value="rink3"/>
    <property name="Target Object" value="3"/>
   </properties>
  </object>
  <object id="31" name="TryAgain2" type="Custom Warp" gid="57" x="577" y="1089" width="66.5" height="32">
   <properties>
    <property name="Direction" value="Up Right"/>
    <property name="Target Area" value="rink3"/>
    <property name="Target Object" value="3"/>
   </properties>
  </object>
  <object id="32" name="TryAgain2" type="Custom Warp" gid="57" x="481" y="1089" width="66.5" height="32">
   <properties>
    <property name="Direction" value="Up Right"/>
    <property name="Target Area" value="rink3"/>
    <property name="Target Object" value="3"/>
   </properties>
  </object>
  <object id="33" name="TryAgain2" type="Custom Warp" gid="57" x="1025" y="1025" width="66.5" height="32">
   <properties>
    <property name="Direction" value="Up Right"/>
    <property name="Target Area" value="rink3"/>
    <property name="Target Object" value="3"/>
   </properties>
  </object>
  <object id="34" name="TryAgain2" type="Custom Warp" gid="57" x="961" y="1025" width="66.5" height="32">
   <properties>
    <property name="Direction" value="Up Right"/>
    <property name="Target Area" value="rink3"/>
    <property name="Target Object" value="3"/>
   </properties>
  </object>
  <object id="35" name="TryAgain2" type="Custom Warp" gid="57" x="897" y="1025" width="66.5" height="32">
   <properties>
    <property name="Direction" value="Up Right"/>
    <property name="Target Area" value="rink3"/>
    <property name="Target Object" value="3"/>
   </properties>
  </object>
  <object id="36" name="TryAgain2" type="Custom Warp" gid="57" x="833" y="1025" width="66.5" height="32">
   <properties>
    <property name="Direction" value="Up Right"/>
    <property name="Target Area" value="rink3"/>
    <property name="Target Object" value="3"/>
   </properties>
  </object>
  <object id="37" name="TryAgain2" type="Custom Warp" gid="57" x="769" y="1025" width="66.5" height="32">
   <properties>
    <property name="Direction" value="Up Right"/>
    <property name="Target Area" value="rink3"/>
    <property name="Target Object" value="3"/>
   </properties>
  </object>
  <object id="38" name="TryAgain2" type="Custom Warp" gid="57" x="705.688" y="1026.31" width="65.25" height="31">
   <properties>
    <property name="Direction" value="Up Right"/>
    <property name="Target Area" value="rink3"/>
    <property name="Target Object" value="3"/>
   </properties>
  </object>
  <object id="39" name="TryAgain2" type="Custom Warp" gid="57" x="641" y="1025" width="66.5" height="32">
   <properties>
    <property name="Direction" value="Up Right"/>
    <property name="Target Area" value="rink3"/>
    <property name="Target Object" value="3"/>
   </properties>
  </object>
  <object id="40" name="TryAgain2" type="Custom Warp" gid="57" x="545" y="1025" width="66.5" height="32">
   <properties>
    <property name="Direction" value="Up Right"/>
    <property name="Target Area" value="rink3"/>
    <property name="Target Object" value="3"/>
   </properties>
  </object>
  <object id="41" name="TryAgain2" type="Custom Warp" gid="57" x="481" y="1025" width="66.5" height="32">
   <properties>
    <property name="Direction" value="Up Right"/>
    <property name="Target Area" value="rink3"/>
    <property name="Target Object" value="3"/>
   </properties>
  </object>
  <object id="42" name="TryAgain2" type="Custom Warp" gid="57" x="738" y="992" width="62" height="31">
   <properties>
    <property name="Direction" value="Up Right"/>
    <property name="Target Area" value="rink3"/>
    <property name="Target Object" value="3"/>
   </properties>
  </object>
  <object id="44" name="TryAgain2" type="Custom Warp" gid="57" x="934.5" y="993.5" width="63.125" height="33">
   <properties>
    <property name="Direction" value="Up Right"/>
    <property name="Target Area" value="rink3"/>
    <property name="Target Object" value="3"/>
   </properties>
  </object>
  <object id="45" name="TryAgain2" type="Custom Warp" gid="57" x="640.5" y="1089.5" width="66.5" height="32">
   <properties>
    <property name="Direction" value="Up Right"/>
    <property name="Target Area" value="rink3"/>
    <property name="Target Object" value="3"/>
   </properties>
  </object>
  <object id="46" name="TryAgain2" type="Custom Warp" gid="57" x="1024.22" y="287.781" width="69.125" height="38">
   <properties>
    <property name="Direction" value="Up Right"/>
    <property name="Target Area" value="rink3"/>
    <property name="Target Object" value="3"/>
   </properties>
  </object>
  <object id="47" name="TryAgain2" type="Custom Warp" gid="57" x="993" y="289" width="66.5" height="32">
   <properties>
    <property name="Direction" value="Up Right"/>
    <property name="Target Area" value="rink3"/>
    <property name="Target Object" value="3"/>
   </properties>
  </object>
  <object id="48" name="TryAgain2" type="Custom Warp" gid="57" x="961" y="289" width="66.5" height="32">
   <properties>
    <property name="Direction" value="Up Right"/>
    <property name="Target Area" value="rink3"/>
    <property name="Target Object" value="3"/>
   </properties>
  </object>
  <object id="49" name="TryAgain2" type="Custom Warp" gid="57" x="929" y="289" width="66.5" height="32">
   <properties>
    <property name="Direction" value="Up Right"/>
    <property name="Target Area" value="rink3"/>
    <property name="Target Object" value="3"/>
   </properties>
  </object>
  <object id="50" name="TryAgain2" type="Custom Warp" gid="57" x="897" y="289" width="66.5" height="32">
   <properties>
    <property name="Direction" value="Up Right"/>
    <property name="Target Area" value="rink3"/>
    <property name="Target Object" value="3"/>
   </properties>
  </object>
  <object id="51" name="TryAgain2" type="Custom Warp" gid="57" x="865" y="289" width="66.5" height="32">
   <properties>
    <property name="Direction" value="Up Right"/>
    <property name="Target Area" value="rink3"/>
    <property name="Target Object" value="3"/>
   </properties>
  </object>
  <object id="52" name="TryAgain2" type="Custom Warp" gid="57" x="833" y="289" width="66.5" height="32">
   <properties>
    <property name="Direction" value="Up Right"/>
    <property name="Target Area" value="rink3"/>
    <property name="Target Object" value="3"/>
   </properties>
  </object>
  <object id="53" name="TryAgain2" type="Custom Warp" gid="57" x="801" y="289" width="66.5" height="32">
   <properties>
    <property name="Direction" value="Up Right"/>
    <property name="Target Area" value="rink3"/>
    <property name="Target Object" value="3"/>
   </properties>
  </object>
  <object id="54" name="TryAgain2" type="Custom Warp" gid="57" x="737" y="289" width="66.5" height="32">
   <properties>
    <property name="Direction" value="Up Right"/>
    <property name="Target Area" value="rink3"/>
    <property name="Target Object" value="3"/>
   </properties>
  </object>
  <object id="55" name="TryAgain2" type="Custom Warp" gid="57" x="705" y="289" width="66.5" height="32">
   <properties>
    <property name="Direction" value="Up Right"/>
    <property name="Target Area" value="rink3"/>
    <property name="Target Object" value="3"/>
   </properties>
  </object>
  <object id="56" name="TryAgain2" type="Custom Warp" gid="57" x="673" y="289" width="66.5" height="32">
   <properties>
    <property name="Direction" value="Up Right"/>
    <property name="Target Area" value="rink3"/>
    <property name="Target Object" value="3"/>
   </properties>
  </object>
  <object id="57" name="TryAgain2" type="Custom Warp" gid="57" x="641" y="289" width="66.5" height="32">
   <properties>
    <property name="Direction" value="Up Right"/>
    <property name="Target Area" value="rink3"/>
    <property name="Target Object" value="3"/>
   </properties>
  </object>
  <object id="58" name="TryAgain2" type="Custom Warp" gid="57" x="609.5" y="288.5" width="66.5" height="32">
   <properties>
    <property name="Direction" value="Up Right"/>
    <property name="Target Area" value="rink3"/>
    <property name="Target Object" value="3"/>
   </properties>
  </object>
  <object id="59" name="TryAgain2" type="Custom Warp" gid="57" x="578.813" y="289.188" width="65.25" height="31">
   <properties>
    <property name="Direction" value="Up Right"/>
    <property name="Target Area" value="rink3"/>
    <property name="Target Object" value="3"/>
   </properties>
  </object>
  <object id="60" name="TryAgain2" type="Custom Warp" gid="57" x="544.438" y="289.563" width="64.25" height="31">
   <properties>
    <property name="Direction" value="Up Right"/>
    <property name="Target Area" value="rink3"/>
    <property name="Target Object" value="3"/>
   </properties>
  </object>
  <object id="61" name="TryAgain2" type="Custom Warp" gid="57" x="513" y="289" width="66.5" height="32">
   <properties>
    <property name="Direction" value="Up Right"/>
    <property name="Target Area" value="rink3"/>
    <property name="Target Object" value="3"/>
   </properties>
  </object>
  <object id="62" name="TryAgain2" type="Custom Warp" gid="57" x="481" y="289" width="66.5" height="32">
   <properties>
    <property name="Direction" value="Up Right"/>
    <property name="Target Area" value="rink3"/>
    <property name="Target Object" value="3"/>
   </properties>
  </object>
  <object id="63" name="TryAgain2" type="Custom Warp" gid="57" x="737.5" y="320.5" width="66.5" height="32">
   <properties>
    <property name="Direction" value="Up Right"/>
    <property name="Target Area" value="rink3"/>
    <property name="Target Object" value="3"/>
   </properties>
  </object>
  <object id="64" name="TryAgain2" type="Custom Warp" gid="57" x="896.5" y="321.5" width="66.5" height="32">
   <properties>
    <property name="Direction" value="Up Right"/>
    <property name="Target Area" value="rink3"/>
    <property name="Target Object" value="3"/>
   </properties>
  </object>
  <object id="65" name="TryAgain2" type="Custom Warp" gid="57" x="737" y="673" width="66.5" height="32">
   <properties>
    <property name="Direction" value="Up Right"/>
    <property name="Target Area" value="rink3"/>
    <property name="Target Object" value="3"/>
   </properties>
  </object>
  <object id="66" name="TryAgain2" type="Custom Warp" gid="57" x="769" y="673" width="66.5" height="32">
   <properties>
    <property name="Direction" value="Up Right"/>
    <property name="Target Area" value="rink3"/>
    <property name="Target Object" value="3"/>
   </properties>
  </object>
  <object id="67" name="TryAgain2" type="Custom Warp" gid="57" x="800" y="672" width="66.5" height="32">
   <properties>
    <property name="Direction" value="Up Right"/>
    <property name="Target Area" value="rink3"/>
    <property name="Target Object" value="3"/>
   </properties>
  </object>
  <object id="68" name="TryAgain2" type="Custom Warp" gid="57" x="961" y="449" width="66.5" height="32">
   <properties>
    <property name="Direction" value="Up Right"/>
    <property name="Target Area" value="rink3"/>
    <property name="Target Object" value="3"/>
   </properties>
  </object>
  <object id="69" name="TryAgain2" type="Custom Warp" gid="57" x="961.5" y="480.5" width="66.5" height="32">
   <properties>
    <property name="Direction" value="Up Right"/>
    <property name="Target Area" value="rink3"/>
    <property name="Target Object" value="3"/>
   </properties>
  </object>
  <object id="70" name="TryAgain2" type="Custom Warp" gid="57" x="737" y="641" width="66.5" height="32">
   <properties>
    <property name="Direction" value="Up Right"/>
    <property name="Target Area" value="rink3"/>
    <property name="Target Object" value="110"/>
   </properties>
  </object>
  <object id="71" name="TryAgain2" type="Custom Warp" gid="57" x="737" y="609" width="66.5" height="32">
   <properties>
    <property name="Direction" value="Up Right"/>
    <property name="Target Area" value="rink3"/>
    <property name="Target Object" value="3"/>
   </properties>
  </object>
  <object id="72" name="TryAgain2" type="Custom Warp" gid="57" x="641" y="545" width="66.5" height="32">
   <properties>
    <property name="Direction" value="Up Right"/>
    <property name="Target Area" value="rink3"/>
    <property name="Target Object" value="3"/>
   </properties>
  </object>
  <object id="73" name="TryAgain2" type="Custom Warp" gid="57" x="641" y="513" width="66.5" height="32">
   <properties>
    <property name="Direction" value="Up Right"/>
    <property name="Target Area" value="rink3"/>
    <property name="Target Object" value="3"/>
   </properties>
  </object>
  <object id="74" name="TryAgain2" type="Custom Warp" gid="57" x="545" y="673" width="66.5" height="32">
   <properties>
    <property name="Direction" value="Up Right"/>
    <property name="Target Area" value="rink3"/>
    <property name="Target Object" value="3"/>
   </properties>
  </object>
  <object id="75" name="TryAgain2" type="Custom Warp" gid="57" x="545" y="641" width="66.5" height="32">
   <properties>
    <property name="Direction" value="Up Right"/>
    <property name="Target Area" value="rink3"/>
    <property name="Target Object" value="3"/>
   </properties>
  </object>
  <object id="77" name="TryAgain2" type="Custom Warp" gid="57" x="545" y="705" width="66.5" height="32">
   <properties>
    <property name="Direction" value="Up Right"/>
    <property name="Target Area" value="rink3"/>
    <property name="Target Object" value="3"/>
   </properties>
  </object>
  <object id="78" name="TryAgain2" type="Custom Warp" gid="57" x="545" y="737" width="66.5" height="32">
   <properties>
    <property name="Direction" value="Up Right"/>
    <property name="Target Area" value="rink3"/>
    <property name="Target Object" value="3"/>
   </properties>
  </object>
  <object id="79" name="TryAgain2" type="Custom Warp" gid="57" x="513" y="417" width="66.5" height="32">
   <properties>
    <property name="Direction" value="Up Right"/>
    <property name="Target Area" value="rink3"/>
    <property name="Target Object" value="3"/>
   </properties>
  </object>
  <object id="80" name="TryAgain2" type="Custom Warp" gid="57" x="577" y="897" width="66.5" height="32">
   <properties>
    <property name="Direction" value="Up Right"/>
    <property name="Target Area" value="rink3"/>
    <property name="Target Object" value="3"/>
   </properties>
  </object>
  <object id="81" name="TryAgain2" type="Custom Warp" gid="57" x="577" y="865" width="66.5" height="32">
   <properties>
    <property name="Direction" value="Up Right"/>
    <property name="Target Area" value="rink3"/>
    <property name="Target Object" value="3"/>
   </properties>
  </object>
  <object id="82" name="TryAgain2" type="Custom Warp" gid="57" x="705" y="897" width="66.5" height="32">
   <properties>
    <property name="Direction" value="Up Right"/>
    <property name="Target Area" value="rink3"/>
    <property name="Target Object" value="3"/>
   </properties>
  </object>
  <object id="83" name="TryAgain2" type="Custom Warp" gid="57" x="705" y="833" width="66.5" height="32">
   <properties>
    <property name="Direction" value="Up Right"/>
    <property name="Target Area" value="rink3"/>
    <property name="Target Object" value="3"/>
   </properties>
  </object>
  <object id="84" name="3rdBBS" type="BBS" gid="2147483727" x="576" y="176" width="48" height="69">
   <properties>
    <property name="BBS" type="bool" value="true"/>
    <property name="Color" type="color" value="#ff00ffd4"/>
    <property name="Name" value="Level3Complete"/>
    <property name="Post Limit" type="int" value="999"/>
   </properties>
  </object>
  <object id="85" type="Mystery Data" gid="81" x="629" y="211.5" width="14" height="43">
   <properties>
    <property name="Amount" type="int" value="60000"/>
    <property name="Next 1" type="object" value="0"/>
    <property name="Once" type="bool" value="true"/>
    <property name="Type" value="money"/>
   </properties>
  </object>
  <object id="86" name="MysteryDataResults" type="Mystery Option" x="499.5" y="175.5">
   <properties>
    <property name="Next 1" type="object" value="87"/>
    <property name="Next 2" type="object" value="88"/>
    <property name="Next 3" type="object" value="88"/>
    <property name="Next 4" type="object" value="89"/>
    <property name="Next 5" type="object" value="91"/>
    <property name="Next 6" type="object" value="91"/>
    <property name="Next 7" type="object" value="91"/>
    <property name="Next 8" type="object" value="91"/>
    <property name="Next 9" type="object" value="91"/>
    <property name="Type" value="random"/>
   </properties>
   <point/>
  </object>
  <object id="87" name="200" type="Mystery Option" x="513.5" y="83.5">
   <properties>
    <property name="Amount" value="200"/>
    <property name="Type" value="money"/>
   </properties>
   <point/>
  </object>
  <object id="88" name="400" type="Mystery Option" x="531" y="96">
   <properties>
    <property name="Amount" value="400"/>
    <property name="Type" value="money"/>
   </properties>
   <point/>
  </object>
  <object id="89" name="600" type="Mystery Option" x="554.5" y="120.5">
   <properties>
    <property name="Amount" value="600"/>
    <property name="Type" value="money"/>
   </properties>
   <point/>
  </object>
  <object id="90" name="800" type="Mystery Option" x="568.5" y="136.5">
   <properties>
    <property name="Amount" value="800"/>
    <property name="Type" value="money"/>
   </properties>
   <point/>
  </object>
  <object id="91" name="Uncommon" type="Mystery Option" x="401.5" y="89.5">
   <properties>
    <property name="Next 1" type="object" value="90"/>
    <property name="Next 2" type="object" value="92"/>
    <property name="Next 3" type="object" value="92"/>
    <property name="Next 4" type="object" value="93"/>
    <property name="Next 5" type="object" value="93"/>
    <property name="Next 6" type="object" value="93"/>
    <property name="Next 7" type="object" value="93"/>
    <property name="Next 8" type="object" value="93"/>
    <property name="Next 9" type="object" value="93"/>
    <property name="Type" value="random"/>
   </properties>
   <point/>
  </object>
  <object id="92" name="2000" type="Mystery Option" x="423.5" y="43.5">
   <properties>
    <property name="Amount" value="2000"/>
    <property name="Type" value="money"/>
   </properties>
   <point/>
  </object>
  <object id="93" name="Rare" type="Mystery Option" x="356" y="45">
   <properties>
    <property name="Next 1" type="object" value="94"/>
    <property name="Next 2" type="object" value="94"/>
    <property name="Next 3" type="object" value="95"/>
    <property name="Type" value="random"/>
   </properties>
   <point/>
  </object>
  <object id="94" name="4000" type="Mystery Option" x="380" y="5">
   <properties>
    <property name="Amount" value="4000"/>
    <property name="Type" value="money"/>
   </properties>
   <point/>
  </object>
  <object id="95" name="Ultra Rare" type="Mystery Option" x="326" y="9">
   <properties>
    <property name="Next 1" type="object" value="101"/>
    <property name="Next 2" type="object" value="98"/>
    <property name="Next 3" type="object" value="98"/>
    <property name="Type" value="random"/>
   </properties>
   <point/>
  </object>
  <object id="96" name="40,000" type="Mystery Option" x="349" y="-24">
   <properties>
    <property name="Amount" value="40000"/>
    <property name="Type" value="money"/>
   </properties>
   <point/>
  </object>
  <object id="97" name="50,000" type="Mystery Option" x="329" y="-48">
   <properties>
    <property name="Amount" value="50000"/>
    <property name="Type" value="money"/>
   </properties>
   <point/>
  </object>
  <object id="98" name="Rarest" type="Mystery Option" x="304" y="-25">
   <properties>
    <property name="Next 1" type="object" value="97"/>
    <property name="Next 2" type="object" value="96"/>
    <property name="Type" value="random"/>
   </properties>
   <point/>
  </object>
  <object id="99" type="Mystery Data" gid="89" x="663.5" y="214" width="14" height="43">
   <properties>
    <property name="Next 1" type="object" value="86"/>
    <property name="Type" value="random"/>
   </properties>
  </object>
  <object id="100" name="Home3" type="Custom Warp" gid="97" x="992" y="224" width="60" height="32">
   <properties>
    <property name="Direction" value="Up Left"/>
    <property name="Target Area" value="default"/>
    <property name="Target Object" value="144"/>
   </properties>
  </object>
  <object id="101" name="30,000" type="Mystery Option" x="357.5" y="-13.5">
   <properties>
    <property name="Amount" value="30000"/>
    <property name="Type" value="money"/>
   </properties>
   <point/>
  </object>
  <object id="102" type="Mystery Data" gid="89" x="929" y="581" width="14" height="43">
   <properties>
    <property name="Next 1" type="object" value="86"/>
    <property name="Type" value="random"/>
   </properties>
  </object>
  <object id="103" type="Mystery Data" gid="89" x="777" y="667" width="14" height="43">
   <properties>
    <property name="Next 1" type="object" value="86"/>
    <property name="Type" value="random"/>
   </properties>
  </object>
 </objectgroup>
 <layer id="5" name="Tile Layer 1" width="50" height="50" offsetx="0" offsety="-16">
  <data encoding="csv">
0,0,0,0,0,0,0,0,0,0,0,0,0,0,0,0,0,0,0,0,0,0,0,0,0,0,0,0,0,0,0,0,0,0,0,0,0,0,0,0,0,0,0,0,0,0,0,0,0,0,
0,0,0,0,0,0,0,0,0,0,0,0,0,0,0,0,0,0,0,0,0,0,0,0,0,0,0,0,0,0,0,0,0,0,0,0,0,0,0,0,0,0,0,0,0,0,0,0,0,0,
0,0,0,0,0,0,0,0,0,0,0,0,0,0,0,0,0,0,0,0,0,0,0,0,0,0,0,0,0,0,0,0,0,0,0,0,0,0,0,0,0,0,0,0,0,0,0,0,0,0,
0,0,0,0,0,0,0,0,0,0,0,0,0,0,0,0,0,0,0,0,0,0,0,0,0,0,0,0,0,0,0,0,0,0,0,0,0,0,0,0,0,0,0,0,0,0,0,0,0,0,
0,0,0,0,0,0,0,0,0,0,0,0,0,0,0,0,0,0,0,0,0,0,0,0,0,0,0,0,0,0,0,0,0,0,0,0,0,0,0,0,0,0,0,0,0,0,0,0,0,0,
0,0,0,0,0,0,0,0,0,0,0,0,0,0,0,0,0,0,0,0,0,0,0,0,0,0,0,0,0,0,0,0,0,0,0,0,0,0,0,0,0,0,0,0,0,0,0,0,0,0,
0,0,0,0,0,0,0,0,0,0,0,0,0,0,0,0,0,0,0,0,0,0,0,0,0,0,0,0,0,0,0,0,0,0,0,0,0,0,0,0,0,0,0,0,0,0,0,0,0,0,
0,0,0,0,0,0,0,0,0,0,0,0,0,0,0,0,0,0,0,0,0,0,0,0,0,0,0,0,0,0,0,0,0,0,0,0,0,0,0,0,0,0,0,0,0,0,0,0,0,0,
0,0,0,0,0,0,0,0,0,0,0,0,0,0,0,0,0,0,0,0,0,0,0,0,0,0,0,0,0,0,0,0,0,0,0,0,0,0,0,0,0,0,0,0,0,0,0,0,0,0,
0,0,0,0,0,0,0,0,0,0,0,0,0,0,0,0,0,0,0,0,0,0,0,0,0,0,0,0,0,0,0,0,0,0,0,0,0,0,0,0,0,0,0,0,0,0,0,0,0,0,
0,0,0,0,0,0,0,0,0,0,0,0,0,0,0,0,0,0,0,0,0,0,0,0,0,0,0,0,0,0,0,0,0,0,0,0,0,0,0,0,0,0,0,0,0,0,0,0,0,0,
0,0,0,0,0,0,0,0,0,0,0,0,0,0,0,0,0,0,0,0,0,0,0,0,0,0,0,0,0,0,0,0,0,0,0,0,0,0,0,0,0,0,0,0,0,0,0,0,0,0,
0,0,0,0,0,0,0,0,0,0,0,0,0,0,0,0,0,0,0,0,0,0,0,0,0,0,0,0,0,0,0,0,0,0,0,0,0,0,0,0,0,0,0,0,0,0,0,0,0,0,
0,0,0,0,0,0,0,0,0,0,0,0,0,0,0,0,0,0,0,0,0,0,0,0,0,0,0,0,0,0,0,0,0,0,0,0,0,0,0,0,0,0,0,0,0,0,0,0,0,0,
0,0,0,0,0,0,0,0,0,0,0,0,0,0,0,0,0,0,0,0,0,0,0,0,0,0,0,0,0,0,0,0,0,0,0,0,0,0,0,0,0,0,0,0,0,0,0,0,0,0,
0,0,0,0,0,0,0,0,0,0,0,0,0,0,0,0,0,0,0,0,0,0,0,0,0,0,0,0,0,0,0,0,0,0,0,0,0,0,0,0,0,0,0,0,0,0,0,0,0,0,
0,0,0,0,0,0,0,0,0,0,0,0,0,0,0,0,0,0,0,0,0,0,0,0,0,0,0,0,0,0,0,0,0,0,0,0,0,0,0,0,0,0,0,0,0,0,0,0,0,0,
0,0,0,0,0,0,0,0,0,0,0,0,0,0,0,0,0,0,0,0,0,0,0,0,0,0,0,0,0,0,0,0,0,0,0,0,0,0,0,0,0,0,0,0,0,0,0,0,0,0,
0,0,0,0,0,0,0,0,0,0,0,0,0,0,0,0,0,0,0,0,0,0,0,0,0,0,0,0,0,0,0,0,0,0,0,0,0,0,0,0,0,0,0,0,0,0,0,0,0,0,
0,0,0,0,0,0,0,0,0,0,0,0,0,0,0,0,0,0,0,0,0,0,0,0,0,0,0,0,0,0,0,0,0,0,0,0,0,0,0,0,0,0,0,0,0,0,0,0,0,0,
0,0,0,0,0,0,0,0,0,0,0,0,0,0,0,0,0,0,0,0,0,0,0,0,0,0,0,0,0,0,0,0,0,0,0,0,0,0,0,0,0,0,0,0,0,0,0,0,0,0,
0,0,0,0,0,0,0,0,0,0,0,0,0,0,0,0,0,0,0,0,0,0,0,0,0,0,0,0,0,0,0,0,0,0,0,0,0,0,0,0,0,0,0,0,0,0,0,0,0,0,
0,0,0,0,0,0,0,0,0,0,0,0,0,0,0,0,0,0,0,0,0,0,0,0,0,0,0,0,0,0,0,0,0,0,0,0,0,0,0,0,0,0,0,0,0,0,0,0,0,0,
0,0,0,0,0,0,0,0,0,0,0,0,0,0,0,0,0,0,0,0,0,0,0,0,0,0,0,0,0,0,0,0,0,0,0,0,0,0,0,0,0,0,0,0,0,0,0,0,0,0,
0,0,0,0,0,0,0,0,0,0,0,0,0,0,0,0,0,0,0,0,0,0,0,0,0,0,0,0,0,0,0,0,0,0,0,0,0,0,0,0,0,0,0,0,0,0,0,0,0,0,
0,0,0,0,0,0,0,0,0,0,0,0,0,0,0,0,0,0,0,0,0,0,0,0,0,0,0,0,0,0,0,0,0,0,0,0,0,0,0,0,0,0,0,0,0,0,0,0,0,0,
0,0,0,0,0,0,0,0,0,0,0,0,0,0,0,0,0,0,0,0,0,0,0,0,0,0,0,0,0,0,0,0,0,0,0,0,0,0,0,0,0,0,0,0,0,0,0,0,0,0,
0,0,0,0,0,0,0,0,0,0,0,0,0,0,0,0,0,0,0,0,0,0,0,0,0,0,0,0,0,0,0,0,0,0,0,0,0,0,0,0,0,0,0,0,0,0,0,0,0,0,
0,0,0,0,0,0,0,0,0,0,0,0,0,0,0,0,0,0,0,0,0,0,0,0,0,0,0,0,0,0,0,0,0,0,0,0,0,0,0,0,0,0,0,0,0,0,0,0,0,0,
0,0,0,0,0,0,0,0,0,0,0,0,0,0,0,0,0,0,0,0,0,0,0,0,0,0,0,0,0,0,0,0,0,0,0,0,0,0,0,0,0,0,0,0,0,0,0,0,0,0,
0,0,0,0,0,0,0,0,0,0,0,0,0,0,0,0,0,0,0,0,0,0,0,0,0,0,0,0,0,0,0,0,0,0,0,0,0,0,0,0,0,0,0,0,0,0,0,0,0,0,
0,0,0,0,0,0,0,0,0,0,0,0,0,0,0,0,0,0,0,0,0,0,0,0,0,0,0,0,0,0,0,0,0,0,0,0,0,0,0,0,0,0,0,0,0,0,0,0,0,0,
0,0,0,0,0,0,0,0,0,0,0,0,0,0,0,0,0,0,0,0,0,0,0,0,0,0,0,0,0,0,0,0,0,0,0,0,0,0,0,0,0,0,0,0,0,0,0,0,0,0,
0,0,0,0,0,0,0,0,0,0,0,0,0,0,0,0,0,0,0,0,0,0,0,0,0,0,0,0,0,0,0,0,0,0,0,0,0,0,0,0,0,0,0,0,0,0,0,0,0,0,
0,0,0,0,0,0,0,0,0,0,0,0,0,0,0,0,0,0,0,0,0,0,0,0,0,0,0,0,0,0,0,0,0,0,0,0,0,0,0,0,0,0,0,0,0,0,0,0,0,0,
0,0,0,0,0,0,0,0,0,0,0,0,0,0,0,0,0,0,0,0,0,0,0,0,0,0,0,0,0,0,0,0,0,0,0,0,0,0,0,0,0,0,0,0,0,0,0,0,0,0,
0,0,0,0,0,0,0,0,0,0,0,0,0,0,0,0,0,0,0,0,0,0,0,0,0,0,0,0,0,0,0,0,0,0,0,0,0,0,0,0,0,0,0,0,0,0,0,0,0,0,
0,0,0,0,0,0,0,0,0,0,0,0,0,0,0,0,0,0,0,0,0,0,0,0,0,0,0,0,0,0,0,0,0,0,0,0,0,0,0,0,0,0,0,0,0,0,0,0,0,0,
0,0,0,0,0,0,0,0,0,0,0,0,0,0,0,0,0,0,0,0,0,0,0,0,0,0,0,0,0,0,0,0,0,0,0,0,0,0,0,0,0,0,0,0,0,0,0,0,0,0,
0,0,0,0,0,0,0,0,0,0,0,0,0,0,0,0,0,0,0,0,0,0,0,0,0,0,0,0,0,0,0,0,0,0,0,0,0,0,0,0,0,0,0,0,0,0,0,0,0,0,
0,0,0,0,0,0,0,0,0,0,0,0,0,0,0,0,0,0,0,0,0,0,0,0,0,0,0,0,0,0,0,0,0,0,0,0,0,0,0,0,0,0,0,0,0,0,0,0,0,0,
0,0,0,0,0,0,0,0,0,0,0,0,0,0,0,0,0,0,0,0,0,0,0,0,0,0,0,0,0,0,0,0,0,0,0,0,0,0,0,0,0,0,0,0,0,0,0,0,0,0,
0,0,0,0,0,0,0,0,0,0,0,0,0,0,0,0,0,0,0,0,0,0,0,0,0,0,0,0,0,0,0,0,0,0,0,0,0,0,0,0,0,0,0,0,0,0,0,0,0,0,
0,0,0,0,0,0,0,0,0,0,0,0,0,0,0,0,0,0,0,0,0,0,0,0,0,0,0,0,0,0,0,0,0,0,0,0,0,0,0,0,0,0,0,0,0,0,0,0,0,0,
0,0,0,0,0,0,0,0,0,0,0,0,0,0,0,0,0,0,0,0,0,0,0,0,0,0,0,0,0,0,0,0,0,0,0,0,0,0,0,0,0,0,0,0,0,0,0,0,0,0,
0,0,0,0,0,0,0,0,0,0,0,0,0,0,0,0,0,0,0,0,0,0,0,0,0,0,0,0,0,0,0,0,0,0,0,0,0,0,0,0,0,0,0,0,0,0,0,0,0,0,
0,0,0,0,0,0,0,0,0,0,0,0,0,0,0,0,0,0,0,0,0,0,0,0,0,0,0,0,0,0,0,0,0,0,0,0,0,0,0,0,0,0,0,0,0,0,0,0,0,0,
0,0,0,0,0,0,0,0,0,0,0,0,0,0,0,0,0,0,0,0,0,0,0,0,0,0,0,0,0,0,0,0,0,0,0,0,0,0,0,0,0,0,0,0,0,0,0,0,0,0,
0,0,0,0,0,0,0,0,0,0,0,0,0,0,0,0,0,0,0,0,0,0,0,0,0,0,0,0,0,0,0,0,0,0,0,0,0,0,0,0,0,0,0,0,0,0,0,0,0,0,
0,0,0,0,0,0,0,0,0,0,0,0,0,0,0,0,0,0,0,0,0,0,0,0,0,0,0,0,0,0,0,0,0,0,0,0,0,0,0,0,0,0,0,0,0,0,0,0,0,0
</data>
 </layer>
 <objectgroup id="6" name="Object Layer 1" offsetx="0" offsety="-16"/>
 <layer id="7" name="Tile Layer 2" width="50" height="50" offsetx="0" offsety="-32">
  <data encoding="csv">
0,0,0,0,0,0,0,0,0,0,0,0,0,0,0,0,0,0,0,0,0,0,0,0,0,0,0,0,0,0,0,0,0,0,0,0,0,0,0,0,0,0,0,0,0,0,0,0,0,0,
0,0,0,0,0,0,0,0,0,0,0,0,0,0,0,0,0,0,0,0,0,0,0,0,0,0,0,0,0,0,0,0,0,0,0,0,0,0,0,0,0,0,0,0,0,0,0,0,0,0,
0,0,0,0,0,0,0,0,0,0,0,0,0,0,0,0,0,0,0,0,0,0,0,0,0,0,0,0,0,0,0,0,0,0,0,0,0,0,0,0,0,0,0,0,0,0,0,0,0,0,
0,0,0,0,0,0,0,0,0,0,0,0,0,0,0,0,0,0,0,0,0,0,0,0,0,0,0,0,0,0,0,0,0,0,0,0,0,0,0,0,0,0,0,0,0,0,0,0,0,0,
0,0,0,0,0,0,0,0,0,0,0,0,0,0,0,0,0,0,0,0,0,0,0,0,0,0,0,0,0,0,0,0,0,0,0,0,0,0,0,0,0,0,0,0,0,0,0,0,0,0,
0,0,0,0,0,0,0,0,0,0,0,0,0,0,0,0,0,0,0,0,0,0,0,0,0,0,0,0,0,0,0,0,0,0,0,0,0,0,0,0,0,0,0,0,0,0,0,0,0,0,
0,0,0,0,0,0,0,0,0,0,0,0,0,0,0,0,0,0,0,0,0,0,0,0,0,0,0,0,0,0,0,0,0,0,0,0,0,0,0,0,0,0,0,0,0,0,0,0,0,0,
0,0,0,0,0,0,0,0,0,0,0,0,0,0,0,0,0,0,0,0,0,0,0,0,0,0,0,0,0,0,0,0,0,0,0,0,0,0,0,0,0,0,0,0,0,0,0,0,0,0,
0,0,0,0,0,0,0,0,0,0,0,0,0,0,0,0,0,0,0,0,0,0,0,0,0,0,0,0,0,0,0,0,0,0,0,0,0,0,0,0,0,0,0,0,0,0,0,0,0,0,
0,0,0,0,0,0,0,0,0,0,0,0,0,0,0,0,0,0,0,0,0,0,0,0,0,0,0,0,0,0,0,0,0,0,0,0,0,0,0,0,0,0,0,0,0,0,0,0,0,0,
0,0,0,0,0,0,0,0,0,0,0,0,0,0,0,0,0,0,0,0,0,0,0,0,0,0,0,0,0,0,0,0,0,0,0,0,0,0,0,0,0,0,0,0,0,0,0,0,0,0,
0,0,0,0,0,0,0,0,0,0,0,0,0,0,0,0,0,0,0,0,0,0,0,0,0,0,0,0,0,0,0,0,0,0,0,0,0,0,0,0,0,0,0,0,0,0,0,0,0,0,
0,0,0,0,0,0,0,0,0,0,0,0,0,0,0,0,0,0,0,0,0,0,0,0,0,0,0,0,0,0,0,0,0,0,0,0,0,0,0,0,0,0,0,0,0,0,0,0,0,0,
0,0,0,0,0,0,0,0,0,0,0,0,0,0,0,0,0,0,0,0,0,0,0,0,0,0,0,0,0,0,0,0,0,0,0,0,0,0,0,0,0,0,0,0,0,0,0,0,0,0,
0,0,0,0,0,0,0,0,0,0,0,0,0,0,0,0,0,0,0,0,0,0,0,0,0,0,0,0,0,0,0,0,0,0,0,0,0,0,0,0,0,0,0,0,0,0,0,0,0,0,
0,0,0,0,0,0,0,0,0,0,0,0,0,0,0,0,0,0,0,0,0,0,0,0,0,0,0,0,0,0,0,0,0,0,0,0,0,0,0,0,0,0,0,0,0,0,0,0,0,0,
0,0,0,0,0,0,0,0,0,0,0,0,0,0,0,0,0,0,0,0,0,0,0,0,0,0,0,0,0,0,0,0,0,0,0,0,0,0,0,0,0,0,0,0,0,0,0,0,0,0,
0,0,0,0,0,0,0,0,0,0,0,0,0,0,0,0,0,0,0,0,0,0,0,0,0,0,0,0,0,0,0,0,0,0,0,0,0,0,0,0,0,0,0,0,0,0,0,0,0,0,
0,0,0,0,0,0,0,0,0,0,0,0,0,0,0,0,0,0,0,0,0,0,0,0,0,0,0,0,0,0,0,0,0,0,0,0,0,0,0,0,0,0,0,0,0,0,0,0,0,0,
0,0,0,0,0,0,0,0,0,0,0,0,0,0,0,0,0,0,0,0,0,0,0,0,0,0,0,0,0,0,0,0,0,0,0,0,0,0,0,0,0,0,0,0,0,0,0,0,0,0,
0,0,0,0,0,0,0,0,0,0,0,0,0,0,0,0,0,0,0,0,0,0,0,0,0,0,0,0,0,0,0,0,0,0,0,0,0,0,0,0,0,0,0,0,0,0,0,0,0,0,
0,0,0,0,0,0,0,0,0,0,0,0,0,0,0,0,0,0,0,0,0,0,0,0,0,0,0,0,0,0,0,0,0,0,0,0,0,0,0,0,0,0,0,0,0,0,0,0,0,0,
0,0,0,0,0,0,0,0,0,0,0,0,0,0,0,0,0,0,0,0,0,0,0,0,0,0,0,0,0,0,0,0,0,0,0,0,0,0,0,0,0,0,0,0,0,0,0,0,0,0,
0,0,0,0,0,0,0,0,0,0,0,0,0,0,0,0,0,0,0,0,0,0,0,0,0,0,0,0,0,0,0,0,0,0,0,0,0,0,0,0,0,0,0,0,0,0,0,0,0,0,
0,0,0,0,0,0,0,0,0,0,0,0,0,0,0,0,0,0,0,0,0,0,0,0,0,0,0,0,0,0,0,0,0,0,0,0,0,0,0,0,0,0,0,0,0,0,0,0,0,0,
0,0,0,0,0,0,0,0,0,0,0,0,0,0,0,0,0,0,0,0,0,0,0,0,0,0,0,0,0,0,0,0,0,0,0,0,0,0,0,0,0,0,0,0,0,0,0,0,0,0,
0,0,0,0,0,0,0,0,0,0,0,0,0,0,0,0,0,0,0,0,0,0,0,0,0,0,0,0,0,0,0,0,0,0,0,0,0,0,0,0,0,0,0,0,0,0,0,0,0,0,
0,0,0,0,0,0,0,0,0,0,0,0,0,0,0,0,0,0,0,0,0,0,0,0,0,0,0,0,0,0,0,0,0,0,0,0,0,0,0,0,0,0,0,0,0,0,0,0,0,0,
0,0,0,0,0,0,0,0,0,0,0,0,0,0,0,0,0,0,0,0,0,0,0,0,0,0,0,0,0,0,0,0,0,0,0,0,0,0,0,0,0,0,0,0,0,0,0,0,0,0,
0,0,0,0,0,0,0,0,0,0,0,0,0,0,0,0,0,0,0,0,0,0,0,0,0,0,0,0,0,0,0,0,0,0,0,0,0,0,0,0,0,0,0,0,0,0,0,0,0,0,
0,0,0,0,0,0,0,0,0,0,0,0,0,0,0,0,0,0,0,0,0,0,0,0,0,0,0,0,0,0,0,0,0,0,0,0,0,0,0,0,0,0,0,0,0,0,0,0,0,0,
0,0,0,0,0,0,0,0,0,0,0,0,0,0,0,0,0,0,0,0,0,0,0,0,0,0,0,0,0,0,0,0,0,0,0,0,0,0,0,0,0,0,0,0,0,0,0,0,0,0,
0,0,0,0,0,0,0,0,0,0,0,0,0,0,0,0,0,0,0,0,0,0,0,0,0,0,0,0,0,0,0,0,0,0,0,0,0,0,0,0,0,0,0,0,0,0,0,0,0,0,
0,0,0,0,0,0,0,0,0,0,0,0,0,0,0,0,0,0,0,0,0,0,0,0,0,0,0,0,0,0,0,0,0,0,0,0,0,0,0,0,0,0,0,0,0,0,0,0,0,0,
0,0,0,0,0,0,0,0,0,0,0,0,0,0,0,0,0,0,0,0,0,0,0,0,0,0,0,0,0,0,0,0,0,0,0,0,0,0,0,0,0,0,0,0,0,0,0,0,0,0,
0,0,0,0,0,0,0,0,0,0,0,0,0,0,0,0,0,0,0,0,0,0,0,0,0,0,0,0,0,0,0,0,0,0,0,0,0,0,0,0,0,0,0,0,0,0,0,0,0,0,
0,0,0,0,0,0,0,0,0,0,0,0,0,0,0,0,0,0,0,0,0,0,0,0,0,0,0,0,0,0,0,0,0,0,0,0,0,0,0,0,0,0,0,0,0,0,0,0,0,0,
0,0,0,0,0,0,0,0,0,0,0,0,0,0,0,0,0,0,0,0,0,0,0,0,0,0,0,0,0,0,0,0,0,0,0,0,0,0,0,0,0,0,0,0,0,0,0,0,0,0,
0,0,0,0,0,0,0,0,0,0,0,0,0,0,0,0,0,0,0,0,0,0,0,0,0,0,0,0,0,0,0,0,0,0,0,0,0,0,0,0,0,0,0,0,0,0,0,0,0,0,
0,0,0,0,0,0,0,0,0,0,0,0,0,0,0,0,0,0,0,0,0,0,0,0,0,0,0,0,0,0,0,0,0,0,0,0,0,0,0,0,0,0,0,0,0,0,0,0,0,0,
0,0,0,0,0,0,0,0,0,0,0,0,0,0,0,0,0,0,0,0,0,0,0,0,0,0,0,0,0,0,0,0,0,0,0,0,0,0,0,0,0,0,0,0,0,0,0,0,0,0,
0,0,0,0,0,0,0,0,0,0,0,0,0,0,0,0,0,0,0,0,0,0,0,0,0,0,0,0,0,0,0,0,0,0,0,0,0,0,0,0,0,0,0,0,0,0,0,0,0,0,
0,0,0,0,0,0,0,0,0,0,0,0,0,0,0,0,0,0,0,0,0,0,0,0,0,0,0,0,0,0,0,0,0,0,0,0,0,0,0,0,0,0,0,0,0,0,0,0,0,0,
0,0,0,0,0,0,0,0,0,0,0,0,0,0,0,0,0,0,0,0,0,0,0,0,0,0,0,0,0,0,0,0,0,0,0,0,0,0,0,0,0,0,0,0,0,0,0,0,0,0,
0,0,0,0,0,0,0,0,0,0,0,0,0,0,0,0,0,0,0,0,0,0,0,0,0,0,0,0,0,0,0,0,0,0,0,0,0,0,0,0,0,0,0,0,0,0,0,0,0,0,
0,0,0,0,0,0,0,0,0,0,0,0,0,0,0,0,0,0,0,0,0,0,0,0,0,0,0,0,0,0,0,0,0,0,0,0,0,0,0,0,0,0,0,0,0,0,0,0,0,0,
0,0,0,0,0,0,0,0,0,0,0,0,0,0,0,0,0,0,0,0,0,0,0,0,0,0,0,0,0,0,0,0,0,0,0,0,0,0,0,0,0,0,0,0,0,0,0,0,0,0,
0,0,0,0,0,0,0,0,0,0,0,0,0,0,0,0,0,0,0,0,0,0,0,0,0,0,0,0,0,0,0,0,0,0,0,0,0,0,0,0,0,0,0,0,0,0,0,0,0,0,
0,0,0,0,0,0,0,0,0,0,0,0,0,0,0,0,0,0,0,0,0,0,0,0,0,0,0,0,0,0,0,0,0,0,0,0,0,0,0,0,0,0,0,0,0,0,0,0,0,0,
0,0,0,0,0,0,0,0,0,0,0,0,0,0,0,0,0,0,0,0,0,0,0,0,0,0,0,0,0,0,0,0,0,0,0,0,0,0,0,0,0,0,0,0,0,0,0,0,0,0
</data>
 </layer>
 <objectgroup id="8" name="Object Layer 2" offsetx="0" offsety="-32"/>
 <layer id="9" name="Tile Layer 3" width="50" height="50" offsetx="0" offsety="-48">
  <data encoding="csv">
0,0,0,0,0,0,0,0,0,0,0,0,0,0,0,0,0,0,0,0,0,0,0,0,0,0,0,0,0,0,0,0,0,0,0,0,0,0,0,0,0,0,0,0,0,0,0,0,0,0,
0,0,0,0,0,0,0,0,0,0,0,0,0,0,0,0,0,0,0,0,0,0,0,0,0,0,0,0,0,0,0,0,0,0,0,0,0,0,0,0,0,0,0,0,0,0,0,0,0,0,
0,0,0,0,0,0,0,0,0,0,0,0,0,0,0,0,0,0,0,0,0,0,0,0,0,0,0,0,0,0,0,0,0,0,0,0,0,0,0,0,0,0,0,0,0,0,0,0,0,0,
0,0,0,0,0,0,0,0,0,0,0,0,0,0,0,0,0,0,0,0,0,0,0,0,0,0,0,0,0,0,0,0,0,0,0,0,0,0,0,0,0,0,0,0,0,0,0,0,0,0,
0,0,0,0,0,0,0,0,0,0,0,0,0,0,0,0,0,0,0,0,0,0,0,0,0,0,0,0,0,0,0,0,0,0,0,0,0,0,0,0,0,0,0,0,0,0,0,0,0,0,
0,0,0,0,0,0,0,0,0,0,0,0,0,0,0,0,0,0,0,0,0,0,0,0,0,0,0,0,0,0,0,0,0,0,0,0,0,0,0,0,0,0,0,0,0,0,0,0,0,0,
0,0,0,0,0,0,0,0,0,0,0,0,0,0,0,0,0,0,0,0,0,0,0,208,212,210,0,0,0,0,0,0,0,0,0,0,0,0,0,0,0,0,0,0,0,0,0,0,0,0,
0,0,0,0,0,0,0,0,0,0,0,0,0,0,0,0,0,0,0,0,0,0,0,2,1,10,0,0,0,0,0,0,0,0,0,0,0,0,0,0,0,0,0,0,0,0,0,0,0,0,
0,0,0,0,0,0,0,0,0,0,0,0,0,0,0,0,0,0,0,0,0,0,0,0,2,0,0,0,0,0,0,0,0,0,0,0,0,0,0,0,0,0,0,0,0,0,0,0,0,0,
0,0,0,0,0,0,0,0,0,0,0,0,0,0,0,0,0,0,0,0,0,0,0,0,0,0,0,0,0,0,0,0,0,0,0,0,0,0,0,0,0,0,0,0,0,0,0,0,0,0,
0,0,0,0,0,0,0,0,0,0,0,0,0,0,0,0,0,0,0,0,0,0,0,0,0,0,0,0,0,0,0,0,0,0,0,0,0,0,0,0,0,0,0,0,0,0,0,0,0,0,
0,0,0,0,0,0,0,0,0,0,0,0,0,0,0,0,0,0,0,0,0,0,0,0,0,0,0,0,0,0,0,0,0,0,0,0,0,0,0,0,0,0,0,0,0,0,0,0,0,0,
0,0,0,0,0,0,0,0,0,0,0,0,0,0,0,0,0,0,0,0,0,0,0,0,0,0,0,0,0,0,0,0,0,0,0,0,0,0,0,0,0,0,0,0,0,0,0,0,0,0,
0,0,0,0,0,0,0,0,0,0,0,0,0,0,0,0,0,0,0,0,0,0,0,0,0,0,0,0,0,0,0,0,0,0,0,0,0,0,0,0,0,0,0,0,0,0,0,0,0,0,
0,0,0,0,0,0,0,0,0,0,0,0,0,0,0,0,0,0,0,0,0,0,0,0,0,0,0,0,0,0,0,0,0,0,0,0,0,0,0,0,0,0,0,0,0,0,0,0,0,0,
0,0,0,0,0,0,0,0,0,0,0,0,0,0,0,0,0,0,0,0,0,0,0,0,0,0,0,0,0,0,0,0,0,0,0,0,0,0,0,0,0,0,0,0,0,0,0,0,0,0,
0,0,0,0,0,0,0,0,0,0,0,0,0,0,0,0,0,0,0,0,0,0,0,0,0,0,0,0,0,0,0,0,0,0,0,0,0,0,0,0,0,0,0,0,0,0,0,0,0,0,
0,0,0,0,0,0,0,0,0,0,0,0,0,0,0,0,0,0,0,0,0,0,0,0,0,0,0,0,0,0,0,0,0,0,0,0,0,0,0,0,0,0,0,0,0,0,0,0,0,0,
0,0,0,0,0,0,0,0,0,0,0,0,0,0,0,0,0,0,0,0,0,0,0,0,0,0,0,0,0,0,0,0,0,0,0,0,0,0,0,0,0,0,0,0,0,0,0,0,0,0,
0,0,0,0,0,0,0,0,0,0,0,0,0,0,0,0,0,0,0,0,0,0,0,0,0,0,0,0,0,0,0,0,0,0,0,0,0,0,0,0,0,0,0,0,0,0,0,0,0,0,
0,0,0,0,0,0,0,0,0,0,0,0,0,0,0,0,0,0,0,0,0,0,0,0,0,0,0,0,0,0,0,0,0,0,0,0,0,0,0,0,0,0,0,0,0,0,0,0,0,0,
0,0,0,0,0,0,0,0,0,0,0,0,0,0,0,0,0,0,0,0,0,0,0,0,0,0,0,0,0,0,0,0,0,0,0,0,0,0,0,0,0,0,0,0,0,0,0,0,0,0,
0,0,0,0,0,0,0,0,0,0,0,0,0,0,0,0,0,0,0,0,0,0,0,0,0,0,0,0,0,0,0,0,0,0,0,0,0,0,0,0,0,0,0,0,0,0,0,0,0,0,
0,0,0,0,0,0,0,0,0,0,0,0,0,0,0,0,0,0,0,0,0,0,0,0,0,0,0,0,0,0,0,0,0,0,0,0,0,0,0,0,0,0,0,0,0,0,0,0,0,0,
0,0,0,0,0,0,0,0,0,0,0,0,0,0,0,0,0,0,0,0,0,0,0,0,0,0,0,0,0,0,0,0,0,0,0,0,0,0,0,0,0,0,0,0,0,0,0,0,0,0,
0,0,0,0,0,0,0,0,0,0,0,0,0,0,0,0,0,0,0,0,0,0,0,0,0,0,0,0,0,0,0,0,0,0,0,0,0,0,0,0,0,0,0,0,0,0,0,0,0,0,
0,0,0,0,0,0,0,0,0,0,0,0,0,0,0,0,0,0,0,0,0,0,0,0,0,0,0,0,0,0,0,0,0,0,0,0,0,0,0,0,0,0,0,0,0,0,0,0,0,0,
0,0,0,0,0,0,0,0,0,0,0,0,0,0,0,0,0,0,0,0,0,0,0,0,0,0,0,0,0,0,0,0,0,0,0,0,0,0,0,0,0,0,0,0,0,0,0,0,0,0,
0,0,0,0,0,0,0,0,0,0,0,0,0,0,0,0,0,0,0,0,0,0,0,0,0,0,0,0,0,0,0,0,0,0,0,0,0,0,0,0,0,0,0,0,0,0,0,0,0,0,
0,0,0,0,0,0,0,0,0,0,0,0,0,0,0,0,0,0,0,0,0,0,0,0,0,0,0,0,0,0,0,0,0,0,0,0,0,0,0,0,0,0,0,0,0,0,0,0,0,0,
0,0,0,0,0,0,0,0,0,0,0,0,0,0,0,0,0,0,0,0,0,0,0,0,0,0,0,0,0,0,0,0,0,0,0,0,0,0,0,0,0,0,0,0,0,0,0,0,0,0,
0,0,0,0,0,0,0,0,0,0,0,0,0,0,0,0,0,0,0,0,0,0,0,0,0,0,0,0,0,0,0,0,0,0,0,0,0,0,0,0,0,0,0,0,0,0,0,0,0,0,
0,0,0,0,0,0,0,0,0,0,0,0,0,0,0,0,0,0,0,0,0,0,0,0,0,0,0,0,0,0,0,0,0,0,0,0,0,0,0,0,0,0,0,0,0,0,0,0,0,0,
0,0,0,0,0,0,0,0,0,0,0,0,0,0,0,0,0,0,0,0,0,0,0,0,0,0,0,0,0,0,0,0,0,0,0,0,0,0,0,0,0,0,0,0,0,0,0,0,0,0,
0,0,0,0,0,0,0,0,0,0,0,0,0,0,0,0,0,0,0,0,0,0,0,0,0,0,0,0,0,0,0,0,0,0,0,0,0,0,0,0,0,0,0,0,0,0,0,0,0,0,
0,0,0,0,0,0,0,0,0,0,0,0,0,0,0,0,0,0,0,0,0,0,0,0,0,0,0,0,0,0,0,0,0,0,0,0,0,0,0,0,0,0,0,0,0,0,0,0,0,0,
0,0,0,0,0,0,0,0,0,0,0,0,0,0,0,0,0,0,0,0,0,0,0,0,0,0,0,0,0,0,0,0,0,0,0,0,0,0,0,0,0,0,0,0,0,0,0,0,0,0,
0,0,0,0,0,0,0,0,0,0,0,0,0,0,0,0,0,0,0,0,0,0,0,0,0,0,0,0,0,0,0,0,0,0,0,0,0,0,0,0,0,0,0,0,0,0,0,0,0,0,
0,0,0,0,0,0,0,0,0,0,0,0,0,0,0,0,0,0,0,0,0,0,0,0,0,0,0,0,0,0,0,0,0,0,0,0,0,0,0,0,0,0,0,0,0,0,0,0,0,0,
0,0,0,0,0,0,0,0,0,0,0,0,0,0,0,0,0,0,0,0,0,0,0,0,0,0,0,0,0,0,0,0,0,0,0,0,0,0,0,0,0,0,0,0,0,0,0,0,0,0,
0,0,0,0,0,0,0,0,0,0,0,0,0,0,0,0,0,0,0,0,0,0,0,0,0,0,0,0,0,0,0,0,0,0,0,0,0,0,0,0,0,0,0,0,0,0,0,0,0,0,
0,0,0,0,0,0,0,0,0,0,0,0,0,0,0,0,0,0,0,0,0,0,0,0,0,0,0,0,0,0,0,0,0,0,0,0,0,0,0,0,0,0,0,0,0,0,0,0,0,0,
0,0,0,0,0,0,0,0,0,0,0,0,0,0,0,0,0,0,0,0,0,0,0,0,0,0,0,0,0,0,0,0,0,0,0,0,0,0,0,0,0,0,0,0,0,0,0,0,0,0,
0,0,0,0,0,0,0,0,0,0,0,0,0,0,0,0,0,0,0,0,0,0,0,0,0,0,0,0,0,0,0,0,0,0,0,0,0,0,0,0,0,0,0,0,0,0,0,0,0,0,
0,0,0,0,0,0,0,0,0,0,0,0,0,0,0,0,0,0,0,0,0,0,0,0,0,0,0,0,0,0,0,0,0,0,0,0,0,0,0,0,0,0,0,0,0,0,0,0,0,0,
0,0,0,0,0,0,0,0,0,0,0,0,0,0,0,0,0,0,0,0,0,0,0,0,0,0,0,0,0,0,0,0,0,0,0,0,0,0,0,0,0,0,0,0,0,0,0,0,0,0,
0,0,0,0,0,0,0,0,0,0,0,0,0,0,0,0,0,0,0,0,0,0,0,0,0,0,0,0,0,0,0,0,0,0,0,0,0,0,0,0,0,0,0,0,0,0,0,0,0,0,
0,0,0,0,0,0,0,0,0,0,0,0,0,0,0,0,0,0,0,0,0,0,0,0,0,0,0,0,0,0,0,0,0,0,0,0,0,0,0,0,0,0,0,0,0,0,0,0,0,0,
0,0,0,0,0,0,0,0,0,0,0,0,0,0,0,0,0,0,0,0,0,0,0,0,0,0,0,0,0,0,0,0,0,0,0,0,0,0,0,0,0,0,0,0,0,0,0,0,0,0,
0,0,0,0,0,0,0,0,0,0,0,0,0,0,0,0,0,0,0,0,0,0,0,0,0,0,0,0,0,0,0,0,0,0,0,0,0,0,0,0,0,0,0,0,0,0,0,0,0,0
</data>
 </layer>
 <objectgroup id="10" name="Object Layer 3" offsetx="0" offsety="-48">
  <object id="110" gid="63" x="768" y="256" width="64" height="37"/>
  <object id="115" type="Ice Drop" x="810.5" y="239.5">
   <properties>
    <property name="Drop Edge" value="Down Right"/>
    <property name="Landing" value="0"/>
   </properties>
   <point/>
  </object>
  <object id="109" name="FishBBS" type="FishBBS" gid="79" x="720" y="224" width="48" height="69">
   <properties>
    <property name="Color" type="color" value="#ffff0000"/>
    <property name="Name" value="FishBBS"/>
   </properties>
  </object>
  <object id="111" name="Fishing Test" type="Water" gid="247" x="752" y="208" width="64" height="64" visible="0">
   <properties>
    <property name="Water" type="bool" value="true"/>
   </properties>
  </object>
  <object id="112" name="Fishing Test" type="Water" gid="247" x="784" y="208" width="64" height="64" visible="0">
   <properties>
    <property name="Water" type="bool" value="true"/>
   </properties>
  </object>
  <object id="113" name="Fishing Test" type="Water" gid="247" x="816" y="208" width="64" height="64" visible="0">
   <properties>
    <property name="Water" type="bool" value="true"/>
   </properties>
  </object>
 </objectgroup>
</map>
