<?xml version="1.0" encoding="UTF-8"?>
<map version="1.8" tiledversion="1.11.2" orientation="isometric" renderorder="right-down" width="50" height="50" tilewidth="64" tileheight="32" infinite="0" nextlayerid="4" nextobjectid="164">
 <properties>
  <property name="Background" value="custom"/>
  <property name="Background Animation" value="/server/assets/custom/backgrounds/home/suidoukyokunodennou1.animation"/>
  <property name="Background Texture" value="/server/assets/custom/backgrounds/home/suidoukyokunodennou1.png"/>
  <property name="Background Vel X" type="float" value="0.35"/>
  <property name="Background Vel Y" type="float" value="0.5"/>
  <property name="Name" value="Ice_Rink1"/>
  <property name="Song" value="/server/assets/icerink.ogg"/>
 </properties>
 <tileset firstgid="1" source="../assets/tiles/Custom_Central_Tiles.tsx"/>
 <tileset firstgid="9" source="../assets/tiles/Toy_Robo.tsx"/>
 <tileset firstgid="147" source="../assets/tiles/home_warp.tsx"/>
 <tileset firstgid="152" source="../assets/tiles/hp_warp_blue.tsx"/>
 <tileset firstgid="157" source="../assets/tiles/SquareWarpsA.tsx"/>
 <tileset firstgid="197" source="../assets/tiles/SnowTileTopper.tsx"/>
 <tileset firstgid="212" source="../assets/tiles/IceTileTopper.tsx"/>
 <tileset firstgid="224" source="../assets/tiles/HoloPanelz.tsx"/>
 <tileset firstgid="234" source="../assets/tiles/ShademanCompWarpAnimation.tsx"/>
 <tileset firstgid="240" source="../assets/tiles/Bn3UndernetFlashingWarpVariant2.tsx"/>
 <tileset firstgid="246" source="../assets/tiles/BBSOldFixed.tsx"/>
 <tileset firstgid="249" source="../assets/ezlibs-assets/ezcheckpoints/bn5cubegreen_tile.tsx"/>
 <tileset firstgid="253" source="../assets/ezlibs-assets/ezmystery/BlueMysteryData.tsx"/>
 <tileset firstgid="261" source="../assets/ezlibs-assets/ezmystery/GreenMysteryData.tsx"/>
 <tileset firstgid="269" source="../assets/tiles/enclosed-water-tiles.tsx"/>
 <tileset firstgid="317" source="../assets/tiles/Roadblock.tsx"/>
 <tileset firstgid="319" source="../assets/tiles/ice-clean.tsx"/>
 <tileset firstgid="415" source="../assets/fishing/timer/0.tsx"/>
 <tileset firstgid="416" source="../assets/fishing/timer/1.tsx"/>
 <tileset firstgid="417" source="../assets/fishing/timer/2.tsx"/>
 <tileset firstgid="418" source="../assets/fishing/timer/3.tsx"/>
 <tileset firstgid="419" source="../assets/fishing/timer/4.tsx"/>
 <tileset firstgid="420" source="../assets/fishing/timer/5.tsx"/>
 <tileset firstgid="421" source="../assets/fishing/ex.tsx"/>
 <tileset firstgid="422" source="../assets/fishing/icy-normal/0.tsx"/>
 <tileset firstgid="423" source="../assets/fishing/icy-normal/1.tsx"/>
 <tileset firstgid="424" source="../assets/fishing/icy-normal/2.tsx"/>
 <tileset firstgid="425" source="../assets/fishing/icy-normal/3.tsx"/>
 <tileset firstgid="426" source="../assets/fishing/icy-normal/4.tsx"/>
 <tileset firstgid="427" source="../assets/fishing/icy-normal/5.tsx"/>
 <tileset firstgid="428" source="../assets/fishing/icy-normal/6.tsx"/>
 <tileset firstgid="429" source="../assets/fishing/icy-normal/7.tsx"/>
 <tileset firstgid="430" source="../assets/fishing/icy-normal/8.tsx"/>
 <tileset firstgid="431" source="../assets/fishing/icy-normal/9.tsx"/>
 <tileset firstgid="432" source="../assets/fishing/icy-normal/10.tsx"/>
 <tileset firstgid="433" source="../assets/fishing/icy-sweet/0.tsx"/>
 <tileset firstgid="434" source="../assets/fishing/icy-sweet/1.tsx"/>
 <tileset firstgid="435" source="../assets/fishing/icy-sweet/2.tsx"/>
 <tileset firstgid="436" source="../assets/fishing/icy-sweet/3.tsx"/>
 <tileset firstgid="437" source="../assets/fishing/icy-sweet/4.tsx"/>
 <tileset firstgid="438" source="../assets/fishing/icy-sweet/5.tsx"/>
 <tileset firstgid="439" source="../assets/fishing/icy-sweet/6.tsx"/>
 <tileset firstgid="440" source="../assets/fishing/icy-sweet/7.tsx"/>
 <tileset firstgid="441" source="../assets/fishing/icy-sweet/8.tsx"/>
 <tileset firstgid="442" source="../assets/fishing/icy-sweet/9.tsx"/>
 <layer id="1" name="Tile Layer 1" width="50" height="50">
  <data encoding="csv">
0,0,0,0,0,0,0,0,0,0,0,0,0,0,0,0,0,0,0,0,0,0,0,0,0,0,0,0,0,0,0,0,0,0,0,0,0,0,0,0,0,0,0,0,0,0,0,0,0,0,
0,0,0,0,0,0,0,0,0,0,0,0,0,0,0,0,0,0,0,0,0,0,0,0,0,0,0,0,0,0,0,0,0,0,0,0,0,0,0,0,0,0,0,0,0,0,0,0,0,0,
0,0,0,0,0,0,0,0,0,0,0,0,0,0,0,0,0,0,0,0,0,0,0,0,0,0,0,0,0,0,0,0,0,0,0,0,0,0,0,0,0,0,0,0,0,0,0,0,0,0,
0,0,0,0,0,0,0,0,0,0,0,0,0,0,0,0,0,0,0,0,0,0,0,0,0,0,0,0,0,0,0,0,0,0,0,0,0,0,0,0,0,0,0,0,0,0,0,0,0,0,
0,0,0,0,0,0,0,0,0,0,0,0,0,0,0,0,0,0,0,0,0,0,0,0,0,0,0,0,0,0,0,0,0,0,0,0,0,0,0,0,0,0,0,0,0,0,0,0,0,0,
0,0,0,0,0,0,0,0,0,0,0,0,0,0,0,0,0,0,0,0,0,0,0,0,0,0,0,0,0,0,0,0,0,0,0,0,0,0,0,0,0,0,0,0,0,0,0,0,0,0,
0,0,0,0,0,0,0,0,0,0,0,0,0,0,0,0,0,0,0,0,0,0,0,0,0,0,0,0,0,0,0,0,0,0,0,0,0,0,0,0,0,0,0,0,0,0,0,0,0,0,
0,0,0,0,0,0,0,0,0,0,0,0,0,0,0,0,0,0,0,0,0,0,0,0,0,0,0,0,0,0,0,0,0,0,0,0,0,0,0,0,0,0,0,0,0,0,0,0,0,0,
0,0,0,0,0,0,0,0,0,0,0,0,0,0,0,0,0,0,0,0,0,0,0,0,0,0,0,0,0,0,0,0,0,0,0,0,0,0,0,0,0,0,0,0,0,0,0,0,0,0,
0,0,0,0,0,0,0,0,0,0,0,0,0,0,0,0,0,0,0,0,0,0,0,0,0,0,0,0,0,0,0,0,0,0,0,0,0,0,0,0,0,0,0,0,0,0,0,0,0,0,
0,0,0,0,0,0,0,0,0,0,0,0,0,0,0,0,0,0,0,0,0,0,0,0,0,0,0,0,0,0,0,0,0,0,0,0,0,0,0,0,0,0,0,0,0,0,0,0,0,0,
0,0,0,0,0,0,0,0,0,0,0,0,0,0,0,0,0,0,0,0,0,0,0,0,0,0,0,0,0,0,0,0,0,0,0,0,0,0,0,0,0,0,0,0,0,0,0,0,0,0,
0,0,0,0,0,0,0,0,0,0,0,0,0,0,0,0,0,0,0,0,0,0,0,0,0,0,0,0,0,0,0,4,4,4,0,0,0,0,0,0,0,0,0,0,0,0,0,0,0,0,
0,0,0,0,0,0,0,0,0,0,0,0,0,0,0,0,0,0,0,0,0,0,0,0,0,0,0,0,0,0,0,4,8,4,0,0,0,0,0,0,0,0,0,0,0,0,0,0,0,0,
0,0,0,0,0,0,0,0,0,0,0,0,0,0,0,0,0,0,0,0,0,0,0,0,0,0,0,0,0,0,0,4,4,4,0,0,0,0,0,0,0,0,0,0,0,0,0,0,0,0,
0,0,0,0,0,0,0,0,0,0,0,0,0,0,0,0,0,0,0,0,0,0,0,0,0,0,0,0,0,0,0,0,2,0,0,0,0,0,0,0,0,0,0,0,0,0,0,0,0,0,
0,0,0,0,0,0,0,0,0,0,0,0,0,0,0,0,0,0,0,0,0,0,0,0,0,0,0,0,0,0,0,0,2,0,0,0,0,0,0,0,0,0,0,0,0,0,0,0,0,0,
0,0,0,0,0,0,0,0,0,0,0,0,0,0,0,0,0,0,0,0,0,0,0,0,0,0,0,0,0,0,2,2,2,0,0,0,0,0,0,0,0,0,0,0,0,0,0,0,0,0,
0,0,0,0,0,0,0,0,0,0,0,0,0,0,0,0,0,0,0,0,0,0,0,0,0,0,0,0,0,0,2,8,8,8,0,0,0,0,0,0,0,0,0,0,0,0,0,0,0,0,
0,0,0,0,0,0,0,0,0,0,0,0,0,0,0,0,8,8,8,8,8,8,8,8,8,8,8,8,8,8,8,8,8,8,0,0,0,0,0,0,0,0,0,0,0,0,0,0,0,0,
0,0,0,0,0,0,0,0,0,0,0,0,0,0,0,0,8,8,8,8,8,8,8,8,8,8,8,8,8,8,8,8,8,8,0,0,0,0,0,0,0,0,0,0,0,0,0,0,0,0,
0,0,0,0,0,0,0,0,0,0,0,0,0,0,0,0,7,391,391,391,8,7,8,391,7,7,391,8,391,391,391,8,8,7,0,0,0,0,0,0,0,0,0,0,0,0,0,0,0,0,
0,0,0,0,0,0,0,0,0,0,0,0,0,0,0,0,391,356,356,356,356,356,356,356,356,356,356,356,356,356,356,356,356,391,0,0,0,0,0,0,0,0,0,0,0,0,0,0,0,0,
0,0,0,0,0,0,0,0,0,0,0,0,0,0,0,0,391,356,7,356,356,356,356,356,356,356,8,356,356,356,356,356,356,391,0,0,0,0,0,0,0,0,0,0,0,0,0,0,0,0,
0,0,0,0,0,0,0,0,0,0,0,0,0,0,0,0,391,7,356,356,356,356,356,356,356,356,356,356,356,356,356,356,356,391,0,0,0,0,0,0,0,0,0,0,0,0,0,0,0,0,
0,0,0,0,0,0,0,0,0,0,0,0,0,0,0,0,391,356,356,356,356,356,356,356,8,8,356,356,8,8,356,356,356,391,0,0,0,0,0,0,0,0,0,0,0,0,0,0,0,0,
0,0,0,0,0,0,0,0,0,0,0,0,0,0,0,0,391,7,356,356,8,356,356,356,356,356,8,356,356,356,356,356,356,391,0,0,0,0,0,0,0,0,0,0,0,0,0,0,0,0,
0,0,0,0,0,0,0,0,0,0,0,0,0,0,0,0,7,356,356,356,8,356,356,356,356,356,7,356,356,356,356,356,356,391,0,0,0,0,0,0,0,0,0,0,0,0,0,0,0,0,
0,0,0,0,0,0,0,0,0,0,0,0,0,0,0,0,391,356,356,7,356,356,356,356,356,356,356,356,356,356,356,356,356,391,0,0,0,0,0,0,0,0,0,0,0,0,0,0,0,0,
0,0,0,0,0,0,0,0,0,0,0,0,0,0,0,0,391,356,356,356,356,356,356,356,356,356,356,356,356,356,356,356,356,391,0,0,0,0,0,0,0,0,0,0,0,0,0,0,0,0,
0,0,0,0,0,0,0,0,0,0,0,0,0,279,7,391,391,356,356,356,356,356,7,356,356,356,356,356,356,356,356,356,7,391,0,0,0,0,0,0,0,0,0,0,0,0,0,0,0,0,
0,0,0,0,0,0,0,0,0,0,0,0,0,278,8,7,391,8,356,356,356,356,7,356,356,356,356,356,356,356,356,356,356,391,0,0,0,0,0,0,0,0,0,0,0,0,0,0,0,0,
0,0,0,0,0,0,0,0,0,0,0,0,0,277,7,391,391,7,356,356,356,356,356,8,356,356,356,356,356,8,356,8,8,391,0,0,0,0,0,0,0,0,0,0,0,0,0,0,0,0,
0,0,0,0,0,0,0,0,0,0,0,0,0,0,0,0,391,356,8,8,8,8,356,356,356,356,356,356,356,7,7,356,8,391,0,0,0,0,0,0,0,0,0,0,0,0,0,0,0,0,
0,0,0,0,0,0,0,0,0,0,0,0,0,0,0,0,391,356,8,356,356,356,356,356,356,356,8,356,356,356,356,356,356,391,0,0,0,0,0,0,0,0,0,0,0,0,0,0,0,0,
0,0,0,0,0,0,0,0,0,0,0,0,0,0,0,0,391,356,356,356,356,356,356,356,356,356,8,356,356,356,356,8,356,391,0,0,0,0,0,0,0,0,0,0,0,0,0,0,0,0,
0,0,0,0,0,0,0,0,0,0,0,0,0,0,0,0,391,391,391,391,391,391,391,391,391,391,391,391,391,391,391,391,391,391,0,0,0,0,0,0,0,0,0,0,0,0,0,0,0,0,
0,0,0,0,0,0,0,0,0,0,0,0,0,0,0,0,1,3,5,7,1,3,5,7,1,3,5,7,1,3,5,7,1,3,0,0,0,0,0,0,0,0,0,0,0,0,0,0,0,0,
0,0,0,0,0,0,0,0,0,0,0,0,0,0,0,0,5,5,5,5,5,5,5,5,5,5,5,5,5,5,5,5,5,5,0,0,0,0,0,0,0,0,0,0,0,0,0,0,0,0,
0,0,0,0,0,0,0,0,0,0,0,0,0,0,0,0,0,0,0,0,0,0,0,8,6,7,0,0,0,0,0,0,0,0,0,0,0,0,0,0,0,0,0,0,0,0,0,0,0,0,
0,0,0,0,0,0,0,0,0,0,0,0,0,0,0,0,0,0,0,0,0,0,0,7,5,8,0,0,0,0,0,0,0,0,0,0,0,0,0,0,0,0,0,0,0,0,0,0,0,0,
0,0,0,0,0,0,0,0,0,0,0,0,0,0,0,0,0,0,0,0,0,0,0,8,6,7,0,0,0,0,0,0,0,0,0,0,0,0,0,0,0,0,0,0,0,0,0,0,0,0,
0,0,0,0,0,0,0,0,0,0,0,0,0,0,0,0,0,0,0,0,0,0,7,8,5,8,7,0,0,0,0,0,0,0,0,0,0,0,0,0,0,0,0,0,0,0,0,0,0,0,
0,0,0,0,0,0,0,0,0,0,0,0,0,0,0,0,0,0,0,0,0,0,8,5,6,5,8,0,0,0,0,0,0,0,0,0,0,0,0,0,0,0,0,0,0,0,0,0,0,0,
0,0,0,0,0,0,0,0,0,0,0,0,0,0,0,0,0,0,0,0,0,0,7,6,8,6,7,0,0,0,0,0,0,0,0,0,0,0,0,0,0,0,0,0,0,0,0,0,0,0,
0,0,0,0,0,0,0,0,0,0,0,0,0,0,0,0,0,0,0,0,0,0,8,5,6,5,8,0,0,0,0,0,0,0,0,0,0,0,0,0,0,0,0,0,0,0,0,0,0,0,
0,0,0,0,0,0,0,0,0,0,0,0,0,0,0,0,0,0,0,0,0,0,7,8,7,8,7,0,0,0,0,0,0,0,0,0,0,0,0,0,0,0,0,0,0,0,0,0,0,0,
0,0,0,0,0,0,0,0,0,0,0,0,0,0,0,0,0,0,0,0,0,0,0,0,0,0,225,225,225,225,0,0,0,0,0,0,0,0,0,0,0,0,0,0,0,0,0,0,0,0,
0,0,0,0,0,0,0,0,0,0,0,0,0,0,0,0,0,0,0,0,0,0,0,0,0,0,0,0,0,0,0,0,0,0,0,0,0,0,0,0,0,0,0,0,0,0,0,0,0,0,
0,0,0,0,0,0,0,0,0,0,0,0,0,0,0,0,0,0,0,0,0,0,0,0,0,0,0,0,0,0,0,0,0,0,0,0,0,0,0,0,0,0,0,0,0,0,0,0,0,0
</data>
 </layer>
 <objectgroup id="3" name="Object Layer 1">
  <object id="4" name="HP" type="Custom Warp" gid="177" x="768" y="1408" width="64" height="39">
   <properties>
    <property name="Direction" value="Up Right"/>
    <property name="Target Area" value="default"/>
    <property name="Target Object" value="144"/>
   </properties>
  </object>
  <object id="5" gid="197" x="800" y="1344" width="64" height="37"/>
  <object id="6" gid="198" x="832" y="1376" width="64" height="37"/>
  <object id="7" gid="206" x="832" y="1344" width="64" height="37"/>
  <object id="8" gid="206" x="800" y="1312" width="64" height="37"/>
  <object id="9" gid="206" x="768" y="1312" width="64" height="37">
   <properties>
    <property name="Direction" value="Up Right"/>
   </properties>
  </object>
  <object id="10" gid="209" x="736" y="1248" width="64" height="37"/>
  <object id="11" gid="209" x="736" y="1312" width="64" height="37"/>
  <object id="14" gid="206" x="768" y="1248" width="64" height="37"/>
  <object id="15" gid="206" x="800" y="1248" width="64" height="37"/>
  <object id="16" gid="199" x="736" y="1280" width="64" height="37"/>
  <object id="17" gid="199" x="512" y="1216" width="64" height="37"/>
  <object id="35" gid="201" x="544" y="1216" width="64" height="37"/>
  <object id="36" gid="201" x="576" y="1216" width="64" height="37"/>
  <object id="37" gid="201" x="608" y="1216" width="64" height="37"/>
  <object id="38" gid="201" x="640" y="1216" width="64" height="37"/>
  <object id="39" gid="201" x="672" y="1216" width="64" height="37"/>
  <object id="40" gid="201" x="704" y="1216" width="64" height="37"/>
  <object id="41" gid="201" x="736" y="1216" width="64" height="37"/>
  <object id="42" gid="201" x="768" y="1216" width="64" height="37"/>
  <object id="43" gid="201" x="800" y="1216" width="64" height="37"/>
  <object id="44" gid="201" x="832" y="1216" width="64" height="37"/>
  <object id="45" gid="201" x="864" y="1216" width="64" height="37"/>
  <object id="46" gid="201" x="896" y="1216" width="64" height="37"/>
  <object id="47" gid="201" x="928" y="1216" width="64" height="37"/>
  <object id="48" gid="201" x="960" y="1216" width="64" height="37"/>
  <object id="49" gid="201" x="992" y="1216" width="64" height="37"/>
  <object id="50" gid="201" x="1024" y="1216" width="64" height="37"/>
  <object id="51" gid="201" x="1056" y="1216" width="64" height="37"/>
  <object id="52" name="TryAgain" type="Custom Warp" gid="240" x="635" y="859" width="60" height="29">
   <properties>
    <property name="Direction" value="Up Right"/>
    <property name="Target Area" value="rink"/>
    <property name="Target Object" value="9"/>
   </properties>
  </object>
  <object id="59" name="TryAgain" type="Custom Warp" gid="240" x="504.5" y="665.5" width="60" height="31">
   <properties>
    <property name="Direction" value="Up Right"/>
    <property name="Target Area" value="rink"/>
    <property name="Target Object" value="9"/>
   </properties>
  </object>
  <object id="60" name="TryAgain" type="Custom Warp" gid="240" x="1048.75" y="663.25" width="63" height="33">
   <properties>
    <property name="Direction" value="Up Right"/>
    <property name="Target Area" value="rink"/>
    <property name="Target Object" value="9"/>
   </properties>
  </object>
  <object id="61" name="TryAgain" type="Custom Warp" gid="240" x="535" y="759" width="65.5" height="34">
   <properties>
    <property name="Direction" value="Up Right"/>
    <property name="Target Area" value="rink"/>
    <property name="Target Object" value="9"/>
   </properties>
  </object>
  <object id="63" name="TryAgain" type="Custom Warp" gid="240" x="600" y="888" width="64" height="33">
   <properties>
    <property name="Direction" value="Up Right"/>
    <property name="Target Area" value="rink"/>
    <property name="Target Object" value="9"/>
   </properties>
  </object>
  <object id="64" name="TryAgain" type="Custom Warp" gid="240" x="699.25" y="986.75" width="61" height="29">
   <properties>
    <property name="Direction" value="Up Right"/>
    <property name="Target Area" value="rink"/>
    <property name="Target Object" value="9"/>
   </properties>
  </object>
  <object id="65" name="TryAgain" type="Custom Warp" gid="240" x="667" y="667" width="60" height="29">
   <properties>
    <property name="Direction" value="Up Right"/>
    <property name="Target Area" value="rink"/>
    <property name="Target Object" value="9"/>
   </properties>
  </object>
  <object id="66" name="TryAgain" type="Custom Warp" gid="240" x="1017" y="1049" width="64" height="32">
   <properties>
    <property name="Direction" value="Up Right"/>
    <property name="Target Area" value="rink"/>
    <property name="Target Object" value="9"/>
   </properties>
  </object>
  <object id="67" name="TryAgain" type="Custom Warp" gid="240" x="699" y="667" width="60" height="29">
   <properties>
    <property name="Direction" value="Up Right"/>
    <property name="Target Area" value="rink"/>
    <property name="Target Object" value="9"/>
   </properties>
  </object>
  <object id="70" name="TryAgain" type="Custom Warp" gid="240" x="569" y="729" width="65" height="31">
   <properties>
    <property name="Direction" value="Up Right"/>
    <property name="Target Area" value="rink"/>
    <property name="Target Object" value="9"/>
   </properties>
  </object>
  <object id="71" name="TryAgain" type="Custom Warp" gid="240" x="699.25" y="954.75" width="63" height="29">
   <properties>
    <property name="Direction" value="Up Right"/>
    <property name="Target Area" value="rink"/>
    <property name="Target Object" value="9"/>
   </properties>
  </object>
  <object id="75" name="TryAgain" type="Custom Warp" gid="240" x="763.5" y="794.5" width="60" height="29">
   <properties>
    <property name="Direction" value="Up Right"/>
    <property name="Target Area" value="rink"/>
    <property name="Target Object" value="9"/>
   </properties>
  </object>
  <object id="76" name="TryAgain" type="Custom Warp" gid="240" x="795" y="795" width="60" height="29">
   <properties>
    <property name="Direction" value="Up Right"/>
    <property name="Target Area" value="rink"/>
    <property name="Target Object" value="9"/>
   </properties>
  </object>
  <object id="77" name="TryAgain" type="Custom Warp" gid="240" x="823.75" y="728.25" width="65" height="33">
   <properties>
    <property name="Direction" value="Up Right"/>
    <property name="Target Area" value="rink"/>
    <property name="Target Object" value="9"/>
   </properties>
  </object>
  <object id="78" name="TryAgain" type="Custom Warp" gid="240" x="1019" y="667" width="60" height="29">
   <properties>
    <property name="Direction" value="Up Right"/>
    <property name="Target Area" value="rink"/>
    <property name="Target Object" value="9"/>
   </properties>
  </object>
  <object id="79" name="TryAgain" type="Custom Warp" gid="240" x="984" y="666" width="66" height="32">
   <properties>
    <property name="Direction" value="Up Right"/>
    <property name="Target Area" value="rink"/>
    <property name="Target Object" value="9"/>
   </properties>
  </object>
  <object id="84" name="TryAgain" type="Custom Warp" gid="240" x="728.125" y="1015.88" width="67.5" height="33">
   <properties>
    <property name="Direction" value="Up Right"/>
    <property name="Target Area" value="rink"/>
    <property name="Target Object" value="9"/>
   </properties>
  </object>
  <object id="86" name="TryAgain" type="Custom Warp" gid="240" x="855.5" y="664.5" width="64" height="34">
   <properties>
    <property name="Direction" value="Up Right"/>
    <property name="Target Area" value="rink"/>
    <property name="Target Object" value="9"/>
   </properties>
  </object>
  <object id="88" name="TryAgain" type="Custom Warp" gid="240" x="763" y="667" width="60" height="29">
   <properties>
    <property name="Direction" value="Up Right"/>
    <property name="Target Area" value="rink"/>
    <property name="Target Object" value="9"/>
   </properties>
  </object>
  <object id="89" name="TryAgain" type="Custom Warp" gid="240" x="792" y="664" width="60" height="33">
   <properties>
    <property name="Direction" value="Up Right"/>
    <property name="Target Area" value="rink"/>
    <property name="Target Object" value="9"/>
   </properties>
  </object>
  <object id="91" name="CongratsBBS" type="BBS" gid="247" x="496.5" y="625.5" width="48" height="69">
   <properties>
    <property name="BBS" type="bool" value="true"/>
    <property name="Color" type="color" value="#ff91ff00"/>
    <property name="Name" value="CongratsBBS"/>
    <property name="Post Limit" type="int" value="999"/>
   </properties>
  </object>
  <object id="92" name="TryAgain" type="Custom Warp" gid="240" x="631" y="665" width="64" height="33">
   <properties>
    <property name="Direction" value="Up Right"/>
    <property name="Target Area" value="rink"/>
    <property name="Target Object" value="9"/>
   </properties>
  </object>
  <object id="94" name="Home2" type="Custom Warp" gid="147" x="1024" y="608" width="60" height="32">
   <properties>
    <property name="Direction" value="Up Left"/>
    <property name="Target Area" value="default"/>
    <property name="Target Object" value="144"/>
   </properties>
  </object>
  <object id="95" name="rink2" type="Custom Warp" gid="157" x="1024" y="416" width="64" height="39">
   <properties>
    <property name="Direction" value="Down Left"/>
    <property name="Target Area" value="rink2"/>
    <property name="Target Object" value="1"/>
   </properties>
  </object>
  <object id="98" gid="197" x="672" y="608" width="64" height="37"/>
  <object id="99" gid="203" x="704" y="608" width="64" height="37"/>
  <object id="100" gid="211" x="512" y="608" width="64" height="37"/>
  <object id="101" gid="210" x="512" y="640" width="64" height="37"/>
  <object id="102" gid="206" x="800" y="640" width="64" height="37"/>
  <object id="103" gid="202" x="864" y="608" width="64" height="37"/>
  <object id="105" gid="208" x="928" y="640" width="64" height="37"/>
  <object id="106" gid="206" x="960" y="608" width="64" height="37"/>
  <object id="107" gid="206" x="992" y="640" width="64" height="37"/>
  <object id="118" name="Cube3" type="Checkpoint" gid="249" x="850.363" y="1523.64" width="77.4531" height="61" visible="0">
   <properties>
    <property name="Description" value="Admin Block, well done on finding this!"/>
    <property name="Once" type="bool" value="true"/>
    <property name="Password" value="L is Real"/>
    <property name="Skip Prompt" type="bool" value="false"/>
    <property name="Unlock Failed Message" value="Incorrect Password"/>
    <property name="Unlocked Message" value="Unlocked!"/>
   </properties>
  </object>
  <object id="119" name="rink2" type="Custom Warp" gid="53" x="928.5" y="1495.5" width="80" height="72" visible="0">
   <properties>
    <property name="Direction" value="Up Left"/>
    <property name="Target Area" value="rink"/>
    <property name="Target Object" value="98"/>
   </properties>
  </object>
  <object id="120" name="MysteryDataResults" type="Mystery Option" x="797.5" y="525.5">
   <properties>
    <property name="Next 1" type="object" value="121"/>
    <property name="Next 2" type="object" value="121"/>
    <property name="Next 3" type="object" value="122"/>
    <property name="Next 4" type="object" value="122"/>
    <property name="Next 5" type="object" value="123"/>
    <property name="Next 6" type="object" value="123"/>
    <property name="Next 7" type="object" value="125"/>
    <property name="Next 8" type="object" value="125"/>
    <property name="Next 9" type="object" value="125"/>
    <property name="Type" value="random"/>
   </properties>
   <point/>
  </object>
  <object id="121" name="50" type="Mystery Option" x="811.5" y="433.5">
   <properties>
    <property name="Amount" value="50"/>
    <property name="Type" value="money"/>
   </properties>
   <point/>
  </object>
  <object id="122" name="100" type="Mystery Option" x="829" y="446">
   <properties>
    <property name="Amount" value="100"/>
    <property name="Type" value="money"/>
   </properties>
   <point/>
  </object>
  <object id="123" name="150" type="Mystery Option" x="852.5" y="470.5">
   <properties>
    <property name="Amount" value="150"/>
    <property name="Type" value="money"/>
   </properties>
   <point/>
  </object>
  <object id="124" name="200" type="Mystery Option" x="866.5" y="486.5">
   <properties>
    <property name="Amount" value="200"/>
    <property name="Type" value="money"/>
   </properties>
   <point/>
  </object>
  <object id="125" name="Uncommon" type="Mystery Option" x="699.5" y="439.5">
   <properties>
    <property name="Next 1" type="object" value="124"/>
    <property name="Next 2" type="object" value="124"/>
    <property name="Next 3" type="object" value="124"/>
    <property name="Next 4" type="object" value="126"/>
    <property name="Next 5" type="object" value="126"/>
    <property name="Next 6" type="object" value="126"/>
    <property name="Next 7" type="object" value="127"/>
    <property name="Next 8" type="object" value="127"/>
    <property name="Next 9" type="object" value="127"/>
    <property name="Type" value="random"/>
   </properties>
   <point/>
  </object>
  <object id="126" name="500" type="Mystery Option" x="721.5" y="393.5">
   <properties>
    <property name="Amount" value="500"/>
    <property name="Type" value="money"/>
   </properties>
   <point/>
  </object>
  <object id="127" name="Rare" type="Mystery Option" x="654" y="395">
   <properties>
    <property name="Next 1" type="object" value="128"/>
    <property name="Next 2" type="object" value="129"/>
    <property name="Next 3" type="object" value="129"/>
    <property name="Type" value="random"/>
   </properties>
   <point/>
  </object>
  <object id="128" name="1000" type="Mystery Option" x="678" y="355">
   <properties>
    <property name="Amount" value="1000"/>
    <property name="Type" value="money"/>
   </properties>
   <point/>
  </object>
  <object id="129" name="Ultra Rare" type="Mystery Option" x="624" y="359">
   <properties>
    <property name="Next 1" type="object" value="130"/>
    <property name="Next 2" type="object" value="132"/>
    <property name="Next 3" type="object" value="132"/>
    <property name="Type" value="random"/>
   </properties>
   <point/>
  </object>
  <object id="130" name="10000" type="Mystery Option" x="647" y="326">
   <properties>
    <property name="Amount" value="10000"/>
    <property name="Type" value="money"/>
   </properties>
   <point/>
  </object>
  <object id="131" name="100,000" type="Mystery Option" x="627" y="302">
   <properties>
    <property name="Amount" value="100000"/>
    <property name="Type" value="money"/>
   </properties>
   <point/>
  </object>
  <object id="132" name="Rarest" type="Mystery Option" x="602" y="325">
   <properties>
    <property name="Next 1" type="object" value="136"/>
    <property name="Next 2" type="object" value="131"/>
    <property name="Type" value="random"/>
   </properties>
   <point/>
  </object>
  <object id="133" type="Mystery Data" gid="261" x="629.5" y="628.5" width="14" height="43">
   <properties>
    <property name="Next 1" type="object" value="120"/>
    <property name="Type" value="random"/>
   </properties>
  </object>
  <object id="135" type="Mystery Data" gid="253" x="598" y="630" width="14" height="43">
   <properties>
    <property name="Amount" type="int" value="100000"/>
    <property name="Next 1" type="object" value="0"/>
    <property name="Once" type="bool" value="true"/>
    <property name="Type" value="money"/>
   </properties>
  </object>
  <object id="136" name="50,000" type="Mystery Option" x="639.5" y="316.5">
   <properties>
    <property name="Amount" value="50000"/>
    <property name="Type" value="money"/>
   </properties>
   <point/>
  </object>
  <object id="138" name="TryAgain" type="Custom Warp" gid="240" x="824" y="1112" width="64" height="33">
   <properties>
    <property name="Direction" value="Up Right"/>
    <property name="Target Area" value="rink"/>
    <property name="Target Object" value="9"/>
   </properties>
  </object>
  <object id="139" name="TryAgain" type="Custom Warp" gid="240" x="504.125" y="855.875" width="69.5" height="33">
   <properties>
    <property name="Direction" value="Up Right"/>
    <property name="Target Area" value="rink"/>
    <property name="Target Object" value="9"/>
   </properties>
  </object>
  <object id="140" name="TryAgain" type="Custom Warp" gid="240" x="824" y="1080" width="64" height="33">
   <properties>
    <property name="Direction" value="Up Right"/>
    <property name="Target Area" value="rink"/>
    <property name="Target Object" value="9"/>
   </properties>
  </object>
  <object id="141" name="TryAgain" type="Custom Warp" gid="240" x="920" y="1048" width="64" height="33">
   <properties>
    <property name="Direction" value="Up Right"/>
    <property name="Target Area" value="rink"/>
    <property name="Target Object" value="9"/>
   </properties>
  </object>
  <object id="142" name="TryAgain" type="Custom Warp" gid="240" x="952" y="1048" width="64" height="33">
   <properties>
    <property name="Direction" value="Up Right"/>
    <property name="Target Area" value="rink"/>
    <property name="Target Object" value="9"/>
   </properties>
  </object>
  <object id="143" name="TryAgain" type="Custom Warp" gid="240" x="984" y="1112" width="64" height="33">
   <properties>
    <property name="Direction" value="Up Right"/>
    <property name="Target Area" value="rink"/>
    <property name="Target Object" value="9"/>
   </properties>
  </object>
  <object id="144" name="TryAgain" type="Custom Warp" gid="240" x="536" y="1016" width="64" height="33">
   <properties>
    <property name="Direction" value="Up Right"/>
    <property name="Target Area" value="rink"/>
    <property name="Target Object" value="9"/>
   </properties>
  </object>
  <object id="145" name="TryAgain" type="Custom Warp" gid="240" x="824" y="856" width="64" height="33">
   <properties>
    <property name="Direction" value="Up Right"/>
    <property name="Target Area" value="rink"/>
    <property name="Target Object" value="9"/>
   </properties>
  </object>
  <object id="146" name="TryAgain" type="Custom Warp" gid="240" x="888" y="792" width="64" height="33">
   <properties>
    <property name="Direction" value="Up Right"/>
    <property name="Target Area" value="rink"/>
    <property name="Target Object" value="9"/>
   </properties>
  </object>
  <object id="147" name="TryAgain" type="Custom Warp" gid="240" x="920" y="792" width="64" height="33">
   <properties>
    <property name="Direction" value="Up Right"/>
    <property name="Target Area" value="rink"/>
    <property name="Target Object" value="9"/>
   </properties>
  </object>
  <object id="148" name="TryAgain" type="Custom Warp" gid="240" x="984" y="1016" width="64" height="33">
   <properties>
    <property name="Direction" value="Up Right"/>
    <property name="Target Area" value="rink"/>
    <property name="Target Object" value="9"/>
   </properties>
  </object>
  <object id="149" name="TryAgain" type="Custom Warp" gid="240" x="568" y="1048" width="64" height="33">
   <properties>
    <property name="Direction" value="Up Right"/>
    <property name="Target Area" value="rink"/>
    <property name="Target Object" value="9"/>
   </properties>
  </object>
  <object id="150" name="TryAgain" type="Custom Warp" gid="240" x="600" y="1048" width="64" height="33">
   <properties>
    <property name="Direction" value="Up Right"/>
    <property name="Target Area" value="rink"/>
    <property name="Target Object" value="9"/>
   </properties>
  </object>
  <object id="151" name="TryAgain" type="Custom Warp" gid="240" x="632" y="1048" width="64" height="33">
   <properties>
    <property name="Direction" value="Up Right"/>
    <property name="Target Area" value="rink"/>
    <property name="Target Object" value="9"/>
   </properties>
  </object>
  <object id="152" name="TryAgain" type="Custom Warp" gid="240" x="664" y="1048" width="64" height="33">
   <properties>
    <property name="Direction" value="Up Right"/>
    <property name="Target Area" value="rink"/>
    <property name="Target Object" value="9"/>
   </properties>
  </object>
  <object id="153" name="Fishing Test" type="Water" gid="2147483965" x="432" y="1040" width="64" height="64" visible="0">
   <properties>
    <property name="Water" type="bool" value="true"/>
   </properties>
  </object>
  <object id="154" name="Fishing Test" type="Water" gid="2147483965" x="432" y="1008" width="64" height="64" visible="0">
   <properties>
    <property name="Water" type="bool" value="true"/>
   </properties>
  </object>
  <object id="155" name="Fishing Test" type="Water" gid="2147483965" x="432" y="976" width="64" height="64" visible="0">
   <properties>
    <property name="Water" type="bool" value="true"/>
   </properties>
  </object>
  <object id="156" name="TryAgain" type="Custom Warp" gid="240" x="568" y="1080" width="64" height="33">
   <properties>
    <property name="Direction" value="Up Right"/>
    <property name="Target Area" value="rink"/>
    <property name="Target Object" value="9"/>
   </properties>
  </object>
  <object id="157" name="FishBBS" type="FishBBS" gid="2147483895" x="448" y="944" width="48" height="69">
   <properties>
    <property name="Color" type="color" value="#ffff0000"/>
    <property name="Name" value="FishBBS"/>
   </properties>
  </object>
  <object id="158" name="Zarymura" type="NPC" x="719.5" y="1492.5">
   <properties>
    <property name="Asset Name" value="zarymura"/>
    <property name="Dialogue Type" value="first"/>
    <property name="Direction" value="Up Left"/>
    <property name="Next 1" type="object" value="162"/>
    <property name="Text 1" value="Hey kid... want some bugfrags?"/>
   </properties>
   <point/>
  </object>
  <object id="159" name="Bugfrag shop" type="Dialogue" x="675.5" y="1464.5">
   <properties>
    <property name="Dialogue Type" value="shop"/>
    <property name="Item 1" type="object" value="161"/>
   </properties>
   <point/>
  </object>
  <object id="160" name="Explain" type="Dialogue" x="672.5" y="1447.5">
   <properties>
    <property name="Dialogue Type" value="first"/>
    <property name="Text 1" value="Huh? What do these do? Easy, kid. Just chuck one of these bad boys into the water and watch those big fish scatter! Doubles your virus encounter rate, too - nyahaha! They'll be deleting themselves just to get a piece, while you rake in the moneyz. Pretty sweet deal, huh?"/>
   </properties>
   <point/>
  </object>
  <object id="161" name="bugfrag" type="Item" x="645" y="1459.5">
   <properties>
    <property name="Description" value="Bugfrag to fish"/>
    <property name="Name" value="bugfrag"/>
    <property name="Price" value="10000"/>
    <property name="Type" value="item"/>
   </properties>
   <point/>
  </object>
  <object id="162" name="Quiz" type="Dialogue" x="695.5" y="1462.5">
   <properties>
    <property name="Dialogue Type" value="quiz"/>
    <property name="Next 1" type="object" value="159"/>
    <property name="Next 2" type="object" value="160"/>
    <property name="Next 3" type="object" value="163"/>
    <property name="Text 1" value="Buy bugfrags"/>
    <property name="Text 2" value="Explain"/>
    <property name="Text 3" value="Cancel"/>
   </properties>
   <point/>
  </object>
  <object id="163" name="No" type="Dialogue" x="674" y="1434">
   <properties>
    <property name="Dialogue Type" value="first"/>
    <property name="Text 1" value="Aight kid, you'll be back..."/>
   </properties>
   <point/>
  </object>
 </objectgroup>
</map>
